;Generated with ArcOne Post-Processing Script
;POSTPROCESSED
;Exported with Cura-DuetRRF v1.2.9 plugin by Thomas Kriechbaumer
;top metadata start
;Git Commit Hash (Version): 268df1c81d21e982cbafe7313a5bc205836ecc0a
;FLAVOR:RepRap
;TIME:91
;Filament used: 0.746993m
;Layer height: 1.55
;MINX:138.951
;MINY:273.951
;MINZ:1.55
;MAXX:171.049
;MAXY:306.049
;MAXZ:8.75

;Arc One Settings
;weld_gap = 15.0
;sleep_time = 5.0
;rotate_amount = 6
;overwrite_movement_rate = True
;movement_rate = 381.0
;use_temperature_sensor = False
;wait_for_temp = 275.0

;Generated with Cura_SteamEngine 5.4.0 + Arc One
M568 P2 S275.0
;top metadata end
;startup script start
T0
M104 S200
M109 S200
M82 ;absolute extrusion mode
G28 ;Home
M83 ;relative extrusion mode
G1 F381.0
;LAYER_COUNT:5
;startup script end

;gcode movements start

;LAYER:0
M107
G1 F381.0 Z16.0
;MESH:100mm Donut.stl
G0 F9000 Z100
;Initial Z Offset
G0 F7200 X155 Y306.049 
;TYPE:WALL-OUTER
G1 F381.0 Z15.0
M42 P1 S1 ;Enable Welder
echo >"outputs.txt" "Layer Start"
G1 F381.0 
G1 F381.0 X155.769 Y306.03 
G1 X156.384 Y305.99 
G1 F381.0 X157.103 Y305.912 
G1 F381.0 X157.796 Y305.805 
G1 F381.0 X158.47 Y305.67 
G1 X159.128 Y305.51 
G1 F381.0 X159.834 Y305.303 
G1 X160.505 Y305.077 
G1 F381.0 X161.133 Y304.832 
G1 F381.0 X161.774 Y304.55 
G1 F381.0 X162.408 Y304.238 
G1 F381.0 X163.034 Y303.894 
G1 X163.693 Y303.49 
G1 X164.207 Y303.146 
G1 X164.769 Y302.735 
G1 F381.0 X165.308 Y302.302 
G1 F381.0 X165.892 Y301.789 
G1 F381.0 X166.348 Y301.348 
G1 X166.789 Y300.892 
G1 F381.0 X167.302 Y300.308 
G1 F381.0 X167.768 Y299.724 
G1 F381.0 X168.148 Y299.204 
G1 X168.534 Y298.627 
G1 X168.894 Y298.034 
G1 X169.238 Y297.407 
G1 X169.553 Y296.768 
G1 F381.0 X169.847 Y296.094 
G1 X170.073 Y295.514 
G1 F381.0 X170.303 Y294.834 
G1 X170.517 Y294.097 
G1 F381.0 X170.678 Y293.431 
G1 X170.805 Y292.793 
G1 F381.0 X170.913 Y292.101 
G1 X170.991 Y291.37 
G1 F381.0 X171.033 Y290.723 
G1 X171.049 Y290 
G1 F381.0 X171.033 Y289.267 
G1 F381.0 X170.99 Y288.616 
G1 F381.0 X170.913 Y287.905 
G1 F381.0 X170.805 Y287.205 
G1 F381.0 X170.67 Y286.53 
G1 F381.0 X170.511 Y285.879 
G1 F381.0 X170.3 Y285.155 
G1 F381.0 X170.071 Y284.479 
G1 X169.835 Y283.873 
G1 F381.0 X169.553 Y283.233 
G1 X169.238 Y282.593 
G1 F381.0 X168.894 Y281.966 
G1 F381.0 X168.534 Y281.375 
G1 X168.13 Y280.771 
G1 F381.0 X167.735 Y280.231 
G1 F381.0 X167.302 Y279.692 
G1 F381.0 X166.789 Y279.108 
G1 F381.0 X166.348 Y278.652 
G1 X165.892 Y278.211 
G1 F381.0 X165.308 Y277.698 
G1 F381.0 X164.769 Y277.265 
G1 X164.207 Y276.854 
G1 F381.0 X163.584 Y276.44 
G1 F381.0 X163.034 Y276.106 
G1 F381.0 X162.408 Y275.762 
G1 X161.774 Y275.45 
G1 F381.0 X161.133 Y275.168 
G1 F381.0 X160.505 Y274.923 
G1 X159.834 Y274.697 
G1 F381.0 X159.128 Y274.49 
G1 X158.431 Y274.322 
G1 X157.796 Y274.195 
G1 F381.0 X157.103 Y274.088 
G1 X156.384 Y274.01 
G1 F381.0 X155.723 Y273.967 
G1 X155 Y273.951 
G1 X154.231 Y273.97 
G1 X153.616 Y274.01 
G1 X152.897 Y274.088 
G1 X152.204 Y274.195 
G1 X151.53 Y274.33 
G1 F381.0 X150.872 Y274.49 
G1 F381.0 X150.166 Y274.697 
G1 F381.0 X149.495 Y274.923 
G1 F381.0 X148.867 Y275.168 
G1 X148.226 Y275.45 
G1 F381.0 X147.592 Y275.762 
G1 X146.966 Y276.106 
G1 X146.307 Y276.51 
G1 X145.793 Y276.854 
G1 X145.231 Y277.265 
G1 X144.692 Y277.698 
G1 F381.0 X144.108 Y278.211 
G1 F381.0 X143.652 Y278.652 
G1 X143.211 Y279.108 
G1 F381.0 X142.698 Y279.692 
G1 F381.0 X142.265 Y280.231 
G1 X141.854 Y280.793 
G1 X141.44 Y281.416 
G1 X141.106 Y281.966 
G1 F381.0 X140.762 Y282.593 
G1 X140.447 Y283.233 
G1 F381.0 X140.165 Y283.873 
G1 X139.929 Y284.479 
G1 F381.0 X139.7 Y285.155 
G1 X139.483 Y285.903 
G1 X139.322 Y286.569 
G1 X139.195 Y287.205 
G1 X139.087 Y287.905 
G1 X139.01 Y288.616 
G1 F381.0 X138.967 Y289.267 
G1 F381.0 X138.951 Y290 
G1 F381.0 X138.97 Y290.769 
G1 F381.0 X139.009 Y291.37 
G1 X139.087 Y292.101 
G1 X139.203 Y292.838 
G1 X139.33 Y293.47 
G1 X139.489 Y294.12 
G1 F381.0 X139.697 Y294.834 
G1 F381.0 X139.927 Y295.514 
G1 F381.0 X140.161 Y296.114 
G1 F381.0 X140.447 Y296.768 
G1 F381.0 X140.762 Y297.407 
G1 X141.106 Y298.034 
G1 F381.0 X141.466 Y298.627 
G1 X141.87 Y299.229 
G1 F381.0 X142.265 Y299.768 
G1 X142.698 Y300.308 
G1 F381.0 X143.211 Y300.892 
G1 F381.0 X143.652 Y301.348 
G1 X144.108 Y301.789 
G1 F381.0 X144.692 Y302.302 
G1 F381.0 X145.231 Y302.735 
G1 X145.793 Y303.146 
G1 X146.416 Y303.56 
G1 X146.966 Y303.894 
G1 X147.592 Y304.238 
G1 X148.226 Y304.55 
G1 F381.0 X148.867 Y304.832 
G1 X149.495 Y305.077 
G1 F381.0 X150.166 Y305.303 
G1 F381.0 X150.872 Y305.51 
G1 F381.0 X151.569 Y305.678 
G1 F381.0 X152.204 Y305.805 
G1 X152.897 Y305.912 
G1 X153.616 Y305.99 
G1 X154.277 Y306.033 
G1 F381.0 X155 Y306.049 
G1 F381.0 
M42 P1 S0 ;Disable Welder
echo >"outputs.txt" "Layer End"
G1 F381.0 Z16.0
;MESH:NONMESH
G0 F7200 X153.616 Y274.01 Z16.0
;TIME_ELAPSED:22.425430

;LAYER:1
G4 S5 P0
;MESH:100mm Donut.stl
G0 X153.616 Y274.01 Z17.549999999999997
;TYPE:WALL-OUTER
G1 F381.0 Z16.55
M42 P1 S1 ;Enable Welder
G1 F381.0 
G1 F381.0 X154.231 Y273.97 
G1 X155 Y273.951 
G1 X155.723 Y273.967 
G1 X156.384 Y274.01 
G1 F381.0 X157.103 Y274.088 
G1 X157.796 Y274.195 
G1 F381.0 X158.431 Y274.322 
G1 X159.128 Y274.49 
G1 X159.834 Y274.697 
G1 F381.0 X160.505 Y274.923 
G1 X161.133 Y275.168 
G1 F381.0 X161.774 Y275.45 
G1 F381.0 X162.408 Y275.762 
G1 X163.034 Y276.106 
G1 F381.0 X163.584 Y276.44 
G1 F381.0 X164.207 Y276.854 
G1 F381.0 X164.769 Y277.265 
G1 X165.308 Y277.698 
G1 F381.0 X165.892 Y278.211 
G1 F381.0 X166.348 Y278.652 
G1 X166.789 Y279.108 
G1 F381.0 X167.302 Y279.692 
G1 F381.0 X167.735 Y280.231 
G1 F381.0 X168.13 Y280.771 
G1 F381.0 X168.534 Y281.375 
G1 X168.894 Y281.966 
G1 F381.0 X169.238 Y282.593 
G1 F381.0 X169.553 Y283.233 
G1 X169.835 Y283.873 
G1 F381.0 X170.071 Y284.479 
G1 X170.3 Y285.155 
G1 F381.0 X170.511 Y285.879 
G1 F381.0 X170.67 Y286.53 
G1 F381.0 X170.805 Y287.205 
G1 F381.0 X170.913 Y287.905 
G1 F381.0 X170.99 Y288.616 
G1 F381.0 X171.033 Y289.267 
G1 F381.0 X171.049 Y290 
G1 F381.0 X171.033 Y290.723 
G1 X170.991 Y291.37 
G1 F381.0 X170.913 Y292.101 
G1 X170.805 Y292.793 
G1 F381.0 X170.678 Y293.431 
G1 X170.517 Y294.097 
G1 F381.0 X170.303 Y294.834 
G1 X170.073 Y295.514 
G1 F381.0 X169.847 Y296.094 
G1 X169.553 Y296.768 
G1 F381.0 X169.238 Y297.407 
G1 X168.894 Y298.034 
G1 X168.534 Y298.627 
G1 X168.148 Y299.204 
G1 X167.768 Y299.724 
G1 F381.0 X167.302 Y300.308 
G1 F381.0 X166.789 Y300.892 
G1 F381.0 X166.348 Y301.348 
G1 X165.892 Y301.789 
G1 F381.0 X165.308 Y302.302 
G1 F381.0 X164.769 Y302.735 
G1 F381.0 X164.207 Y303.146 
G1 X163.693 Y303.49 
G1 X163.034 Y303.894 
G1 X162.408 Y304.238 
G1 F381.0 X161.774 Y304.55 
G1 F381.0 X161.133 Y304.832 
G1 F381.0 X160.505 Y305.077 
G1 F381.0 X159.834 Y305.303 
G1 X159.128 Y305.51 
G1 F381.0 X158.47 Y305.67 
G1 X157.796 Y305.805 
G1 F381.0 X157.103 Y305.912 
G1 F381.0 X156.384 Y305.99 
G1 F381.0 X155.769 Y306.03 
G1 X155 Y306.049 
G1 F381.0 X154.277 Y306.033 
G1 F381.0 X153.616 Y305.99 
G1 X152.897 Y305.912 
G1 X152.204 Y305.805 
G1 X151.569 Y305.678 
G1 F381.0 X150.872 Y305.51 
G1 F381.0 X150.166 Y305.303 
G1 F381.0 X149.495 Y305.077 
G1 F381.0 X148.867 Y304.832 
G1 X148.226 Y304.55 
G1 F381.0 X147.592 Y304.238 
G1 X146.966 Y303.894 
G1 X146.416 Y303.56 
G1 X145.793 Y303.146 
G1 X145.231 Y302.735 
G1 X144.692 Y302.302 
G1 F381.0 X144.108 Y301.789 
G1 F381.0 X143.652 Y301.348 
G1 X143.211 Y300.892 
G1 F381.0 X142.698 Y300.308 
G1 F381.0 X142.265 Y299.768 
G1 X141.87 Y299.229 
G1 F381.0 X141.466 Y298.627 
G1 X141.106 Y298.034 
G1 F381.0 X140.762 Y297.407 
G1 X140.447 Y296.768 
G1 F381.0 X140.161 Y296.114 
G1 F381.0 X139.927 Y295.514 
G1 F381.0 X139.697 Y294.834 
G1 F381.0 X139.489 Y294.12 
G1 F381.0 X139.33 Y293.47 
G1 X139.203 Y292.838 
G1 X139.087 Y292.101 
G1 X139.009 Y291.37 
G1 X138.97 Y290.769 
G1 F381.0 X138.951 Y290 
G1 F381.0 X138.967 Y289.267 
G1 F381.0 X139.01 Y288.616 
G1 F381.0 X139.087 Y287.905 
G1 X139.195 Y287.205 
G1 X139.322 Y286.569 
G1 X139.483 Y285.903 
G1 X139.7 Y285.155 
G1 X139.929 Y284.479 
G1 F381.0 X140.165 Y283.873 
G1 X140.447 Y283.233 
G1 F381.0 X140.762 Y282.593 
G1 X141.106 Y281.966 
G1 F381.0 X141.44 Y281.416 
G1 X141.854 Y280.793 
G1 X142.265 Y280.231 
G1 X142.698 Y279.692 
G1 F381.0 X143.211 Y279.108 
G1 F381.0 X143.652 Y278.652 
G1 X144.108 Y278.211 
G1 F381.0 X144.692 Y277.698 
G1 F381.0 X145.231 Y277.265 
G1 X145.793 Y276.854 
G1 X146.307 Y276.51 
G1 X146.966 Y276.106 
G1 X147.592 Y275.762 
G1 X148.226 Y275.45 
G1 F381.0 X148.867 Y275.168 
G1 X149.495 Y274.923 
G1 F381.0 X150.166 Y274.697 
G1 F381.0 X150.872 Y274.49 
G1 F381.0 X151.53 Y274.33 
G1 F381.0 X152.204 Y274.195 
G1 X152.897 Y274.088 
G1 X153.616 Y274.01 
G1 F381.0 
M42 P1 S0 ;Disable Welder
G1 F381.0 Z17.549999999999997
;MESH:NONMESH
G0 F7200 X155 Y306.049 Z17.549999999999997
;TIME_ELAPSED:40.026636

;LAYER:2
G4 S5 P0
;MESH:100mm Donut.stl
G0 X155 Y306.049 Z19.1
;TYPE:WALL-OUTER
G1 F381.0 Z18.1
M42 P1 S1 ;Enable Welder
G1 F381.0 
G1 F381.0 X155.769 Y306.03 
G1 X156.384 Y305.99 
G1 F381.0 X157.103 Y305.912 
G1 F381.0 X157.796 Y305.805 
G1 F381.0 X158.47 Y305.67 
G1 X159.128 Y305.51 
G1 F381.0 X159.834 Y305.303 
G1 X160.505 Y305.077 
G1 F381.0 X161.133 Y304.832 
G1 F381.0 X161.774 Y304.55 
G1 F381.0 X162.408 Y304.238 
G1 F381.0 X163.034 Y303.894 
G1 X163.693 Y303.49 
G1 X164.207 Y303.146 
G1 X164.769 Y302.735 
G1 F381.0 X165.308 Y302.302 
G1 F381.0 X165.892 Y301.789 
G1 F381.0 X166.348 Y301.348 
G1 X166.789 Y300.892 
G1 F381.0 X167.302 Y300.308 
G1 F381.0 X167.768 Y299.724 
G1 F381.0 X168.148 Y299.204 
G1 X168.534 Y298.627 
G1 X168.894 Y298.034 
G1 X169.238 Y297.407 
G1 X169.553 Y296.768 
G1 F381.0 X169.847 Y296.094 
G1 X170.073 Y295.514 
G1 F381.0 X170.303 Y294.834 
G1 X170.517 Y294.097 
G1 F381.0 X170.678 Y293.431 
G1 X170.805 Y292.793 
G1 F381.0 X170.913 Y292.101 
G1 X170.991 Y291.37 
G1 F381.0 X171.033 Y290.723 
G1 X171.049 Y290 
G1 F381.0 X171.033 Y289.267 
G1 F381.0 X170.99 Y288.616 
G1 F381.0 X170.913 Y287.905 
G1 F381.0 X170.805 Y287.205 
G1 F381.0 X170.67 Y286.53 
G1 F381.0 X170.511 Y285.879 
G1 F381.0 X170.3 Y285.155 
G1 F381.0 X170.071 Y284.479 
G1 X169.835 Y283.873 
G1 F381.0 X169.553 Y283.233 
G1 X169.238 Y282.593 
G1 F381.0 X168.894 Y281.966 
G1 F381.0 X168.534 Y281.375 
G1 X168.13 Y280.771 
G1 F381.0 X167.735 Y280.231 
G1 F381.0 X167.302 Y279.692 
G1 F381.0 X166.789 Y279.108 
G1 F381.0 X166.348 Y278.652 
G1 X165.892 Y278.211 
G1 F381.0 X165.308 Y277.698 
G1 F381.0 X164.769 Y277.265 
G1 X164.207 Y276.854 
G1 F381.0 X163.584 Y276.44 
G1 F381.0 X163.034 Y276.106 
G1 F381.0 X162.408 Y275.762 
G1 X161.774 Y275.45 
G1 F381.0 X161.133 Y275.168 
G1 F381.0 X160.505 Y274.923 
G1 X159.834 Y274.697 
G1 F381.0 X159.128 Y274.49 
G1 X158.431 Y274.322 
G1 X157.796 Y274.195 
G1 F381.0 X157.103 Y274.088 
G1 X156.384 Y274.01 
G1 F381.0 X155.723 Y273.967 
G1 X155 Y273.951 
G1 X154.231 Y273.97 
G1 X153.616 Y274.01 
G1 X152.897 Y274.088 
G1 X152.204 Y274.195 
G1 X151.53 Y274.33 
G1 F381.0 X150.872 Y274.49 
G1 F381.0 X150.166 Y274.697 
G1 F381.0 X149.495 Y274.923 
G1 F381.0 X148.867 Y275.168 
G1 X148.226 Y275.45 
G1 F381.0 X147.592 Y275.762 
G1 X146.966 Y276.106 
G1 X146.307 Y276.51 
G1 X145.793 Y276.854 
G1 X145.231 Y277.265 
G1 X144.692 Y277.698 
G1 F381.0 X144.108 Y278.211 
G1 F381.0 X143.652 Y278.652 
G1 X143.211 Y279.108 
G1 F381.0 X142.698 Y279.692 
G1 F381.0 X142.265 Y280.231 
G1 X141.854 Y280.793 
G1 X141.44 Y281.416 
G1 X141.106 Y281.966 
G1 F381.0 X140.762 Y282.593 
G1 X140.447 Y283.233 
G1 F381.0 X140.165 Y283.873 
G1 X139.929 Y284.479 
G1 F381.0 X139.7 Y285.155 
G1 X139.483 Y285.903 
G1 X139.322 Y286.569 
G1 X139.195 Y287.205 
G1 X139.087 Y287.905 
G1 X139.01 Y288.616 
G1 F381.0 X138.967 Y289.267 
G1 F381.0 X138.951 Y290 
G1 F381.0 X138.97 Y290.769 
G1 F381.0 X139.009 Y291.37 
G1 X139.087 Y292.101 
G1 X139.203 Y292.838 
G1 X139.33 Y293.47 
G1 X139.489 Y294.12 
G1 F381.0 X139.697 Y294.834 
G1 F381.0 X139.927 Y295.514 
G1 F381.0 X140.161 Y296.114 
G1 F381.0 X140.447 Y296.768 
G1 F381.0 X140.762 Y297.407 
G1 X141.106 Y298.034 
G1 F381.0 X141.466 Y298.627 
G1 X141.87 Y299.229 
G1 F381.0 X142.265 Y299.768 
G1 X142.698 Y300.308 
G1 F381.0 X143.211 Y300.892 
G1 F381.0 X143.652 Y301.348 
G1 X144.108 Y301.789 
G1 F381.0 X144.692 Y302.302 
G1 F381.0 X145.231 Y302.735 
G1 X145.793 Y303.146 
G1 X146.416 Y303.56 
G1 X146.966 Y303.894 
G1 X147.592 Y304.238 
G1 X148.226 Y304.55 
G1 F381.0 X148.867 Y304.832 
G1 X149.495 Y305.077 
G1 F381.0 X150.166 Y305.303 
G1 F381.0 X150.872 Y305.51 
G1 F381.0 X151.569 Y305.678 
G1 F381.0 X152.204 Y305.805 
G1 X152.897 Y305.912 
G1 X153.616 Y305.99 
G1 X154.277 Y306.033 
G1 F381.0 X155 Y306.049 
G1 F381.0 
M42 P1 S0 ;Disable Welder
G1 F381.0 Z19.1
;MESH:NONMESH
G0 F7200 X153.616 Y274.01 Z19.1
;TIME_ELAPSED:57.627841

;LAYER:3
G4 S5 P0
;MESH:100mm Donut.stl
G0 X153.616 Y274.01 Z20.65
;TYPE:WALL-OUTER
G1 F381.0 Z19.65
M42 P1 S1 ;Enable Welder
G1 F381.0 
G1 F381.0 X154.231 Y273.97 
G1 X155 Y273.951 
G1 X155.723 Y273.967 
G1 X156.384 Y274.01 
G1 F381.0 X157.103 Y274.088 
G1 X157.796 Y274.195 
G1 F381.0 X158.431 Y274.322 
G1 X159.128 Y274.49 
G1 X159.834 Y274.697 
G1 F381.0 X160.505 Y274.923 
G1 X161.133 Y275.168 
G1 F381.0 X161.774 Y275.45 
G1 F381.0 X162.408 Y275.762 
G1 X163.034 Y276.106 
G1 F381.0 X163.584 Y276.44 
G1 F381.0 X164.207 Y276.854 
G1 F381.0 X164.769 Y277.265 
G1 X165.308 Y277.698 
G1 F381.0 X165.892 Y278.211 
G1 F381.0 X166.348 Y278.652 
G1 X166.789 Y279.108 
G1 F381.0 X167.302 Y279.692 
G1 F381.0 X167.735 Y280.231 
G1 F381.0 X168.13 Y280.771 
G1 F381.0 X168.534 Y281.375 
G1 X168.894 Y281.966 
G1 F381.0 X169.238 Y282.593 
G1 F381.0 X169.553 Y283.233 
G1 X169.835 Y283.873 
G1 F381.0 X170.071 Y284.479 
G1 X170.3 Y285.155 
G1 F381.0 X170.511 Y285.879 
G1 F381.0 X170.67 Y286.53 
G1 F381.0 X170.805 Y287.205 
G1 F381.0 X170.913 Y287.905 
G1 F381.0 X170.99 Y288.616 
G1 F381.0 X171.033 Y289.267 
G1 F381.0 X171.049 Y290 
G1 F381.0 X171.033 Y290.723 
G1 X170.991 Y291.37 
G1 F381.0 X170.913 Y292.101 
G1 X170.805 Y292.793 
G1 F381.0 X170.678 Y293.431 
G1 X170.517 Y294.097 
G1 F381.0 X170.303 Y294.834 
G1 X170.073 Y295.514 
G1 F381.0 X169.847 Y296.094 
G1 X169.553 Y296.768 
G1 F381.0 X169.238 Y297.407 
G1 X168.894 Y298.034 
G1 X168.534 Y298.627 
G1 X168.148 Y299.204 
G1 X167.768 Y299.724 
G1 F381.0 X167.302 Y300.308 
G1 F381.0 X166.789 Y300.892 
G1 F381.0 X166.348 Y301.348 
G1 X165.892 Y301.789 
G1 F381.0 X165.308 Y302.302 
G1 F381.0 X164.769 Y302.735 
G1 F381.0 X164.207 Y303.146 
G1 X163.693 Y303.49 
G1 X163.034 Y303.894 
G1 X162.408 Y304.238 
G1 F381.0 X161.774 Y304.55 
G1 F381.0 X161.133 Y304.832 
G1 F381.0 X160.505 Y305.077 
G1 F381.0 X159.834 Y305.303 
G1 X159.128 Y305.51 
G1 F381.0 X158.47 Y305.67 
G1 X157.796 Y305.805 
G1 F381.0 X157.103 Y305.912 
G1 F381.0 X156.384 Y305.99 
G1 F381.0 X155.769 Y306.03 
G1 X155 Y306.049 
G1 F381.0 X154.277 Y306.033 
G1 F381.0 X153.616 Y305.99 
G1 X152.897 Y305.912 
G1 X152.204 Y305.805 
G1 X151.569 Y305.678 
G1 F381.0 X150.872 Y305.51 
G1 F381.0 X150.166 Y305.303 
G1 F381.0 X149.495 Y305.077 
G1 F381.0 X148.867 Y304.832 
G1 X148.226 Y304.55 
G1 F381.0 X147.592 Y304.238 
G1 X146.966 Y303.894 
G1 X146.416 Y303.56 
G1 X145.793 Y303.146 
G1 X145.231 Y302.735 
G1 X144.692 Y302.302 
G1 F381.0 X144.108 Y301.789 
G1 F381.0 X143.652 Y301.348 
G1 X143.211 Y300.892 
G1 F381.0 X142.698 Y300.308 
G1 F381.0 X142.265 Y299.768 
G1 X141.87 Y299.229 
G1 F381.0 X141.466 Y298.627 
G1 X141.106 Y298.034 
G1 F381.0 X140.762 Y297.407 
G1 X140.447 Y296.768 
G1 F381.0 X140.161 Y296.114 
G1 F381.0 X139.927 Y295.514 
G1 F381.0 X139.697 Y294.834 
G1 F381.0 X139.489 Y294.12 
G1 F381.0 X139.33 Y293.47 
G1 X139.203 Y292.838 
G1 X139.087 Y292.101 
G1 X139.009 Y291.37 
G1 X138.97 Y290.769 
G1 F381.0 X138.951 Y290 
G1 F381.0 X138.967 Y289.267 
G1 F381.0 X139.01 Y288.616 
G1 F381.0 X139.087 Y287.905 
G1 X139.195 Y287.205 
G1 X139.322 Y286.569 
G1 X139.483 Y285.903 
G1 X139.7 Y285.155 
G1 X139.929 Y284.479 
G1 F381.0 X140.165 Y283.873 
G1 X140.447 Y283.233 
G1 F381.0 X140.762 Y282.593 
G1 X141.106 Y281.966 
