;FLAVOR:RepRap
;TIME:83
;Filament used: 0.747053m
;Layer height: 1.55
;MINX:15.937
;MINY:21.39
;MINZ:1.55
;MAXX:48.035
;MAXY:53.488
;MAXZ:7.75
;Exported with Cura-DuetRRF v1.2.9 plugin by Thomas Kriechbaumer
;Generated with Cura_SteamEngine 5.4.0
T0
M104 S200
M109 S200
M82 ;absolute extrusion mode
G28 ;Home
M83 ;relative extrusion mode
G1 F1500 E-6.5
;LAYER_COUNT:5
;LAYER:0
M107
G1 F600 Z2.55
;MESH:100mm Donut.stl
G0 F7200 X35.456 Y53.109 Z2.55
;TYPE:WALL-OUTER
G1 F600 Z1.55
G1 F1500 E6.5
G1 F380.9 X34.782 Y53.243 E1.01866
G1 F381.1 X34.09 Y53.351 E1.03787
G1 X33.369 Y53.429 E1.07466
G1 F381 X32.755 Y53.469 E0.91195
G1 X31.986 Y53.488 E1.14009
G1 F381.1 X31.263 Y53.472 E1.07166
G1 F381.1 X30.602 Y53.429 E0.98143
G1 X29.883 Y53.351 E1.07154
G1 F381.1 X29.192 Y53.244 E1.03618
G1 X28.511 Y53.108 E1.02908
G1 X27.892 Y52.957 E0.94418
G1 F381 X27.15 Y52.742 E1.14497
G1 F381.1 X26.431 Y52.496 E1.1261
G1 X25.837 Y52.263 E0.94553
G1 F381 X25.271 Y52.017 E0.91468
G1 F381.1 X24.563 Y51.669 E1.16905
G1 F381.1 X23.97 Y51.344 E1.00191
G1 F381.1 X23.36 Y50.974 E1.05723
G1 F381 X22.78 Y50.586 E1.03424
G1 F381.1 X22.215 Y50.172 E1.03797
G1 F381.2 X21.68 Y49.743 E1.01587
G1 F381.1 X21.095 Y49.229 E1.15379
G1 F380.9 X20.635 Y48.786 E0.94668
G1 F381 X20.153 Y48.283 E1.03253
G1 F381.1 X19.692 Y47.757 E1.03629
G1 F381.1 X19.243 Y47.198 E1.0625
G1 F381 X18.846 Y46.654 E0.99814
G1 X18.449 Y46.06 E1.0589
G1 X18.087 Y45.465 E1.03225
G1 X17.717 Y44.787 E1.14477
G1 X17.432 Y44.205 E0.96046
G1 X17.138 Y43.535 E1.08441
G1 X16.921 Y42.972 E0.89427
G1 F381.1 X16.682 Y42.275 E1.09172
G1 F381.2 X16.475 Y41.56 E1.10269
G1 F381.1 X16.314 Y40.904 E1.00096
G1 X16.189 Y40.277 E0.94742
G1 F381.1 X16.071 Y39.518 E1.13807
G1 F381.1 X15.996 Y38.836 E1.01673
G1 F381 X15.953 Y38.168 E0.9921
G1 X15.937 Y37.439 E1.08072
G1 X15.953 Y36.704 E1.08961
G1 X15.992 Y36.101 E0.89558
G1 F381.1 X16.07 Y35.363 E1.09971
G1 F381.1 X16.174 Y34.683 E1.01922
G1 X16.324 Y33.932 E1.13468
G1 X16.478 Y33.304 E0.95803
G1 X16.698 Y32.554 E1.15804
G1 F381 X16.916 Y31.918 E0.99646
G1 X17.141 Y31.335 E0.92619
G1 F381.1 X17.433 Y30.671 E1.07473
G1 X17.748 Y30.031 E1.05688
G1 F381.1 X18.086 Y29.413 E1.04382
G1 X18.449 Y28.818 E1.03285
G1 F381.1 X18.845 Y28.224 E1.05773
G1 X19.249 Y27.673 E1.01231
G1 F381.1 X19.696 Y27.116 E1.05833
G1 F381 X20.108 Y26.645 E0.92746
G1 F380.9 X20.636 Y26.091 E1.13446
G1 X21.097 Y25.647 E0.94878
G1 F381.1 X21.68 Y25.135 E1.14961
G1 F381.2 X22.215 Y24.706 E1.01587
G1 F381.1 X22.78 Y24.292 E1.03797
G1 F381 X23.36 Y23.904 E1.03424
G1 F381.1 X23.975 Y23.531 E1.06587
G1 F381.1 X24.563 Y23.209 E0.99328
G1 F381.1 X25.271 Y22.861 E1.16905
G1 F381 X25.837 Y22.615 E0.91468
G1 F381.1 X26.421 Y22.387 E0.92888
G1 X27.15 Y22.136 E1.14234
G1 F381 X27.859 Y21.929 E1.09469
G1 F381.1 X28.443 Y21.786 E0.89083
G1 F381.2 X29.192 Y21.633 E1.13247
G1 F381.1 X29.839 Y21.534 E0.96977
G1 X30.602 Y21.449 E1.13748
G1 X31.217 Y21.409 E0.91313
G1 X31.986 Y21.39 E1.13972
G1 X32.709 Y21.406 E1.07148
G1 X33.324 Y21.446 E0.91313
G1 F381.2 X34.09 Y21.527 E1.14107
G1 X34.782 Y21.634 E1.0373
G1 F381.1 X35.456 Y21.768 E1.01816
G1 F381.1 X36.114 Y21.93 E1.00419
G1 F381 X36.82 Y22.136 E1.09001
G1 F381.2 X37.465 Y22.353 E1.00812
G1 F381.2 X38.146 Y22.619 E1.08287
G1 F381.1 X38.761 Y22.89 E0.99591
G1 X39.387 Y23.198 E1.03385
G1 F381.2 X39.955 Y23.508 E0.95859
G1 X40.611 Y23.904 E1.13512
G1 F381.1 X41.192 Y24.293 E1.03613
G1 F381.1 X41.756 Y24.706 E1.03573
G1 F381.2 X42.303 Y25.145 E1.03884
G1 F381.2 X42.818 Y25.596 E1.0141
G1 F381.1 X43.293 Y26.051 E0.97456
G1 X43.816 Y26.593 E1.11595
G1 F381.2 X44.331 Y27.183 E1.16015
G1 X44.712 Y27.661 E0.90552
G1 F381.1 X45.125 Y28.222 E1.03214
G1 X45.525 Y28.821 E1.06719
G1 X45.881 Y29.407 E1.0159
G1 X46.224 Y30.033 E1.0576
G1 X46.539 Y30.67 E1.05289
G1 X46.817 Y31.304 E1.02569
G1 F381.1 X47.057 Y31.918 E0.97691
G1 X47.291 Y32.609 E1.08109
G1 X47.497 Y33.317 E1.09267
G1 F381 X47.642 Y33.908 E0.90191
G1 X47.792 Y34.651 E1.12343
G1 X47.899 Y35.345 E1.04074
G1 X47.975 Y36.04 E1.03621
G1 F380.9 X48.018 Y36.705 E0.98783
G1 F381 X48.035 Y37.439 E1.08816
G1 F381.1 X48.019 Y38.163 E1.07296
G1 F381.1 X47.974 Y38.838 E1.00248
G1 F381.1 X47.899 Y39.531 E1.03276
G1 F381.2 X47.792 Y40.228 E1.04462
G1 F381.1 X47.656 Y40.908 E1.02746
G1 F381.1 X47.499 Y41.55 E0.9794
G1 F381.1 X47.289 Y42.274 E1.11691
G1 F381.2 X47.063 Y42.943 E1.04607
G1 F381.2 X46.786 Y43.646 E1.11916
G1 X46.539 Y44.208 E0.90925
G1 F381.2 X46.251 Y44.792 E0.96461
G1 X45.881 Y45.471 E1.14551
G1 F381.3 X45.478 Y46.13 E1.14393
G1 F381.4 X45.129 Y46.65 E0.92728
G1 F381.2 X44.719 Y47.209 E1.02679
G1 X44.299 Y47.733 E0.99466
G1 F381.2 X43.816 Y48.285 E1.08657
G1 F381.1 X43.322 Y48.798 E1.05536
G1 X42.82 Y49.28 E1.03129
G1 F381.2 X42.303 Y49.733 E1.01828
G1 F381.2 X41.756 Y50.172 E1.03884
G1 X41.192 Y50.586 E1.03626
G1 F381.2 X40.614 Y50.972 E1.02962
G1 F381.1 X40.021 Y51.332 E1.02784
G1 X39.392 Y51.677 E1.06292
G1 F381.1 X38.763 Y51.987 E1.03915
G1 F381.1 X38.147 Y52.259 E0.9977
G1 F381.2 X37.465 Y52.525 E1.08425
G1 F381.1 X36.82 Y52.742 E1.00829
G1 F381 X36.114 Y52.948 E1.09001
G1 F380.9 X35.456 Y53.109 E1.00416
;TIME_ELAPSED:18.719452
;LAYER:1
;MESH:100mm Donut.stl
G0 F7200 X35.456 Y53.109 Z3.1
;TYPE:WALL-OUTER
G1 F380.9 X34.782 Y53.243 E1.01866
G1 F381.1 X34.09 Y53.351 E1.03787
G1 X33.369 Y53.429 E1.07466
G1 F381 X32.755 Y53.469 E0.91195
G1 X31.986 Y53.488 E1.14009
G1 F381.1 X31.263 Y53.472 E1.07166
G1 F381.1 X30.602 Y53.429 E0.98143
G1 X29.883 Y53.351 E1.07154
G1 F381.1 X29.192 Y53.244 E1.03618
G1 X28.511 Y53.108 E1.02908
G1 X27.892 Y52.957 E0.94418
G1 F381 X27.15 Y52.742 E1.14497
G1 F381.1 X26.431 Y52.496 E1.1261
G1 X25.837 Y52.263 E0.94553
G1 F381 X25.271 Y52.017 E0.91468
G1 F381.1 X24.563 Y51.669 E1.16905
G1 F381.1 X23.97 Y51.344 E1.00191
G1 F381.1 X23.36 Y50.974 E1.05723
G1 F381 X22.78 Y50.586 E1.03424
G1 F381.1 X22.215 Y50.172 E1.03797
G1 F381.2 X21.68 Y49.743 E1.01587
G1 F381.1 X21.095 Y49.229 E1.15379
G1 F380.9 X20.635 Y48.786 E0.94668
G1 F381 X20.153 Y48.283 E1.03253
G1 F381.1 X19.692 Y47.757 E1.03629
G1 F381.1 X19.243 Y47.198 E1.0625
G1 F381 X18.846 Y46.654 E0.99814
G1 X18.449 Y46.06 E1.0589
G1 X18.087 Y45.465 E1.03225
G1 X17.717 Y44.787 E1.14477
G1 X17.432 Y44.205 E0.96046
G1 X17.138 Y43.535 E1.08441
G1 X16.921 Y42.972 E0.89427
G1 F381.1 X16.682 Y42.275 E1.09172
G1 F381.2 X16.475 Y41.56 E1.10269
G1 F381.1 X16.314 Y40.904 E1.00096
G1 X16.189 Y40.277 E0.94742
G1 F381.1 X16.071 Y39.518 E1.13807
G1 F381.1 X15.996 Y38.836 E1.01673
G1 F381 X15.953 Y38.168 E0.9921
G1 X15.937 Y37.439 E1.08072
G1 X15.953 Y36.704 E1.08961
G1 X15.992 Y36.101 E0.89558
G1 F381.1 X16.07 Y35.363 E1.09971
G1 F381.1 X16.174 Y34.683 E1.01922
G1 X16.324 Y33.932 E1.13468
G1 X16.478 Y33.304 E0.95803
G1 X16.698 Y32.554 E1.15804
G1 F381 X16.916 Y31.918 E0.99646
G1 X17.141 Y31.335 E0.92619
G1 F381.1 X17.433 Y30.671 E1.07473
G1 X17.748 Y30.031 E1.05688
G1 F381.1 X18.086 Y29.413 E1.04382
G1 X18.449 Y28.818 E1.03285
G1 F381.1 X18.845 Y28.224 E1.05773
G1 X19.249 Y27.673 E1.01231
G1 F381.1 X19.696 Y27.116 E1.05833
G1 F381 X20.108 Y26.645 E0.92746
G1 F380.9 X20.636 Y26.091 E1.13446
G1 X21.097 Y25.647 E0.94878
G1 F381.1 X21.68 Y25.135 E1.14961
G1 F381.2 X22.215 Y24.706 E1.01587
G1 F381.1 X22.78 Y24.292 E1.03797
G1 F381 X23.36 Y23.904 E1.03424
G1 F381.1 X23.975 Y23.531 E1.06587
G1 F381.1 X24.563 Y23.209 E0.99328
G1 F381.1 X25.271 Y22.861 E1.16905
G1 F381 X25.837 Y22.615 E0.91468
G1 F381.1 X26.421 Y22.387 E0.92888
G1 X27.15 Y22.136 E1.14234
G1 F381 X27.859 Y21.929 E1.09469
G1 F381.1 X28.443 Y21.786 E0.89083
G1 F381.2 X29.192 Y21.633 E1.13247
G1 F381.1 X29.839 Y21.534 E0.96977
G1 X30.602 Y21.449 E1.13748
G1 X31.217 Y21.409 E0.91313
G1 X31.986 Y21.39 E1.13972
G1 X32.709 Y21.406 E1.07148
G1 X33.324 Y21.446 E0.91313
G1 F381.2 X34.09 Y21.527 E1.14107
G1 X34.782 Y21.634 E1.0373
G1 F381.1 X35.456 Y21.768 E1.01816
G1 F381.1 X36.114 Y21.93 E1.00419
G1 F381 X36.82 Y22.136 E1.09001
G1 F381.2 X37.465 Y22.353 E1.00812
G1 F381.2 X38.146 Y22.619 E1.08287
G1 F381.1 X38.761 Y22.89 E0.99591
G1 X39.387 Y23.198 E1.03385
G1 F381.2 X39.955 Y23.508 E0.95859
G1 X40.611 Y23.904 E1.13512
G1 F381.1 X41.192 Y24.293 E1.03613
G1 F381.1 X41.756 Y24.706 E1.03573
G1 F381.2 X42.303 Y25.145 E1.03884
G1 F381.2 X42.818 Y25.596 E1.0141
G1 F381.1 X43.293 Y26.051 E0.97456
G1 X43.816 Y26.593 E1.11595
G1 F381.2 X44.331 Y27.183 E1.16015
G1 X44.712 Y27.661 E0.90552
G1 F381.1 X45.125 Y28.222 E1.03214
G1 X45.525 Y28.821 E1.06719
G1 X45.881 Y29.407 E1.0159
G1 X46.224 Y30.033 E1.0576
G1 X46.539 Y30.67 E1.05289
G1 X46.817 Y31.304 E1.02569
G1 F381.1 X47.057 Y31.918 E0.97691
G1 X47.291 Y32.609 E1.08109
G1 X47.497 Y33.317 E1.09267
G1 F381 X47.642 Y33.908 E0.90191
G1 X47.792 Y34.651 E1.12343
G1 X47.899 Y35.345 E1.04074
G1 X47.975 Y36.04 E1.03621
G1 F380.9 X48.018 Y36.705 E0.98783
G1 F381 X48.035 Y37.439 E1.08816
G1 F381.1 X48.019 Y38.163 E1.07296
G1 F381.1 X47.974 Y38.838 E1.00248
G1 F381.1 X47.899 Y39.531 E1.03276
G1 F381.2 X47.792 Y40.228 E1.04462
G1 F381.1 X47.656 Y40.908 E1.02746
G1 F381.1 X47.499 Y41.55 E0.9794
G1 F381.1 X47.289 Y42.274 E1.11691
G1 F381.2 X47.063 Y42.943 E1.04607
G1 F381.2 X46.786 Y43.646 E1.11916
G1 X46.539 Y44.208 E0.90925
G1 F381.2 X46.251 Y44.792 E0.96461
G1 X45.881 Y45.471 E1.14551
G1 F381.3 X45.478 Y46.13 E1.14393
G1 F381.4 X45.129 Y46.65 E0.92728
G1 F381.2 X44.719 Y47.209 E1.02679
G1 X44.299 Y47.733 E0.99466
G1 F381.2 X43.816 Y48.285 E1.08657
G1 F381.1 X43.322 Y48.798 E1.05536
G1 X42.82 Y49.28 E1.03129
G1 F381.2 X42.303 Y49.733 E1.01828
G1 F381.2 X41.756 Y50.172 E1.03884
G1 X41.192 Y50.586 E1.03626
G1 F381.2 X40.614 Y50.972 E1.02962
G1 F381.1 X40.021 Y51.332 E1.02784
G1 X39.392 Y51.677 E1.06292
G1 F381.1 X38.763 Y51.987 E1.03915
G1 F381.1 X38.147 Y52.259 E0.9977
G1 F381.2 X37.465 Y52.525 E1.08425
G1 F381.1 X36.82 Y52.742 E1.00829
G1 F381 X36.114 Y52.948 E1.09001
G1 F380.9 X35.456 Y53.109 E1.00416
;TIME_ELAPSED:34.843256
;LAYER:2
;MESH:100mm Donut.stl
G0 F7200 X35.456 Y53.109 Z4.65
;TYPE:WALL-OUTER
G1 F380.9 X34.782 Y53.243 E1.01866
G1 F381.1 X34.09 Y53.351 E1.03787
G1 X33.369 Y53.429 E1.07466
G1 F381 X32.755 Y53.469 E0.91195
G1 X31.986 Y53.488 E1.14009
G1 F381.1 X31.263 Y53.472 E1.07166
G1 F381.1 X30.602 Y53.429 E0.98143
G1 X29.883 Y53.351 E1.07154
G1 F381.1 X29.192 Y53.244 E1.03618
G1 X28.511 Y53.108 E1.02908
G1 X27.892 Y52.957 E0.94418
G1 F381 X27.15 Y52.742 E1.14497
G1 F381.1 X26.431 Y52.496 E1.1261
G1 X25.837 Y52.263 E0.94553
G1 F381 X25.271 Y52.017 E0.91468
G1 F381.1 X24.563 Y51.669 E1.16905
G1 F381.1 X23.97 Y51.344 E1.00191
G1 F381.1 X23.36 Y50.974 E1.05723
G1 F381 X22.78 Y50.586 E1.03424
G1 F381.1 X22.215 Y50.172 E1.03797
G1 F381.2 X21.68 Y49.743 E1.01587
G1 F381.1 X21.095 Y49.229 E1.15379
G1 F380.9 X20.635 Y48.786 E0.94668
G1 F381 X20.153 Y48.283 E1.03253
G1 F381.1 X19.692 Y47.757 E1.03629
G1 F381.1 X19.243 Y47.198 E1.0625
G1 F381 X18.846 Y46.654 E0.99814
G1 X18.449 Y46.06 E1.0589
G1 X18.087 Y45.465 E1.03225
G1 X17.717 Y44.787 E1.14477
G1 X17.432 Y44.205 E0.96046
G1 X17.138 Y43.535 E1.08441
G1 X16.921 Y42.972 E0.89427
G1 F381.1 X16.682 Y42.275 E1.09172
G1 F381.2 X16.475 Y41.56 E1.10269
G1 F381.1 X16.314 Y40.904 E1.00096
G1 X16.189 Y40.277 E0.94742
G1 F381.1 X16.071 Y39.518 E1.13807
G1 F381.1 X15.996 Y38.836 E1.01673
G1 F381 X15.953 Y38.168 E0.9921
G1 X15.937 Y37.439 E1.08072
G1 X15.953 Y36.704 E1.08961
G1 X15.992 Y36.101 E0.89558
G1 F381.1 X16.07 Y35.363 E1.09971
G1 F381.1 X16.174 Y34.683 E1.01922
G1 X16.324 Y33.932 E1.13468
G1 X16.478 Y33.304 E0.95803
G1 X16.698 Y32.554 E1.15804
G1 F381 X16.916 Y31.918 E0.99646
G1 X17.141 Y31.335 E0.92619
G1 F381.1 X17.433 Y30.671 E1.07473
G1 X17.748 Y30.031 E1.05688
G1 F381.1 X18.086 Y29.413 E1.04382
G1 X18.449 Y28.818 E1.03285
G1 F381.1 X18.845 Y28.224 E1.05773
G1 X19.249 Y27.673 E1.01231
G1 F381.1 X19.696 Y27.116 E1.05833
G1 F381 X20.108 Y26.645 E0.92746
G1 F380.9 X20.636 Y26.091 E1.13446
G1 X21.097 Y25.647 E0.94878
G1 F381.1 X21.68 Y25.135 E1.14961
G1 F381.2 X22.215 Y24.706 E1.01587
G1 F381.1 X22.78 Y24.292 E1.03797
G1 F381 X23.36 Y23.904 E1.03424
G1 F381.1 X23.975 Y23.531 E1.06587
G1 F381.1 X24.563 Y23.209 E0.99328
G1 F381.1 X25.271 Y22.861 E1.16905
G1 F381 X25.837 Y22.615 E0.91468
G1 F381.1 X26.421 Y22.387 E0.92888
G1 X27.15 Y22.136 E1.14234
G1 F381 X27.859 Y21.929 E1.09469
G1 F381.1 X28.443 Y21.786 E0.89083
G1 F381.2 X29.192 Y21.633 E1.13247
G1 F381.1 X29.839 Y21.534 E0.96977
G1 X30.602 Y21.449 E1.13748
G1 X31.217 Y21.409 E0.91313
G1 X31.986 Y21.39 E1.13972
G1 X32.709 Y21.406 E1.07148
G1 X33.324 Y21.446 E0.91313
G1 F381.2 X34.09 Y21.527 E1.14107
G1 X34.782 Y21.634 E1.0373
G1 F381.1 X35.456 Y21.768 E1.01816
G1 F381.1 X36.114 Y21.93 E1.00419
G1 F381 X36.82 Y22.136 E1.09001
G1 F381.2 X37.465 Y22.353 E1.00812
G1 F381.2 X38.146 Y22.619 E1.08287
G1 F381.1 X38.761 Y22.89 E0.99591
G1 X39.387 Y23.198 E1.03385
G1 F381.2 X39.955 Y23.508 E0.95859
G1 X40.611 Y23.904 E1.13512
G1 F381.1 X41.192 Y24.293 E1.03613
G1 F381.1 X41.756 Y24.706 E1.03573
G1 F381.2 X42.303 Y25.145 E1.03884
G1 F381.2 X42.818 Y25.596 E1.0141
G1 F381.1 X43.293 Y26.051 E0.97456
G1 X43.816 Y26.593 E1.11595
G1 F381.2 X44.331 Y27.183 E1.16015
G1 X44.712 Y27.661 E0.90552
G1 F381.1 X45.125 Y28.222 E1.03214
G1 X45.525 Y28.821 E1.06719
G1 X45.881 Y29.407 E1.0159
G1 X46.224 Y30.033 E1.0576
G1 X46.539 Y30.67 E1.05289
G1 X46.817 Y31.304 E1.02569
G1 F381.1 X47.057 Y31.918 E0.97691
G1 X47.291 Y32.609 E1.08109
G1 X47.497 Y33.317 E1.09267
G1 F381 X47.642 Y33.908 E0.90191
G1 X47.792 Y34.651 E1.12343
G1 X47.899 Y35.345 E1.04074
G1 X47.975 Y36.04 E1.03621
G1 F380.9 X48.018 Y36.705 E0.98783
G1 F381 X48.035 Y37.439 E1.08816
G1 F381.1 X48.019 Y38.163 E1.07296
G1 F381.1 X47.974 Y38.838 E1.00248
G1 F381.1 X47.899 Y39.531 E1.03276
G1 F381.2 X47.792 Y40.228 E1.04462
G1 F381.1 X47.656 Y40.908 E1.02746
G1 F381.1 X47.499 Y41.55 E0.9794
G1 F381.1 X47.289 Y42.274 E1.11691
G1 F381.2 X47.063 Y42.943 E1.04607
G1 F381.2 X46.786 Y43.646 E1.11916
G1 X46.539 Y44.208 E0.90925
G1 F381.2 X46.251 Y44.792 E0.96461
G1 X45.881 Y45.471 E1.14551
G1 F381.3 X45.478 Y46.13 E1.14393
G1 F381.4 X45.129 Y46.65 E0.92728
G1 F381.2 X44.719 Y47.209 E1.02679
G1 X44.299 Y47.733 E0.99466
G1 F381.2 X43.816 Y48.285 E1.08657
G1 F381.1 X43.322 Y48.798 E1.05536
G1 X42.82 Y49.28 E1.03129
G1 F381.2 X42.303 Y49.733 E1.01828
G1 F381.2 X41.756 Y50.172 E1.03884
G1 X41.192 Y50.586 E1.03626
G1 F381.2 X40.614 Y50.972 E1.02962
G1 F381.1 X40.021 Y51.332 E1.02784
G1 X39.392 Y51.677 E1.06292
G1 F381.1 X38.763 Y51.987 E1.03915
G1 F381.1 X38.147 Y52.259 E0.9977
G1 F381.2 X37.465 Y52.525 E1.08425
G1 F381.1 X36.82 Y52.742 E1.00829
G1 F381 X36.114 Y52.948 E1.09001
G1 F380.9 X35.456 Y53.109 E1.00416
;TIME_ELAPSED:50.967060
;LAYER:3
;MESH:100mm Donut.stl
G0 F7200 X35.456 Y53.109 Z6.2
;TYPE:WALL-OUTER
G1 F380.9 X34.782 Y53.243 E1.01866
G1 F381.1 X34.09 Y53.351 E1.03787
G1 X33.369 Y53.429 E1.07466
G1 F381 X32.755 Y53.469 E0.91195
G1 X31.986 Y53.488 E1.14009
G1 F381.1 X31.263 Y53.472 E1.07166
G1 F381.1 X30.602 Y53.429 E0.98143
G1 X29.883 Y53.351 E1.07154
G1 F381.1 X29.192 Y53.244 E1.03618
G1 X28.511 Y53.108 E1.02908
G1 X27.892 Y52.957 E0.94418
G1 F381 X27.15 Y52.742 E1.14497
G1 F381.1 X26.431 Y52.496 E1.1261
G1 X25.837 Y52.263 E0.94553
G1 F381 X25.271 Y52.017 E0.91468
G1 F381.1 X24.563 Y51.669 E1.16905
G1 F381.1 X23.97 Y51.344 E1.00191
G1 F381.1 X23.36 Y50.974 E1.05723
G1 F381 X22.78 Y50.586 E1.03424
G1 F381.1 X22.215 Y50.172 E1.03797
G1 F381.2 X21.68 Y49.743 E1.01587
G1 F381.1 X21.095 Y49.229 E1.15379
G1 F380.9 X20.635 Y48.786 E0.94668
G1 F381 X20.153 Y48.283 E1.03253
G1 F381.1 X19.692 Y47.757 E1.03629
G1 F381.1 X19.243 Y47.198 E1.0625
G1 F381 X18.846 Y46.654 E0.99814
G1 X18.449 Y46.06 E1.0589
G1 X18.087 Y45.465 E1.03225
G1 X17.717 Y44.787 E1.14477
G1 X17.432 Y44.205 E0.96046
G1 X17.138 Y43.535 E1.08441
G1 X16.921 Y42.972 E0.89427
G1 F381.1 X16.682 Y42.275 E1.09172
G1 F381.2 X16.475 Y41.56 E1.10269
G1 F381.1 X16.314 Y40.904 E1.00096
G1 X16.189 Y40.277 E0.94742
G1 F381.1 X16.071 Y39.518 E1.13807
G1 F381.1 X15.996 Y38.836 E1.01673
G1 F381 X15.953 Y38.168 E0.9921
G1 X15.937 Y37.439 E1.08072
G1 X15.953 Y36.704 E1.08961
