;FLAVOR:Marlin
;TIME:936
;Filament used: 0.806736m
;Layer height: 0.15
;MINX:86.267
;MINY:111.267
;MINZ:0.3
;MAXX:113.733
;MAXY:138.733
;MAXZ:19.95
;Generated with Cura_SteamEngine 5.3.1
M140 S60
M105
M190 S60
M104 S200
M105
M109 S200
M82 ;absolute extrusion mode
G28 ; home all axes
G1 X215 Y40 Z0.1 F10000 ; move off the bed and bring the bed up
G92 E0 ; zero extruder
G1 X195 Z0.1 F1000; scrape off any ooze
G1 Z5 ; lift
G1 X170 Y3 F10000; move to unused front edge
G1 Z0.30 F1000
G1 X40 E20 F1000
G1 X30 Z0.05 F1000 ; wipe off tail
G1 Z1
G92 E0
; ok now you can start
G92 E0
G92 E0
G1 F1500 E-6.5
;LAYER_COUNT:132
;LAYER:0
M107
G0 F3600 X88.352 Y112.68 Z0.3
;TYPE:SKIRT
G1 F1500 E0
G1 F1800 X88.77 Y112.398 E0.02201
G1 X89.227 Y112.187 E0.04399
G1 X89.711 Y112.05 E0.06594
G1 X90.264 Y111.99 E0.09023
G1 X91.4 Y111.967 E0.13983
G1 X108.912 Y111.968 E0.90429
G1 X109.614 Y111.978 E0.93494
G1 X110.116 Y112.025 E0.95695
G1 X110.603 Y112.151 E0.97891
G1 X111.065 Y112.352 E1.00091
G1 X111.583 Y112.678 E1.02762
G1 X111.981 Y112.988 E1.04965
G1 X112.324 Y113.356 E1.07161
G1 X112.604 Y113.774 E1.09357
G1 X112.815 Y114.232 E1.11558
G1 X112.951 Y114.717 E1.13757
G1 X113.01 Y115.262 E1.1615
G1 X113.033 Y116.379 E1.21028
G1 X113.032 Y133.893 E1.97483
G1 X113.022 Y134.613 E2.00626
G1 X112.975 Y135.114 E2.02823
G1 X112.849 Y135.602 E2.05023
G1 X112.648 Y136.064 E2.07223
G1 X112.322 Y136.583 E2.09898
G1 X112.012 Y136.981 E2.121
G1 X111.644 Y137.324 E2.14297
G1 X111.226 Y137.604 E2.16493
G1 X110.768 Y137.815 E2.18694
G1 X110.283 Y137.951 E2.20893
G1 X109.736 Y138.01 E2.23295
G1 X108.6 Y138.033 E2.28255
G1 X91.088 Y138.032 E3.04702
G1 X90.386 Y138.022 E3.07766
G1 X89.884 Y137.975 E3.09967
G1 X89.397 Y137.849 E3.12163
G1 X88.935 Y137.648 E3.14363
G1 X88.417 Y137.322 E3.17035
G1 X88.019 Y137.012 E3.19237
G1 X87.676 Y136.644 E3.21433
G1 X87.396 Y136.226 E3.23629
G1 X87.185 Y135.768 E3.25831
G1 X87.049 Y135.283 E3.28029
G1 X86.99 Y134.735 E3.30436
G1 X86.967 Y133.578 E3.35487
G1 X86.968 Y116.051 E4.12
G1 X86.978 Y115.384 E4.14912
G1 X87.026 Y114.883 E4.17109
G1 X87.152 Y114.396 E4.19305
G1 X87.354 Y113.934 E4.21506
G1 X87.675 Y113.421 E4.24147
G1 X87.984 Y113.023 E4.26347
G1 X88.352 Y112.68 E4.28543
G0 F3600 X88.113 Y112.424
G1 F1800 X88.623 Y112.08 E4.31229
G1 X89.08 Y111.869 E4.33426
G1 X89.616 Y111.713 E4.35863
G1 X90.257 Y111.64 E4.38679
G1 X91.4 Y111.617 E4.4367
G1 X108.917 Y111.618 E5.20138
G1 X109.619 Y111.628 E5.23203
G1 X110.204 Y111.686 E5.2577
G1 X110.691 Y111.812 E5.27965
G1 X111.205 Y112.031 E5.30404
G1 X111.798 Y112.402 E5.33458
G1 X112.237 Y112.749 E5.35901
G1 X112.615 Y113.161 E5.38342
G1 X112.895 Y113.579 E5.40538
G1 X113.133 Y114.086 E5.42983
G1 X113.299 Y114.679 E5.45671
G1 X113.36 Y115.255 E5.482
G1 X113.383 Y116.379 E5.53107
G1 X113.382 Y133.898 E6.29585
G1 X113.372 Y134.618 E6.32728
G1 X113.314 Y135.201 E6.35286
G1 X113.17 Y135.742 E6.3773
G1 X112.969 Y136.204 E6.39929
G1 X112.598 Y136.798 E6.42986
G1 X112.251 Y137.237 E6.45429
G1 X111.839 Y137.615 E6.4787
G1 X111.421 Y137.895 E6.50066
G1 X110.914 Y138.133 E6.52511
G1 X110.321 Y138.299 E6.55199
G1 X109.743 Y138.36 E6.57737
G1 X108.6 Y138.383 E6.62727
G1 X91.083 Y138.382 E7.39196
G1 X90.381 Y138.372 E7.42261
G1 X89.796 Y138.314 E7.44827
G1 X89.309 Y138.188 E7.47023
G1 X88.795 Y137.969 E7.49462
G1 X88.202 Y137.598 E7.52515
G1 X87.763 Y137.251 E7.54958
G1 X87.385 Y136.839 E7.57399
G1 X87.105 Y136.421 E7.59595
G1 X86.867 Y135.914 E7.6204
G1 X86.712 Y135.377 E7.6448
G1 X86.64 Y134.742 E7.6727
G1 X86.617 Y133.578 E7.72352
G1 X86.618 Y116.046 E8.48886
G1 X86.628 Y115.379 E8.51798
G1 X86.687 Y114.795 E8.54361
G1 X86.831 Y114.256 E8.56796
G1 X87.057 Y113.748 E8.59223
G1 X87.378 Y113.235 E8.61865
G1 X87.745 Y112.767 E8.64461
G1 X88.113 Y112.424 E8.66657
G0 F3600 X87.874 Y112.168
G1 F1800 X88.476 Y111.762 E8.69827
G1 X88.933 Y111.551 E8.72025
G1 X89.576 Y111.365 E8.74947
G1 X90.217 Y111.292 E8.77763
G1 X91.4 Y111.267 E8.82928
G1 X108.922 Y111.268 E9.59419
G1 X109.624 Y111.278 E9.62484
G1 X110.292 Y111.347 E9.65415
G1 X110.779 Y111.473 E9.67611
G1 X111.391 Y111.734 E9.70516
G1 X111.984 Y112.105 E9.73569
G1 X112.495 Y112.512 E9.76421
G1 X112.906 Y112.966 E9.79094
G1 X113.212 Y113.43 E9.81521
G1 X113.45 Y113.937 E9.83966
G1 X113.636 Y114.585 E9.86909
G1 X113.71 Y115.248 E9.89821
G1 X113.733 Y116.379 E9.94759
G1 X113.732 Y133.903 E10.71258
G1 X113.722 Y134.623 E10.74402
G1 X113.652 Y135.291 E10.77334
G1 X113.491 Y135.882 E10.80008
G1 X113.29 Y136.344 E10.82207
G1 X112.873 Y137.015 E10.85656
G1 X112.488 Y137.495 E10.88342
G1 X112.034 Y137.906 E10.91015
G1 X111.57 Y138.212 E10.93442
G1 X111.063 Y138.45 E10.95887
G1 X110.415 Y138.636 E10.9883
G1 X109.75 Y138.71 E11.01751
G1 X108.607 Y138.733 E11.06741
G1 X91.078 Y138.732 E11.83262
G1 X90.376 Y138.722 E11.86327
G1 X89.708 Y138.653 E11.89259
G1 X89.221 Y138.527 E11.91455
G1 X88.609 Y138.266 E11.94359
G1 X88.016 Y137.895 E11.97413
G1 X87.505 Y137.488 E12.00264
G1 X87.094 Y137.034 E12.02938
G1 X86.788 Y136.57 E12.05364
G1 X86.55 Y136.063 E12.07809
G1 X86.364 Y135.416 E12.10748
G1 X86.292 Y134.781 E12.13538
G1 X86.267 Y133.578 E12.1879
G1 X86.268 Y116.041 E12.95346
G1 X86.278 Y115.374 E12.98258
G1 X86.349 Y114.705 E13.01195
G1 X86.511 Y114.114 E13.0387
G1 X86.76 Y113.562 E13.06514
G1 X87.081 Y113.049 E13.09156
G1 X87.506 Y112.511 E13.12148
G1 X87.874 Y112.168 E13.14345
G1 F1500 E6.64345
;MESH:20mm_cube_soft_edges.STL
G0 F3600 X89.647 Y114.972
G0 X90.513 Y115.539
G0 X109.087 Y134.088
G0 X109.332 Y134.332
;TYPE:WALL-INNER
G1 F1500 E13.14345
G1 F1800 X109.332 Y115.668 E13.9582
G1 X90.668 Y115.668 E14.77296
G1 X90.668 Y134.332 E15.58772
G1 X109.332 Y134.332 E16.40247
G0 F3600 X109.087 Y134.088
G0 X90.912 Y134.087
G0 X90.352 Y134.597
;TYPE:WALL-OUTER
G1 F1800 X90.482 Y134.682 E16.40925
G1 X109.528 Y134.683 E17.24069
G1 X109.597 Y134.648 E17.24406
G1 X109.682 Y134.518 E17.25084
G1 X109.682 Y115.472 E18.08228
G1 X109.648 Y115.404 E18.0856
G1 X109.518 Y115.318 E18.0924
G1 X90.472 Y115.318 E18.92383
G1 X90.404 Y115.352 E18.92715
G1 X90.318 Y115.482 E18.93396
G1 X90.317 Y134.528 E19.76539
G1 X90.352 Y134.597 E19.76877
G0 F3600 X90.482 Y134.682
G0 X90.502 Y134.682
G0 X90.912 Y134.087
G0 X109 Y134
;TYPE:SKIN
G1 F1800 X91 Y134 E20.55454
G1 X91 Y116 E21.34031
G1 X109 Y116 E22.12608
G1 X109 Y134 E22.91185
G0 F3600 X108.825 Y116.249
G1 F1800 X108.75 Y116.174 E22.91648
G0 F3600 X108.255 Y116.174
G1 F1800 X108.825 Y116.744 E22.95167
G0 F3600 X108.825 Y117.239
G1 F1800 X107.76 Y116.174 E23.01742
G0 F3600 X107.265 Y116.174
G1 F1800 X108.825 Y117.734 E23.11373
G0 F3600 X108.825 Y118.229
G1 F1800 X106.77 Y116.174 E23.24059
G0 F3600 X106.275 Y116.174
G1 F1800 X108.825 Y118.724 E23.39802
G0 F3600 X108.825 Y119.219
G1 F1800 X105.78 Y116.174 E23.58601
G0 F3600 X105.285 Y116.174
G1 F1800 X108.825 Y119.714 E23.80455
G0 F3600 X108.825 Y120.209
G1 F1800 X104.79 Y116.174 E24.05366
G0 F3600 X104.295 Y116.174
G1 F1800 X108.825 Y120.704 E24.33332
G0 F3600 X108.825 Y121.199
G1 F1800 X103.8 Y116.174 E24.64354
G0 F3600 X103.305 Y116.174
G1 F1800 X108.825 Y121.694 E24.98433
G0 F3600 X108.825 Y122.189
G1 F1800 X102.81 Y116.174 E25.35567
G0 F3600 X102.315 Y116.174
G1 F1800 X108.825 Y122.684 E25.75757
G0 F3600 X108.825 Y123.179
G1 F1800 X101.82 Y116.174 E26.19003
G0 F3600 X101.325 Y116.174
G1 F1800 X108.825 Y123.674 E26.65305
G0 F3600 X108.825 Y124.169
G1 F1800 X100.83 Y116.174 E27.14663
G0 F3600 X100.335 Y116.174
G1 F1800 X108.825 Y124.664 E27.67077
G0 F3600 X108.825 Y125.159
G1 F1800 X99.84 Y116.174 E28.22546
G0 F3600 X99.345 Y116.174
G1 F1800 X108.825 Y125.654 E28.81072
G0 F3600 X108.825 Y126.149
G1 F1800 X98.85 Y116.174 E29.42654
G0 F3600 X98.355 Y116.174
G1 F1800 X108.825 Y126.644 E30.07291
G0 F3600 X108.825 Y127.139
G1 F1800 X97.86 Y116.174 E30.74985
G0 F3600 X97.365 Y116.174
G1 F1800 X108.825 Y127.634 E31.45734
G0 F3600 X108.825 Y128.129
G1 F1800 X96.87 Y116.174 E32.1954
G0 F3600 X96.375 Y116.174
G1 F1800 X108.825 Y128.624 E32.96401
G0 F3600 X108.825 Y129.119
G1 F1800 X95.88 Y116.174 E33.76318
G0 F3600 X95.385 Y116.174
G1 F1800 X108.825 Y129.614 E34.59291
G0 F3600 X108.825 Y130.109
G1 F1800 X94.89 Y116.174 E35.4532
G0 F3600 X94.395 Y116.174
G1 F1800 X108.825 Y130.604 E36.34405
G0 F3600 X108.825 Y131.099
G1 F1800 X93.9 Y116.174 E37.26546
G0 F3600 X93.405 Y116.174
G1 F1800 X108.825 Y131.593 E38.2174
G0 F3600 X108.825 Y132.088
G1 F1800 X92.911 Y116.174 E39.19987
G0 F3600 X92.416 Y116.174
G1 F1800 X108.825 Y132.583 E40.21289
G0 F3600 X108.825 Y133.078
G1 F1800 X91.921 Y116.174 E41.25648
G0 F3600 X91.426 Y116.174
G1 F1800 X108.825 Y133.573 E42.33062
G0 F3600 X108.58 Y133.824
G1 F1800 X91.175 Y116.418 E43.40517
G0 F3600 X91.175 Y116.913
G1 F1800 X108.085 Y133.824 E44.44915
G0 F3600 X107.59 Y133.824
G1 F1800 X91.175 Y117.408 E45.46258
G0 F3600 X91.175 Y117.903
G1 F1800 X107.095 Y133.824 E46.44545
G0 F3600 X106.6 Y133.824
G1 F1800 X91.175 Y118.398 E47.39776
G0 F3600 X91.175 Y118.893
G1 F1800 X106.105 Y133.824 E48.31951
G0 F3600 X105.61 Y133.824
G1 F1800 X91.175 Y119.388 E49.2107
G0 F3600 X91.175 Y119.883
G1 F1800 X105.115 Y133.824 E50.07133
G0 F3600 X104.62 Y133.824
G1 F1800 X91.175 Y120.378 E50.9014
G0 F3600 X91.175 Y120.873
G1 F1800 X104.125 Y133.824 E51.70091
G0 F3600 X103.63 Y133.824
G1 F1800 X91.175 Y121.368 E52.46986
G0 F3600 X91.175 Y121.863
G1 F1800 X103.135 Y133.824 E53.20825
G0 F3600 X102.64 Y133.824
G1 F1800 X91.175 Y122.358 E53.91609
G0 F3600 X91.175 Y122.853
G1 F1800 X102.145 Y133.824 E54.59336
G0 F3600 X101.65 Y133.824
G1 F1800 X91.175 Y123.348 E55.24008
G0 F3600 X91.175 Y123.843
G1 F1800 X101.155 Y133.824 E55.85623
G0 F3600 X100.66 Y133.824
G1 F1800 X91.175 Y124.338 E56.44183
G0 F3600 X91.175 Y124.833
G1 F1800 X100.165 Y133.824 E56.99687
G0 F3600 X99.67 Y133.824
G1 F1800 X91.175 Y125.328 E57.52135
G0 F3600 X91.175 Y125.823
G1 F1800 X99.175 Y133.824 E58.01526
G0 F3600 X98.68 Y133.824
G1 F1800 X91.175 Y126.318 E58.47862
G0 F3600 X91.175 Y126.813
G1 F1800 X98.186 Y133.824 E58.91145
G0 F3600 X97.691 Y133.824
G1 F1800 X91.175 Y127.308 E59.31373
G0 F3600 X91.175 Y127.803
G1 F1800 X97.196 Y133.824 E59.68544
G0 F3600 X96.701 Y133.824
G1 F1800 X91.175 Y128.298 E60.02659
G0 F3600 X91.175 Y128.793
G1 F1800 X96.206 Y133.824 E60.33719
G0 F3600 X95.711 Y133.824
G1 F1800 X91.175 Y129.288 E60.61722
G0 F3600 X91.175 Y129.783
G1 F1800 X95.216 Y133.824 E60.86669
G0 F3600 X94.721 Y133.824
G1 F1800 X91.175 Y130.278 E61.08561
G0 F3600 X91.175 Y130.773
G1 F1800 X94.226 Y133.824 E61.27397
G0 F3600 X93.731 Y133.824
G1 F1800 X91.175 Y131.268 E61.43176
G0 F3600 X91.175 Y131.762
G1 F1800 X93.236 Y133.824 E61.55903
G0 F3600 X92.741 Y133.824
G1 F1800 X91.175 Y132.257 E61.65574
G0 F3600 X91.175 Y132.752
G1 F1800 X92.246 Y133.824 E61.72189
G0 F3600 X91.751 Y133.824
G1 F1800 X91.175 Y133.247 E61.75748
G0 F3600 X91.175 Y133.742
G1 F1800 X91.256 Y133.824 E61.76251
G0 F3600 X91.256 Y133.808
;MESH:NONMESH
G0 F600 X91.256 Y133.808 Z0.45
G0 F3600 X109.087 Y134.088
G0 X109.459 Y134.455
;TIME_ELAPSED:55.226132
;LAYER:1
M106 S255
;TYPE:WALL-INNER
;MESH:20mm_cube_soft_edges.STL
G1 F3300 X109.455 Y115.541 E62.17535
G1 X90.541 Y115.545 E62.58819
G1 X90.545 Y134.459 E63.00102
G1 X109.459 Y134.455 E63.41386
G0 F5400 X109.523 Y134.805
;TYPE:WALL-OUTER
G1 F2100 X109.714 Y134.712 E63.41849
G1 X109.809 Y134.551 E63.42257
G1 X109.805 Y115.477 E63.8389
G1 X109.712 Y115.286 E63.84354
G1 X109.551 Y115.191 E63.84762
G1 X90.477 Y115.195 E64.26395
G1 X90.286 Y115.288 E64.26858
G1 X90.191 Y115.449 E64.27266
G1 X90.195 Y134.523 E64.68899
G1 X90.288 Y134.714 E64.69363
G1 X90.449 Y134.809 E64.69771
G1 X109.523 Y134.805 E65.11403
G0 F5400 X109.68 Y134.729
G0 X109.126 Y134.123
;TYPE:SKIN
G1 F1800 X90.877 Y134.126 E65.51235
G1 X90.874 Y115.876 E65.9107
G1 X109.124 Y115.874 E66.30904
G1 X109.126 Y134.123 E66.70736
G0 F5400 X108.95 Y133.587
G1 F1800 X108.589 Y133.947 E66.71849
G0 F5400 X108.094 Y133.947
G1 F1800 X108.95 Y133.092 E66.74489
G0 F5400 X108.95 Y132.597
G1 F1800 X107.599 Y133.947 E66.78658
G0 F5400 X107.104 Y133.947
G1 F1800 X108.95 Y132.102 E66.84355
G0 F5400 X108.95 Y131.607
G1 F1800 X106.609 Y133.947 E66.9158
G0 F5400 X106.114 Y133.947
G1 F1800 X108.95 Y131.112 E67.00332
G0 F5400 X108.95 Y130.617
G1 F1800 X105.619 Y133.947 E67.10613
G0 F5400 X105.124 Y133.948
G1 F1800 X108.95 Y130.122 E67.22423
G0 F5400 X108.95 Y129.627
G1 F1800 X104.629 Y133.948 E67.35761
G0 F5400 X104.134 Y133.948
G1 F1800 X108.95 Y129.132 E67.50627
G0 F5400 X108.95 Y128.637
G1 F1800 X103.639 Y133.948 E67.67021
G0 F5400 X103.144 Y133.948
G1 F1800 X108.95 Y128.142 E67.84943
G0 F5400 X108.949 Y127.648
G1 F1800 X102.649 Y133.948 E68.0439
G0 F5400 X102.154 Y133.948
G1 F1800 X108.949 Y127.153 E68.25364
G0 F5400 X108.949 Y126.658
G1 F1800 X101.658 Y133.949 E68.4787
G0 F5400 X101.163 Y133.949
G1 F1800 X108.949 Y126.163 E68.71904
G0 F5400 X108.949 Y125.668
G1 F1800 X100.668 Y133.949 E68.97466
G0 F5400 X100.173 Y133.949
G1 F1800 X108.949 Y125.173 E69.24556
G0 F5400 X108.949 Y124.678
G1 F1800 X99.678 Y133.949 E69.53173
G0 F5400 X99.183 Y133.949
G1 F1800 X108.949 Y124.183 E69.83319
G0 F5400 X108.949 Y123.688
G1 F1800 X98.688 Y133.949 E70.14993
G0 F5400 X98.193 Y133.95
G1 F1800 X108.949 Y123.193 E70.48196
G0 F5400 X108.949 Y122.698
G1 F1800 X97.698 Y133.95 E70.82927
G0 F5400 X97.203 Y133.95
G1 F1800 X108.949 Y122.203 E71.19186
G0 F5400 X108.948 Y121.709
G1 F1800 X96.708 Y133.95 E71.5697
G0 F5400 X96.213 Y133.95
G1 F1800 X108.948 Y121.214 E71.96282
G0 F5400 X108.948 Y120.719
G1 F1800 X95.718 Y133.95 E72.37122
G0 F5400 X95.223 Y133.95
G1 F1800 X108.948 Y120.224 E72.7949
G0 F5400 X108.948 Y119.729
G1 F1800 X94.728 Y133.95 E73.23386
G0 F5400 X94.232 Y133.95
G1 F1800 X108.948 Y119.234 E73.68811
G0 F5400 X108.948 Y118.739
G1 F1800 X93.737 Y133.95 E74.15764
G0 F5400 X93.242 Y133.95
G1 F1800 X108.948 Y118.244 E74.64245
G0 F5400 X108.948 Y117.749
G1 F1800 X92.747 Y133.95 E75.14255
G0 F5400 X92.252 Y133.95
G1 F1800 X108.948 Y117.254 E75.65792
G0 F5400 X108.948 Y116.759
G1 F1800 X91.757 Y133.95 E76.18857
G0 F5400 X91.262 Y133.95
G1 F1800 X108.948 Y116.264 E76.7345
G0 F5400 X108.67 Y116.048
G1 F1800 X91.052 Y133.666 E77.27833
G0 F5400 X91.052 Y133.171
G1 F1800 X108.175 Y116.048 E77.80689
G0 F5400 X107.68 Y116.048
G1 F1800 X91.052 Y132.676 E78.32016
G0 F5400 X91.052 Y132.181
G1 F1800 X107.185 Y116.048 E78.81815
G0 F5400 X106.69 Y116.048
G1 F1800 X91.052 Y131.686 E79.30087
G0 F5400 X91.052 Y131.191
G1 F1800 X106.195 Y116.048 E79.7683
G0 F5400 X105.7 Y116.048
G1 F1800 X91.052 Y130.696 E80.22045
G0 F5400 X91.051 Y130.202
G1 F1800 X105.205 Y116.048 E80.65736
G0 F5400 X104.71 Y116.048
G1 F1800 X91.051 Y129.707 E81.07899
G0 F5400 X91.051 Y129.212
G1 F1800 X104.215 Y116.048 E81.48533
G0 F5400 X103.72 Y116.048
G1 F1800 X91.051 Y128.717 E81.8764
G0 F5400 X91.051 Y128.222
G1 F1800 X103.225 Y116.048 E82.25218
G0 F5400 X102.729 Y116.048
G1 F1800 X91.051 Y127.727 E82.61268
G0 F5400 X91.051 Y127.232
G1 F1800 X102.234 Y116.048 E82.95789
G0 F5400 X101.739 Y116.048
G1 F1800 X91.05 Y126.738 E83.28785
G0 F5400 X91.05 Y126.243
G1 F1800 X101.244 Y116.048 E83.60254
G0 F5400 X100.749 Y116.048
G1 F1800 X91.05 Y125.748 E83.90194
G0 F5400 X91.05 Y125.253
G1 F1800 X100.255 Y116.048 E84.18608
G0 F5400 X99.76 Y116.048
G1 F1800 X91.05 Y124.758 E84.45494
G0 F5400 X91.05 Y124.263
G1 F1800 X99.265 Y116.048 E84.70852
G0 F5400 X98.77 Y116.048
G1 F1800 X91.05 Y123.768 E84.94682
G0 F5400 X91.05 Y123.273
G1 F1800 X98.275 Y116.048 E85.16984
G0 F5400 X97.78 Y116.048
G1 F1800 X91.049 Y122.779 E85.37761
G0 F5400 X91.049 Y122.284
G1 F1800 X97.285 Y116.048 E85.57011
G0 F5400 X96.789 Y116.049
G1 F1800 X91.049 Y121.789 E85.74729
G0 F5400 X91.049 Y121.294
G1 F1800 X96.294 Y116.049 E85.90919
G0 F5400 X95.799 Y116.049
G1 F1800 X91.049 Y120.799 E86.05582
G0 F5400 X91.049 Y120.304
G1 F1800 X95.304 Y116.049 E86.18716
G0 F5400 X94.809 Y116.049
G1 F1800 X91.049 Y119.809 E86.30322
G0 F5400 X91.049 Y119.315
G1 F1800 X94.314 Y116.049 E86.40402
G0 F5400 X93.819 Y116.049
G1 F1800 X91.049 Y118.82 E86.48954
G0 F5400 X91.049 Y118.325
G1 F1800 X93.324 Y116.049 E86.55978
G0 F5400 X92.829 Y116.049
