;FLAVOR:Marlin
;TIME:1138
;Filament used: 1.09717m
;Layer height: 0.15
;MINX:82.267
;MINY:107.267
;MINZ:0.3
;MAXX:117.733
;MAXY:142.733
;MAXZ:19.95
;Generated with Cura_SteamEngine 5.3.1
M140 S60
M105
M190 S60
M104 S200
M105
M109 S200
M82 ;absolute extrusion mode
G28 ; home all axes
G1 X215 Y40 Z0.1 F10000 ; move off the bed and bring the bed up
G92 E0 ; zero extruder
G1 X195 Z0.1 F1000; scrape off any ooze
G1 Z5 ; lift
G1 X170 Y3 F10000; move to unused front edge
G1 Z0.30 F1000
G1 X40 E20 F1000
G1 X30 Z0.05 F1000 ; wipe off tail
G1 Z1
G92 E0
; ok now you can start
G92 E0
G92 E0
G1 F1500 E-6.5
;LAYER_COUNT:132
;LAYER:0
M107
G0 F3600 X85.89 Y108.723 Z0.3
;TYPE:SKIRT
G1 F1500 E0
G1 F1800 X87.283 Y107.876 E0.07117
G1 X89.591 Y107.267 E0.17537
G1 X110.193 Y107.268 E1.07473
G1 X112.578 Y107.772 E1.18114
G1 X115.001 Y109.292 E1.30601
G1 X116.277 Y110.89 E1.39528
G1 X117.124 Y112.283 E1.46644
G1 X117.733 Y114.591 E1.57065
G1 X117.732 Y135.365 E2.47751
G1 X117.195 Y137.553 E2.57586
G1 X116.858 Y138.301 E2.61168
G1 X115.284 Y140.44 E2.72761
G1 X113.411 Y141.79 E2.8284
G1 X111.011 Y142.733 E2.94096
G1 X89.807 Y142.732 E3.8666
G1 X87.422 Y142.228 E3.97302
G1 X84.999 Y140.708 E4.09788
G1 X83.723 Y139.11 E4.18715
G1 X82.876 Y137.717 E4.25832
G1 X82.267 Y135.409 E4.36252
G1 X82.268 Y114.807 E5.26188
G1 X82.772 Y112.422 E5.36829
G1 X84.292 Y109.999 E5.49315
G1 X85.89 Y108.723 E5.58242
G0 F3600 X86.072 Y109.022
G1 F1800 X87.423 Y108.201 E5.65144
G1 X89.635 Y107.617 E5.75131
G1 X110.159 Y107.618 E6.64726
G1 X112.445 Y108.101 E6.74926
G1 X114.764 Y109.556 E6.86877
G1 X115.978 Y111.072 E6.95355
G1 X116.799 Y112.423 E7.02256
G1 X117.383 Y114.635 E7.12243
G1 X117.382 Y135.323 E8.02555
G1 X116.863 Y137.438 E8.12061
G1 X116.554 Y138.124 E8.15346
G1 X115.036 Y140.187 E8.26527
G1 X113.242 Y141.48 E8.36181
G1 X110.944 Y142.383 E8.46959
G1 X89.841 Y142.382 E9.39082
G1 X87.555 Y141.899 E9.49281
G1 X85.236 Y140.444 E9.61232
G1 X84.022 Y138.928 E9.69711
G1 X83.201 Y137.577 E9.76612
G1 X82.617 Y135.365 E9.86599
G1 X82.618 Y114.841 E10.76194
G1 X83.101 Y112.555 E10.86394
G1 X84.556 Y110.236 E10.98345
G1 X86.072 Y109.022 E11.06823
G0 F3600 X86.254 Y109.321
G1 F1800 X87.563 Y108.526 E11.13509
G1 X89.679 Y107.967 E11.23063
G1 X110.125 Y107.968 E12.12318
G1 X112.312 Y108.43 E12.22076
G1 X114.527 Y109.82 E12.33491
G1 X115.679 Y111.254 E12.41521
G1 X116.474 Y112.563 E12.48207
G1 X117.033 Y114.679 E12.57761
G1 X117.032 Y135.281 E13.47697
G1 X116.531 Y137.323 E13.56875
G1 X116.25 Y137.947 E13.59863
G1 X114.788 Y139.934 E13.70632
G1 X113.073 Y141.17 E13.7986
G1 X110.877 Y142.033 E13.9016
G1 X89.875 Y142.032 E14.81842
G1 X87.688 Y141.57 E14.916
G1 X85.473 Y140.18 E15.03015
G1 X84.321 Y138.746 E15.11045
G1 X83.526 Y137.437 E15.17731
G1 X82.967 Y135.321 E15.27285
G1 X82.968 Y114.875 E16.1654
G1 X83.43 Y112.688 E16.26297
G1 X84.82 Y110.473 E16.37713
G1 X86.254 Y109.321 E16.45743
G0 F3600 X86.473 Y109.594
G1 F1800 X87.701 Y108.851 E16.52008
G1 X89.723 Y108.317 E16.61138
G1 X110.091 Y108.318 E17.50052
G1 X112.179 Y108.759 E17.59368
G1 X114.29 Y110.084 E17.70248
G1 X115.406 Y111.473 E17.78027
G1 X116.149 Y112.701 E17.84292
G1 X116.683 Y114.723 E17.93422
G1 X116.682 Y135.239 E18.82982
G1 X116.199 Y137.208 E18.91832
G1 X115.946 Y137.77 E18.94523
G1 X114.54 Y139.681 E19.0488
G1 X112.904 Y140.86 E19.13683
G1 X110.81 Y141.683 E19.23505
G1 X89.909 Y141.682 E20.14746
G1 X87.821 Y141.241 E20.24062
G1 X85.71 Y139.916 E20.34942
G1 X84.594 Y138.527 E20.4272
G1 X83.851 Y137.299 E20.48986
G1 X83.317 Y135.277 E20.58115
G1 X83.318 Y114.909 E21.47029
G1 X83.759 Y112.821 E21.56346
G1 X85.084 Y110.71 E21.67226
G1 X86.473 Y109.594 E21.75004
G0 F3600 X86.692 Y109.867
G1 F1800 X87.84 Y109.176 E21.80853
G1 X89.767 Y108.667 E21.89554
G1 X110.057 Y108.668 E22.78128
G1 X112.046 Y109.088 E22.87002
G1 X114.053 Y110.348 E22.97347
G1 X115.133 Y111.692 E23.04873
G1 X115.824 Y112.84 E23.10723
G1 X116.333 Y114.767 E23.19423
G1 X116.332 Y135.197 E24.08608
G1 X115.867 Y137.093 E24.1713
G1 X115.642 Y137.593 E24.19524
G1 X114.292 Y139.428 E24.29469
G1 X112.735 Y140.55 E24.37846
G1 X110.743 Y141.333 E24.4719
G1 X89.943 Y141.332 E25.3799
G1 X87.954 Y140.912 E25.46864
G1 X85.947 Y139.652 E25.57209
G1 X84.867 Y138.308 E25.64736
G1 X84.176 Y137.16 E25.70585
G1 X83.667 Y135.233 E25.79286
G1 X83.668 Y114.943 E26.6786
G1 X84.088 Y112.954 E26.76734
G1 X85.348 Y110.947 E26.87079
G1 X86.692 Y109.867 E26.94605
G0 F3600 X86.911 Y110.14
G1 F1800 X87.979 Y109.501 E27.00038
G1 X89.811 Y109.017 E27.0831
G1 X110.023 Y109.018 E27.96543
G1 X111.913 Y109.417 E28.04976
G1 X113.816 Y110.612 E28.14785
G1 X114.86 Y111.911 E28.2206
G1 X115.499 Y112.979 E28.27493
G1 X115.983 Y114.811 E28.35765
G1 X115.982 Y135.155 E29.24575
G1 X115.545 Y136.955 E29.32661
G1 X115.36 Y137.386 E29.34708
G1 X114.044 Y139.175 E29.44403
G1 X112.566 Y140.24 E29.52356
G1 X110.676 Y140.983 E29.61221
G1 X89.977 Y140.982 E30.5158
G1 X88.087 Y140.583 E30.60013
G1 X86.184 Y139.388 E30.69822
G1 X85.14 Y138.089 E30.77097
G1 X84.501 Y137.021 E30.8253
G1 X84.017 Y135.189 E30.90802
G1 X84.018 Y114.977 E31.79035
G1 X84.417 Y113.087 E31.87468
G1 X85.612 Y111.184 E31.97277
G1 X86.911 Y110.14 E32.04552
G0 F3600 X87.091 Y110.44
G1 F1800 X88.117 Y109.826 E32.09772
G1 X89.855 Y109.367 E32.17619
G1 X109.989 Y109.368 E33.05512
G1 X111.78 Y109.746 E33.13503
G1 X113.58 Y110.876 E33.2278
G1 X114.56 Y112.091 E33.29595
G1 X115.174 Y113.117 E33.34814
G1 X115.633 Y114.855 E33.42662
G1 X115.632 Y135.113 E34.31096
G1 X115.205 Y136.872 E34.38997
G1 X115.054 Y137.212 E34.40621
G1 X113.796 Y138.922 E34.49889
G1 X112.397 Y139.93 E34.57416
G1 X110.609 Y140.633 E34.65803
G1 X90.011 Y140.632 E35.55721
G1 X88.22 Y140.254 E35.63712
G1 X86.42 Y139.124 E35.7299
G1 X85.44 Y137.909 E35.79804
G1 X84.826 Y136.883 E35.85024
G1 X84.367 Y135.145 E35.92871
G1 X84.368 Y115.011 E36.80764
G1 X84.746 Y113.22 E36.88754
G1 X85.876 Y111.42 E36.98032
G1 X87.091 Y110.44 E37.04846
G0 F3600 X87.311 Y110.713
G1 F1800 X88.256 Y110.151 E37.09646
G1 X89.899 Y109.717 E37.17064
G1 X109.955 Y109.718 E38.04617
G1 X111.644 Y110.075 E38.12153
G1 X113.344 Y111.141 E38.20912
G1 X114.287 Y112.311 E38.27472
G1 X114.849 Y113.256 E38.32272
G1 X115.283 Y114.899 E38.3969
G1 X115.282 Y135.071 E39.27749
G1 X114.865 Y136.789 E39.35466
G1 X114.772 Y137.005 E39.36493
G1 X113.548 Y138.669 E39.45511
G1 X112.228 Y139.62 E39.52613
G1 X110.542 Y140.283 E39.60521
G1 X90.045 Y140.282 E40.49999
G1 X88.356 Y139.925 E40.57535
G1 X86.656 Y138.859 E40.66294
G1 X85.713 Y137.689 E40.72854
G1 X85.151 Y136.744 E40.77654
G1 X84.717 Y135.101 E40.85072
G1 X84.718 Y115.045 E41.72625
G1 X85.075 Y113.356 E41.80161
G1 X86.141 Y111.656 E41.8892
G1 X87.311 Y110.713 E41.9548
G0 F3600 X87.49 Y111.014
G1 F1800 X88.395 Y110.476 E42.00076
G1 X89.943 Y110.067 E42.07066
G1 X109.921 Y110.068 E42.94277
G1 X111.511 Y110.404 E43.01372
G1 X113.108 Y111.406 E43.09602
G1 X113.986 Y112.49 E43.15691
G1 X114.524 Y113.395 E43.20288
G1 X114.933 Y114.943 E43.27277
G1 X114.932 Y135.029 E44.1496
G1 X114.525 Y136.706 E44.22494
G1 X114.467 Y136.83 E44.23091
G1 X113.3 Y138.416 E44.31687
G1 X112.059 Y139.31 E44.38364
G1 X110.475 Y139.933 E44.45794
G1 X90.079 Y139.932 E45.34831
G1 X88.489 Y139.596 E45.41925
G1 X86.892 Y138.594 E45.50155
G1 X86.014 Y137.51 E45.56245
G1 X85.476 Y136.605 E45.60841
G1 X85.067 Y135.057 E45.6783
G1 X85.068 Y115.079 E46.55042
G1 X85.404 Y113.489 E46.62136
G1 X86.406 Y111.892 E46.70367
G1 X87.49 Y111.014 E46.76456
G0 F3600 X87.71 Y111.286
G1 F1800 X88.532 Y110.801 E46.80622
G1 X89.987 Y110.417 E46.87192
G1 X109.887 Y110.418 E47.74063
G1 X111.375 Y110.733 E47.80703
G1 X112.874 Y111.673 E47.88427
G1 X113.714 Y112.71 E47.94252
G1 X114.199 Y113.532 E47.98419
G1 X114.583 Y114.987 E48.04988
G1 X114.582 Y134.987 E48.92296
G1 X114.185 Y136.623 E48.99645
G1 X113.052 Y138.163 E49.07991
G1 X111.89 Y139 E49.14242
G1 X110.408 Y139.583 E49.21194
G1 X90.113 Y139.582 E50.0979
G1 X88.625 Y139.267 E50.1643
G1 X87.126 Y138.327 E50.24154
G1 X86.286 Y137.29 E50.29979
G1 X85.801 Y136.468 E50.34146
G1 X85.417 Y135.013 E50.40715
G1 X85.418 Y115.113 E51.27586
G1 X85.733 Y113.625 E51.34226
G1 X86.673 Y112.126 E51.4195
G1 X87.71 Y111.286 E51.47776
G0 F3600 X87.888 Y111.587
G1 F1800 X88.669 Y111.126 E51.51735
G1 X90.03 Y110.767 E51.57879
G1 X109.852 Y110.768 E52.4441
G1 X111.24 Y111.062 E52.50603
G1 X112.64 Y111.94 E52.57817
G1 X113.413 Y112.888 E52.63157
G1 X113.874 Y113.669 E52.67116
G1 X114.233 Y115.03 E52.73261
G1 X114.232 Y134.946 E53.60202
G1 X113.862 Y136.472 E53.67057
G1 X112.804 Y137.91 E53.7485
G1 X111.721 Y138.69 E53.80676
G1 X110.341 Y139.233 E53.8715
G1 X90.148 Y139.232 E54.753
G1 X88.76 Y138.938 E54.81494
G1 X87.36 Y138.06 E54.88708
G1 X86.587 Y137.112 E54.94048
G1 X86.126 Y136.331 E54.98007
G1 X85.767 Y134.97 E55.04151
G1 X85.768 Y115.148 E55.90682
G1 X86.062 Y113.76 E55.96876
G1 X86.94 Y112.36 E56.0409
G1 X87.888 Y111.587 E56.09429
G0 F3600 X88.066 Y111.889
G1 F1800 X88.809 Y111.451 E56.13195
G1 X90.074 Y111.117 E56.18906
G1 X109.817 Y111.118 E57.05092
G1 X111.105 Y111.391 E57.1084
G1 X112.405 Y112.206 E57.17538
G1 X113.111 Y113.066 E57.22395
G1 X113.549 Y113.809 E57.2616
G1 X113.883 Y115.074 E57.31871
G1 X113.882 Y134.904 E58.18437
G1 X113.538 Y136.322 E58.24807
G1 X112.556 Y137.657 E58.32041
G1 X111.552 Y138.38 E58.37442
G1 X110.274 Y138.883 E58.43438
G1 X90.183 Y138.882 E59.31143
G1 X88.895 Y138.609 E59.36891
G1 X87.595 Y137.794 E59.43589
G1 X86.889 Y136.934 E59.48446
G1 X86.451 Y136.191 E59.52211
G1 X86.117 Y134.926 E59.57922
G1 X86.118 Y115.183 E60.44108
G1 X86.391 Y113.895 E60.49856
G1 X87.206 Y112.595 E60.56554
G1 X88.066 Y111.889 E60.61411
G0 F3600 X88.288 Y112.16
G1 F1800 X88.945 Y111.777 E60.64731
G1 X90.118 Y111.467 E60.70027
G1 X109.782 Y111.468 E61.55869
G1 X110.97 Y111.72 E61.6117
G1 X112.171 Y112.473 E61.67358
G1 X112.84 Y113.288 E61.71961
G1 X113.223 Y113.945 E61.75281
G1 X113.533 Y115.118 E61.80577
G1 X113.532 Y134.862 E62.66768
G1 X113.214 Y136.172 E62.72652
G1 X112.308 Y137.404 E62.79328
G1 X111.383 Y138.07 E62.84304
G1 X110.207 Y138.533 E62.89821
G1 X90.218 Y138.532 E63.77081
G1 X89.03 Y138.28 E63.82383
G1 X87.829 Y137.527 E63.88571
G1 X87.16 Y136.712 E63.93174
G1 X86.777 Y136.055 E63.96493
G1 X86.467 Y134.882 E64.0179
G1 X86.468 Y115.218 E64.87631
G1 X86.72 Y114.03 E64.92932
G1 X87.473 Y112.829 E64.9912
G1 X88.288 Y112.16 E65.03723
G0 F3600 X88.51 Y112.431
G1 F1800 X89.082 Y112.103 E65.06602
G1 X90.163 Y111.817 E65.11483
G1 X109.747 Y111.818 E65.96975
G1 X110.835 Y112.049 E66.0183
G1 X111.937 Y112.74 E66.07509
G1 X112.569 Y113.51 E66.11857
G1 X112.897 Y114.082 E66.14736
G1 X113.183 Y115.163 E66.19617
G1 X113.182 Y134.821 E67.05432
G1 X112.891 Y136.021 E67.10822
G1 X112.059 Y137.153 E67.16955
G1 X111.216 Y137.759 E67.21487
G1 X110.14 Y138.183 E67.26536
G1 X90.253 Y138.182 E68.1335
G1 X89.165 Y137.951 E68.18206
G1 X88.063 Y137.26 E68.23884
G1 X87.431 Y136.49 E68.28233
G1 X87.103 Y135.918 E68.31111
G1 X86.817 Y134.837 E68.35992
G1 X86.818 Y115.253 E69.21484
G1 X87.049 Y114.165 E69.2634
G1 X87.74 Y113.063 E69.32018
G1 X88.51 Y112.431 E69.36366
G0 F3600 X88.684 Y112.735
G1 F1800 X89.218 Y112.429 E69.39053
G1 X90.208 Y112.167 E69.43524
G1 X109.712 Y112.168 E70.28666
G1 X110.702 Y112.378 E70.33084
G1 X111.703 Y113.006 E70.38243
G1 X112.265 Y113.684 E70.42087
G1 X112.571 Y114.218 E70.44774
G1 X112.833 Y115.208 E70.49244
G1 X112.832 Y134.779 E71.34679
G1 X112.567 Y135.871 E71.39585
G1 X111.81 Y136.902 E71.45168
G1 X111.052 Y137.447 E71.49244
G1 X110.073 Y137.833 E71.53838
G1 X90.288 Y137.832 E72.40207
G1 X89.298 Y137.622 E72.44625
G1 X88.297 Y136.994 E72.49783
G1 X87.735 Y136.316 E72.53628
G1 X87.429 Y135.782 E72.56315
G1 X87.167 Y134.792 E72.60785
G1 X87.168 Y115.288 E73.45928
G1 X87.378 Y114.298 E73.50346
G1 X88.006 Y113.297 E73.55504
G1 X88.684 Y112.735 E73.59348
G0 F3600 X88.907 Y113.005
G1 F1800 X89.352 Y112.755 E73.61577
G1 X90.252 Y112.517 E73.65641
G1 X109.677 Y112.518 E74.50438
G1 X110.567 Y112.707 E74.5441
G1 X111.47 Y113.273 E74.59062
G1 X111.995 Y113.907 E74.62656
G1 X112.245 Y114.352 E74.64884
G1 X112.483 Y115.252 E74.68948
G1 X112.482 Y134.738 E75.54012
G1 X112.244 Y135.72 E75.58423
G1 X111.561 Y136.651 E75.63463
G1 X110.888 Y137.135 E75.67082
G1 X110.006 Y137.483 E75.71221
G1 X90.323 Y137.482 E76.57145
G1 X89.433 Y137.293 E76.61117
G1 X88.53 Y136.727 E76.65769
G1 X88.005 Y136.093 E76.69363
G1 X87.755 Y135.648 E76.71591
G1 X87.517 Y134.748 E76.75655
G1 X87.518 Y115.323 E77.60453
G1 X87.707 Y114.433 E77.64425
G1 X88.273 Y113.53 E77.69077
G1 X88.907 Y113.005 E77.7267
G0 F3600 X89.13 Y113.274
G1 F1800 X89.441 Y113.093 E77.74241
G1 X90.296 Y112.867 E77.78102
G1 X109.642 Y112.868 E78.62555
G1 X110.434 Y113.036 E78.66089
G1 X111.237 Y113.54 E78.70228
G1 X111.726 Y114.13 E78.73573
G1 X111.907 Y114.441 E78.75144
G1 X112.133 Y115.296 E78.79004
G1 X112.132 Y134.696 E79.63693
G1 X111.92 Y135.57 E79.67619
G1 X111.311 Y136.4 E79.72113
G1 X110.719 Y136.826 E79.75297
G1 X109.944 Y137.133 E79.78936
G1 X90.358 Y137.132 E80.64436
G1 X89.566 Y136.964 E80.6797
G1 X88.763 Y136.46 E80.72109
G1 X88.274 Y135.87 E80.75454
G1 X88.093 Y135.559 E80.77025
G1 X87.867 Y134.704 E80.80886
G1 X87.868 Y115.358 E81.65339
G1 X88.036 Y114.566 E81.68873
G1 X88.54 Y113.763 E81.73012
G1 X89.13 Y113.274 E81.76357
G0 F3600 X89.353 Y113.544
G1 F1800 X89.576 Y113.419 E81.77473
G1 X90.34 Y113.217 E81.80923
G1 X109.607 Y113.218 E82.65031
G1 X110.301 Y113.365 E82.68127
G1 X111.002 Y113.805 E82.7174
G1 X111.456 Y114.353 E82.74847
G1 X111.581 Y114.576 E82.75963
G1 X111.783 Y115.34 E82.79413
G1 X111.782 Y134.654 E83.63726
G1 X111.596 Y135.42 E83.67167
G1 X111.063 Y136.147 E83.71102
G1 X110.548 Y136.518 E83.73873
G1 X109.882 Y136.783 E83.77002
G1 X90.393 Y136.782 E84.62079
G1 X89.699 Y136.635 E84.65176
G1 X88.998 Y136.195 E84.68789
G1 X88.544 Y135.647 E84.71896
G1 X88.419 Y135.424 E84.73012
G1 X88.217 Y134.66 E84.76461
G1 X88.218 Y115.393 E85.60569
G1 X88.365 Y114.699 E85.63666
G1 X88.805 Y113.998 E85.67279
G1 X89.353 Y113.544 E85.70386
G0 F3600 X89.576 Y113.814
G1 F1800 X89.709 Y113.746 E85.71038
G1 X90.385 Y113.567 E85.7409
G1 X109.572 Y113.568 E86.57849
G1 X110.166 Y113.694 E86.605
G1 X110.769 Y114.072 E86.63607
G1 X111.186 Y114.576 E86.66462
G1 X111.254 Y114.709 E86.67114
G1 X111.433 Y115.385 E86.70167
G1 X111.432 Y134.613 E87.54105
G1 X111.273 Y135.269 E87.57052
G1 X110.814 Y135.894 E87.60437
G1 X110.379 Y136.208 E87.62779
G1 X109.82 Y136.433 E87.65409
G1 X90.428 Y136.432 E88.50063
G1 X89.834 Y136.306 E88.52714
G1 X89.231 Y135.928 E88.5582
G1 X88.814 Y135.424 E88.58676
G1 X88.746 Y135.291 E88.59328
G1 X88.567 Y134.615 E88.62381
G1 X88.568 Y115.428 E89.4614
G1 X88.694 Y114.834 E89.4879
G1 X89.072 Y114.231 E89.51897
G1 X89.576 Y113.814 E89.54753
G0 F3600 X89.799 Y114.084
G1 F1800 X90.43 Y113.917 E89.57602
G1 X109.572 Y113.918 E90.41164
G1 X110.031 Y114.023 E90.4322
G1 X110.536 Y114.339 E90.4582
G1 X110.916 Y114.799 E90.48425
G1 X111.083 Y115.43 E90.51274
G1 X111.082 Y134.572 E91.34837
G1 X110.95 Y135.118 E91.37289
G1 X110.532 Y135.687 E91.40371
G1 X110.186 Y135.916 E91.42182
G1 X109.754 Y136.083 E91.44204
G1 X90.428 Y136.082 E92.2857
G1 X89.969 Y135.977 E92.30625
G1 X89.464 Y135.661 E92.33226
G1 X89.084 Y135.201 E92.3583
G1 X88.917 Y134.57 E92.3868
G1 X88.918 Y115.428 E93.22242
G1 X89.023 Y114.969 E93.24298
G1 X89.339 Y114.464 E93.26898
G1 X89.799 Y114.084 E93.29503
G0 F3600 X89.636 Y114.65
G1 F1800 X89.962 Y114.403 E93.31288
G1 X90.43 Y114.267 E93.33416
G1 X109.572 Y114.268 E94.16978
G1 X109.845 Y114.32 E94.18191
G1 X110.35 Y114.636 E94.20792
G1 X110.597 Y114.962 E94.22577
G1 X110.733 Y115.43 E94.24705
G1 X110.732 Y134.572 E95.08267
G1 X110.627 Y134.967 E95.10052
G1 X110.288 Y135.429 E95.12553
G1 X110.058 Y135.59 E95.13779
G1 X109.693 Y135.733 E95.1549
G1 X90.428 Y135.732 E95.99589
G1 X90.155 Y135.68 E96.00802
G1 X89.65 Y135.364 E96.03403
G1 X89.403 Y135.038 E96.05188
G1 X89.267 Y134.57 E96.07316
G1 X89.268 Y115.428 E96.90878
G1 X89.32 Y115.155 E96.92091
G1 X89.636 Y114.65 E96.94692
G0 F3600 X89.925 Y114.848
G1 F1800 X90.072 Y114.735 E96.95501
