;FLAVOR:Marlin
;TIME:10380
;Filament used: 8.1696m
;Layer height: 0.15
;MINX:51.825
;MINY:69.325
;MINZ:0.3
;MAXX:148.175
;MAXY:180.675
;MAXZ:40.95
;Generated with Cura_SteamEngine 5.3.1
M140 S60
M105
M190 S60
M104 S200
M105
M109 S200
M82 ;absolute extrusion mode
G28 ; home all axes
G1 X215 Y40 Z0.1 F10000 ; move off the bed and bring the bed up
G92 E0 ; zero extruder
G1 X195 Z0.1 F1000; scrape off any ooze
G1 Z5 ; lift
G1 X170 Y3 F10000; move to unused front edge
G1 Z0.30 F1000
G1 X40 E20 F1000
G1 X30 Z0.05 F1000 ; wipe off tail
G1 Z1
G92 E0
; ok now you can start
G92 E0
G92 E0
G1 F1500 E-6.5
;LAYER_COUNT:272
;LAYER:0
M107
G0 F3600 X56.721 Y86.03 Z0.3
;TYPE:SKIRT
G1 F1500 E0
G1 F1800 X57.392 Y85.652 E0.03362
G1 X58.054 Y85.301 E0.06633
G1 X58.757 Y85.026 E0.09928
G1 X59.454 Y84.777 E0.13159
G1 X60.122 Y84.601 E0.16175
G1 X61.865 Y84.167 E0.24016
G1 X64.495 Y83.434 E0.35935
G1 X67.096 Y82.627 E0.47823
G1 X69.709 Y81.736 E0.59875
G1 X72.28 Y80.776 E0.71855
G1 X74.79 Y79.758 E0.83679
G1 X77.313 Y78.649 E0.9571
G1 X79.794 Y77.476 E1.0769
G1 X82.21 Y76.247 E1.19523
G1 X84.631 Y74.93 E1.31554
G1 X87.005 Y73.548 E1.43546
G1 X90.449 Y71.38 E1.61311
G1 X91.59 Y70.629 E1.67274
G1 X92.204 Y70.284 E1.70348
G1 X92.773 Y70.006 E1.73113
G1 X93.289 Y69.797 E1.75543
G1 X94.259 Y69.531 E1.79934
G1 X94.827 Y69.419 E1.82461
G1 X95.653 Y69.353 E1.86079
G1 X96.896 Y69.325 E1.91506
G1 X103.358 Y69.326 E2.19715
G1 X104.15 Y69.343 E2.23174
G1 X105.165 Y69.422 E2.27618
G1 X105.839 Y69.543 E2.30607
G1 X106.744 Y69.818 E2.34736
G1 X107.284 Y70.023 E2.37258
G1 X108.248 Y70.524 E2.42
G1 X110.96 Y72.303 E2.56159
G1 X113.283 Y73.731 E2.68063
G1 X115.675 Y75.11 E2.80116
G1 X118.061 Y76.398 E2.91952
G1 X120.526 Y77.639 E3.04
G1 X122.984 Y78.79 E3.15848
G1 X125.522 Y79.893 E3.27928
G1 X128.061 Y80.911 E3.3987
G1 X130.629 Y81.858 E3.51818
G1 X133.214 Y82.729 E3.63726
G1 X135.841 Y83.532 E3.75718
G1 X138.481 Y84.258 E3.8767
G1 X140.466 Y84.748 E3.96596
G1 X141.18 Y85.003 E3.99905
G1 X141.931 Y85.295 E4.03423
G1 X142.586 Y85.64 E4.06654
G1 X143.265 Y86.021 E4.10053
G1 X143.879 Y86.468 E4.13369
G1 X144.483 Y86.933 E4.16696
G1 X145.322 Y87.75 E4.21809
G1 X145.665 Y88.146 E4.24096
G1 X146.275 Y88.937 E4.28456
G1 X146.559 Y89.38 E4.30753
G1 X147.049 Y90.254 E4.35127
G1 X147.263 Y90.718 E4.37358
G1 X147.501 Y91.33 E4.40224
G1 X147.732 Y91.977 E4.43223
G1 X147.904 Y92.714 E4.46527
G1 X148.059 Y93.47 E4.49896
G1 X148.131 Y94.311 E4.53581
G1 X148.174 Y95.09 E4.56987
G1 X148.175 Y169.301 E7.80947
G1 X148.165 Y170.041 E7.84177
G1 X148.138 Y170.63 E7.86751
G1 X148.064 Y171.496 E7.90546
G1 X147.896 Y172.324 E7.94234
G1 X147.736 Y173.011 E7.97313
G1 X147.47 Y173.752 E8.0075
G1 X147.21 Y174.42 E8.03879
G1 X146.657 Y175.469 E8.09056
G1 X146.375 Y175.906 E8.11326
G1 X145.79 Y176.71 E8.15667
G1 X145.448 Y177.105 E8.17947
G1 X144.75 Y177.822 E8.22316
G1 X144.354 Y178.165 E8.24603
G1 X143.839 Y178.562 E8.27441
G1 X143.28 Y178.969 E8.3046
G1 X142.608 Y179.348 E8.33828
G1 X141.946 Y179.699 E8.37099
G1 X141.243 Y179.974 E8.40394
G1 X140.52 Y180.233 E8.43747
G1 X139.786 Y180.404 E8.47037
G1 X139.03 Y180.559 E8.50406
G1 X138.188 Y180.631 E8.54095
G1 X137.402 Y180.674 E8.57531
G1 X63.162 Y180.675 E11.81618
G1 X62.182 Y180.661 E11.85896
G1 X60.993 Y180.563 E11.91104
G1 X60.174 Y180.396 E11.94753
G1 X59.493 Y180.237 E11.97806
G1 X58.819 Y179.996 E12.00931
G1 X58.068 Y179.705 E12.04447
G1 X57.03 Y179.155 E12.09575
G1 X56.589 Y178.872 E12.11862
G1 X55.784 Y178.284 E12.16214
G1 X55.395 Y177.948 E12.18458
G1 X54.985 Y177.551 E12.20949
G1 X54.44 Y176.992 E12.24357
G1 X53.986 Y176.403 E12.27604
G1 X53.53 Y175.779 E12.30977
G1 X53.152 Y175.108 E12.34339
G1 X52.8 Y174.444 E12.3762
G1 X52.369 Y173.335 E12.42814
G1 X52.225 Y172.84 E12.45065
G1 X52.096 Y172.286 E12.47548
G1 X51.941 Y171.53 E12.50917
G1 X51.869 Y170.688 E12.54606
G1 X51.826 Y169.902 E12.58042
G1 X51.825 Y95.662 E15.82129
G1 X51.835 Y94.956 E15.85211
G1 X51.862 Y94.37 E15.87772
G1 X51.936 Y93.503 E15.9157
G1 X52.105 Y92.673 E15.95268
G1 X52.265 Y91.99 E15.9833
G1 X52.536 Y91.232 E16.01844
G1 X52.792 Y90.576 E16.04918
G1 X53.345 Y89.529 E16.10087
G1 X53.628 Y89.089 E16.12371
G1 X54.216 Y88.284 E16.16723
G1 X54.552 Y87.895 E16.18967
G1 X54.949 Y87.485 E16.21458
G1 X55.508 Y86.94 E16.24866
G1 X56.097 Y86.486 E16.28113
G1 X56.721 Y86.03 E16.31486
G1 F1500 E9.81486
;MESH:Vesa_mount.stl
G0 F3600 X58.026 Y88.175
G0 X58.645 Y89.002
G0 X59.009 Y95
G0 X59.105 Y95.815
G0 X59.39 Y96.587
G0 X59.846 Y97.268
G0 X60.421 Y97.809
G0 X62.742 Y98.891
G0 X62.697 Y98.618
;TYPE:WALL-INNER
G1 F1500 E16.31486
G1 F1800 X61.879 Y98.575 E16.35062
G1 X61.072 Y98.337 E16.38735
G1 X60.337 Y97.918 E16.42429
G1 X59.74 Y97.355 E16.46011
G1 X59.269 Y96.652 E16.49705
G1 X58.972 Y95.848 E16.53446
G1 X58.873 Y94.992 E16.57208
G1 X58.973 Y94.163 E16.60853
G1 X59.25 Y93.383 E16.64466
G1 X59.715 Y92.671 E16.68179
G1 X60.327 Y92.095 E16.71848
G1 X61.061 Y91.668 E16.75555
G1 X61.872 Y91.423 E16.79253
G1 X62.697 Y91.378 E16.8286
G1 X63.53 Y91.52 E16.86549
G1 X64.317 Y91.858 E16.90288
G1 X64.995 Y92.366 E16.93986
G1 X65.529 Y92.997 E16.97594
G1 X65.91 Y93.753 E17.0129
G1 X66.103 Y94.579 E17.04993
G1 X66.104 Y95.408 E17.08612
G1 X65.913 Y96.231 E17.123
G1 X65.541 Y96.975 E17.15931
G1 X64.997 Y97.627 E17.19638
G1 X64.31 Y98.141 E17.23384
G1 X63.527 Y98.48 E17.27108
G1 X62.697 Y98.618 E17.30781
G0 F3600 X62.742 Y98.891
G0 X114.587 Y88.194
G0 X114.663 Y87.93
G1 F1800 X113.673 Y87.644 E17.3528
G1 X112.752 Y87.179 E17.39784
G1 X111.912 Y86.531 E17.44415
G1 X111.243 Y85.778 E17.48812
G1 X110.711 Y84.894 E17.53316
G1 X110.361 Y83.951 E17.57707
G1 X108.327 Y76.362 E17.92005
G1 X108.028 Y75.558 E17.9575
G1 X107.608 Y74.858 E17.99313
G1 X107.035 Y74.218 E18.03063
G1 X106.375 Y73.711 E18.06697
G1 X105.628 Y73.335 E18.10347
G1 X104.828 Y73.105 E18.13981
G1 X103.987 Y73.027 E18.17668
G1 X96.029 Y73.026 E18.52408
G1 X95.172 Y73.106 E18.56165
G1 X94.372 Y73.335 E18.59798
G1 X93.624 Y73.712 E18.63455
G1 X92.964 Y74.219 E18.67088
G1 X92.391 Y74.859 E18.70838
G1 X91.971 Y75.558 E18.74398
G1 X91.671 Y76.37 E18.78176
G1 X89.639 Y83.951 E19.12439
G1 X89.284 Y84.904 E19.16878
G1 X88.757 Y85.778 E19.21333
G1 X88.088 Y86.531 E19.25731
G1 X87.248 Y87.179 E19.30362
G1 X86.327 Y87.644 E19.34866
G1 X85.328 Y87.93 E19.39402
G1 X84.354 Y88.023 E19.43673
G1 X62.522 Y88.025 E20.38978
G1 X61.504 Y88.099 E20.43434
G1 X60.542 Y88.309 E20.47732
G1 X59.599 Y88.661 E20.52126
G1 X58.726 Y89.136 E20.56465
G1 X57.94 Y89.727 E20.60758
G1 X57.227 Y90.439 E20.65157
G1 X56.636 Y91.226 E20.69453
G1 X56.16 Y92.099 E20.73794
G1 X55.809 Y93.042 E20.78186
G1 X55.599 Y94.004 E20.82485
G1 X55.525 Y95.022 E20.8694
G1 X55.525 Y169.984 E24.14179
G1 X55.598 Y170.994 E24.18599
G1 X55.809 Y171.958 E24.22907
G1 X56.161 Y172.901 E24.27301
G1 X56.636 Y173.774 E24.3164
G1 X57.227 Y174.561 E24.35936
G1 X57.94 Y175.273 E24.40335
G1 X58.726 Y175.864 E24.44628
G1 X59.599 Y176.34 E24.48969
G1 X60.542 Y176.691 E24.53361
G1 X61.504 Y176.902 E24.5766
G1 X62.522 Y176.974 E24.62116
G1 X137.478 Y176.975 E27.89328
G1 X138.496 Y176.902 E27.93783
G1 X139.458 Y176.692 E27.98082
G1 X140.401 Y176.34 E28.02476
G1 X141.274 Y175.864 E28.06816
G1 X142.06 Y175.274 E28.11107
G1 X142.773 Y174.56 E28.15512
G1 X143.364 Y173.774 E28.19804
G1 X143.839 Y172.901 E28.24143
G1 X144.191 Y171.958 E28.28537
G1 X144.401 Y170.994 E28.32844
G1 X144.475 Y169.978 E28.37291
G1 X144.475 Y95.016 E31.6453
G1 X144.402 Y94.004 E31.68959
G1 X144.192 Y93.042 E31.73257
G1 X143.839 Y92.099 E31.77653
G1 X143.364 Y91.226 E31.81991
G1 X142.773 Y90.439 E31.86288
G1 X142.061 Y89.727 E31.90683
G1 X141.274 Y89.136 E31.9498
G1 X140.401 Y88.66 E31.9932
G1 X139.458 Y88.309 E32.03713
G1 X138.496 Y88.099 E32.08011
G1 X137.478 Y88.026 E32.12467
G1 X115.646 Y88.023 E33.07772
G1 X114.663 Y87.93 E33.12082
G0 F3600 X114.587 Y88.194
G0 X135.986 Y98.535
G0 X136.677 Y98.74
G0 X137.742 Y98.892
G0 X137.697 Y98.619
G1 F1800 X136.879 Y98.575 E33.15658
G1 X136.074 Y98.339 E33.1932
G1 X135.341 Y97.917 E33.23013
G1 X134.743 Y97.354 E33.26598
G1 X134.269 Y96.645 E33.30321
G1 X133.974 Y95.843 E33.34051
G1 X133.871 Y94.996 E33.37776
G1 X133.975 Y94.158 E33.41462
G1 X134.25 Y93.379 E33.45069
G1 X134.712 Y92.675 E33.48745
G1 X135.326 Y92.091 E33.52444
G1 X136.057 Y91.668 E33.56131
G1 X136.868 Y91.427 E33.59824
G1 X137.699 Y91.381 E33.63457
G1 X138.528 Y91.519 E33.67126
G1 X139.304 Y91.855 E33.70817
G1 X140.004 Y92.379 E33.74634
G1 X140.53 Y92.999 E33.78184
G1 X140.906 Y93.752 E33.81858
G1 X141.106 Y94.57 E33.85534
G1 X141.107 Y95.412 E33.8921
G1 X140.912 Y96.244 E33.9294
G1 X140.542 Y96.979 E33.96532
G1 X140 Y97.628 E34.00224
G1 X139.314 Y98.142 E34.03966
G1 X138.524 Y98.477 E34.07711
G1 X137.697 Y98.619 E34.11374
G0 F3600 X137.742 Y98.892
G0 X130.733 Y152.383
G0 X130.121 Y152.343
G1 F1800 X129.812 Y152.352 E34.12724
G1 X129.614 Y152.248 E34.137
G1 X107.089 Y129.721 E35.52767
G1 X106.976 Y129.439 E35.54093
G1 X106.977 Y102.446 E36.71928
G1 X107.074 Y102.192 E36.73115
G1 X107.288 Y102.019 E36.74316
G1 X107.455 Y101.976 E36.75069
G1 X130.056 Y101.977 E37.73731
G1 X130.177 Y102.005 E37.74273
G1 X130.36 Y102.117 E37.7521
G1 X130.485 Y102.296 E37.76163
G1 X130.523 Y102.445 E37.76834
G1 X130.523 Y151.881 E39.92642
G1 X130.481 Y152.037 E39.93347
G1 X130.328 Y152.236 E39.94443
G1 X130.121 Y152.343 E39.9546
G0 F3600 X130.25 Y152.656
G0 X119.883 Y163.233
G0 X119.451 Y163.023
G1 F1800 X80.619 Y163.023 E41.64977
G1 X80.373 Y162.93 E41.66125
G1 X80.23 Y162.781 E41.67027
G1 X80.159 Y162.627 E41.67767
G1 X80.132 Y162.398 E41.68774
G1 X80.252 Y162.114 E41.70119
G1 X99.674 Y142.694 E42.90017
G1 X99.832 Y142.609 E42.908
G1 X100.054 Y142.584 E42.91775
G1 X100.306 Y142.669 E42.92936
G1 X119.75 Y162.117 E44.12988
G1 X119.852 Y162.312 E44.13949
G1 X119.862 Y162.547 E44.14976
G1 X119.702 Y162.867 E44.16537
G1 X119.451 Y163.023 E44.17827
G0 F3600 X119.451 Y163.3
G0 X135.986 Y173.535
G0 X136.677 Y173.74
G0 X137.743 Y173.892
G0 X137.698 Y173.619
G1 F1800 X136.875 Y173.579 E44.21424
G1 X136.071 Y173.336 E44.25091
G1 X135.34 Y172.921 E44.2876
G1 X134.74 Y172.355 E44.32361
G1 X134.268 Y171.651 E44.36061
G1 X133.974 Y170.843 E44.39815
G1 X133.871 Y169.999 E44.43526
G1 X133.975 Y169.157 E44.4723
G1 X134.251 Y168.378 E44.50838
G1 X134.717 Y167.674 E44.54523
G1 X135.326 Y167.095 E44.58192
G1 X136.071 Y166.666 E44.61945
G1 X136.86 Y166.429 E44.65541
G1 X137.688 Y166.38 E44.69162
G1 X138.525 Y166.522 E44.72868
G1 X139.316 Y166.858 E44.76619
G1 X139.995 Y167.366 E44.80321
G1 X140.527 Y167.995 E44.83918
G1 X140.91 Y168.758 E44.87644
G1 X141.106 Y169.573 E44.91304
G1 X141.107 Y170.417 E44.94988
G1 X140.909 Y171.243 E44.98696
G1 X140.543 Y171.977 E45.02276
G1 X140.007 Y172.617 E45.05921
G1 X139.322 Y173.137 E45.09675
G1 X138.523 Y173.481 E45.13472
G1 X137.698 Y173.619 E45.17124
G0 F3600 X137.743 Y173.892
G0 X136.84 Y173.789
G0 X80.117 Y163.233
G0 X69.896 Y152.716
G0 X70.04 Y152.37
G1 F1800 X69.876 Y152.342 E45.1785
G1 X69.646 Y152.214 E45.18999
G1 X69.543 Y152.084 E45.19723
G1 X69.477 Y151.881 E45.20655
G1 X69.475 Y102.425 E47.3655
G1 X69.573 Y102.193 E47.37649
G1 X69.736 Y102.045 E47.38611
G1 X69.93 Y101.979 E47.39505
G1 X92.545 Y101.976 E48.38228
G1 X92.814 Y102.078 E48.39484
G1 X92.947 Y102.223 E48.40343
G1 X93.023 Y102.446 E48.41372
G1 X93.023 Y129.449 E49.5925
G1 X92.911 Y129.721 E49.60535
G1 X70.383 Y152.25 E50.99616
G1 X70.226 Y152.34 E51.00406
G1 X70.04 Y152.37 E51.01229
G0 F3600 X69.896 Y152.716
G0 X66.116 Y171.314
G0 X65.722 Y172.094
G0 X65.146 Y172.788
G0 X64.42 Y173.329
G0 X63.748 Y173.617
G0 X62.675 Y173.894
G0 X62.69 Y173.622
G1 F1800 X61.879 Y173.578 E51.04774
G1 X61.067 Y173.334 E51.08476
G1 X60.337 Y172.913 E51.12154
G1 X59.749 Y172.362 E51.15672
G1 X59.277 Y171.661 E51.19361
G1 X58.972 Y170.836 E51.23201
G1 X58.873 Y170.006 E51.2685
G1 X58.972 Y169.154 E51.30594
G1 X59.251 Y168.378 E51.34194
G1 X59.712 Y167.675 E51.37864
G1 X60.326 Y167.091 E51.41563
G1 X61.056 Y166.669 E51.45244
G1 X61.868 Y166.423 E51.48948
G1 X62.684 Y166.38 E51.52515
G1 X63.528 Y166.519 E51.56249
G1 X64.319 Y166.861 E51.60011
G1 X65 Y167.372 E51.63728
G1 X65.528 Y167.998 E51.67303
G1 X65.913 Y168.775 E51.71088
G1 X66.106 Y169.578 E51.74693
G1 X66.104 Y170.408 E51.78317
G1 X65.914 Y171.238 E51.82034
G1 X65.542 Y171.979 E51.85653
G1 X65 Y172.628 E51.89344
G1 X64.315 Y173.142 E51.93083
G1 X63.527 Y173.479 E51.96824
G1 X62.69 Y173.622 E52.00531
G0 F3600 X62.69 Y173.267
;TYPE:WALL-OUTER
G1 F1800 X61.929 Y173.229 E52.03857
G1 X61.218 Y173.015 E52.07098
G1 X60.547 Y172.633 E52.10469
G1 X60.013 Y172.131 E52.13668
G1 X59.574 Y171.47 E52.17132
G1 X59.314 Y170.761 E52.20429
G1 X59.227 Y169.979 E52.23864
G1 X59.322 Y169.216 E52.2722
G1 X59.56 Y168.554 E52.30291
G1 X59.972 Y167.917 E52.33603
G1 X60.555 Y167.363 E52.37114
G1 X61.215 Y166.987 E52.4043
G1 X61.929 Y166.772 E52.43685
G1 X62.691 Y166.732 E52.47016
G1 X63.418 Y166.856 E52.50235
G1 X64.131 Y167.16 E52.53619
G1 X64.748 Y167.619 E52.56976
G1 X65.239 Y168.2 E52.60297
G1 X65.58 Y168.883 E52.63629
G1 X65.754 Y169.608 E52.66884
G1 X65.756 Y170.37 E52.7021
G1 X65.573 Y171.138 E52.73657
G1 X65.235 Y171.801 E52.76906
G1 X64.77 Y172.358 E52.80073
G1 X64.154 Y172.825 E52.83448
G1 X63.407 Y173.145 E52.86995
G1 X62.69 Y173.267 E52.9017
G0 F3600 X62.515 Y173.259
G0 X62.481 Y173.884
G0 X63.59 Y173.685
G0 X64.42 Y173.329
G0 X65.146 Y172.788
G0 X100 Y142.077
G0 X100.018 Y142.932
G1 F1800 X100.109 Y142.969 E52.90599
G1 X119.48 Y162.34 E54.10188
G1 X119.518 Y162.484 E54.10838
G1 X119.451 Y162.623 E54.11511
G1 X119.344 Y162.675 E54.12031
G1 X80.62 Y162.675 E55.81076
G1 X80.526 Y162.594 E55.81618
G1 X80.481 Y162.475 E55.82173
G1 X80.52 Y162.339 E55.82791
G1 X99.909 Y142.951 E57.02488
G1 X100.018 Y142.932 E57.02971
G0 F3600 X100.109 Y142.969
G0 X100.163 Y143.023
G0 X100.605 Y142.582
G0 X129.462 Y152.485
G0 X129.928 Y152.019
G1 F1800 X129.839 Y151.98 E57.03395
G1 X107.363 Y129.503 E58.42156
G1 X107.325 Y129.412 E58.42586
G1 X107.325 Y102.482 E59.60146
G1 X107.371 Y102.38 E59.60635
G1 X107.485 Y102.325 E59.61187
G1 X130.019 Y102.325 E60.59557
G1 X130.142 Y102.396 E60.60177
G1 X130.175 Y102.481 E60.60575
G1 X130.175 Y151.88 E62.76221
G1 X130.095 Y151.973 E62.76757
G1 X129.928 Y152.019 E62.77513
G0 F3600 X129.839 Y151.98
G0 X129.784 Y151.925
G0 X129.343 Y152.366
G0 X133.762 Y170.898
G0 X134.076 Y171.748
G0 X134.578 Y172.495
G0 X135.212 Y173.092
G0 X135.986 Y173.535
G0 X136.677 Y173.74
G0 X137.638 Y173.893
G0 X137.673 Y173.27
G1 F1800 X136.916 Y173.225 E62.80823
G1 X136.229 Y173.019 E62.83954
G1 X135.566 Y172.646 E62.87275
G1 X134.999 Y172.113 E62.90672
G1 X134.574 Y171.47 E62.94037
G1 X134.315 Y170.763 E62.97324
G1 X134.227 Y169.979 E63.00768
G1 X134.316 Y169.237 E63.0403
G1 X134.569 Y168.533 E63.07296
G1 X134.991 Y167.892 E63.10646
G1 X135.529 Y167.381 E63.13885
G1 X136.189 Y166.996 E63.1722
G1 X136.943 Y166.77 E63.20657
G1 X137.691 Y166.732 E63.23926
G1 X138.427 Y166.858 E63.27186
G1 X139.157 Y167.176 E63.30662
G1 X139.766 Y167.637 E63.33996
G1 X140.244 Y168.21 E63.37254
G1 X140.584 Y168.896 E63.40596
G1 X140.752 Y169.597 E63.43743
G1 X140.758 Y170.35 E63.4703
G1 X140.581 Y171.121 E63.50483
G1 X140.241 Y171.794 E63.53775
G1 X139.77 Y172.358 E63.56982
G1 X139.133 Y172.838 E63.60464
G1 X138.426 Y173.141 E63.63822
G1 X137.673 Y173.27 E63.67157
G0 F3600 X137.499 Y173.26
G0 X137.464 Y173.884
G0 X135.986 Y173.535
G0 X135.212 Y173.092
G0 X134.578 Y172.495
G0 X134.076 Y171.748
G0 X133.762 Y170.898
G0 X133.677 Y170.17
G0 X137.638 Y98.893
G0 X137.673 Y98.27
G1 F1800 X136.937 Y98.23 E63.70375
G1 X136.211 Y98.013 E63.73683
G1 X135.549 Y97.635 E63.7701
G1 X134.999 Y97.113 E63.80321
G1 X134.582 Y96.488 E63.83601
G1 X134.315 Y95.763 E63.86973
G1 X134.227 Y94.976 E63.9043
G1 X134.316 Y94.237 E63.9368
G1 X134.56 Y93.554 E63.96846
G1 X134.972 Y92.917 E64.00157
G1 X135.555 Y92.363 E64.03668
G1 X136.216 Y91.986 E64.0699
G1 X136.928 Y91.772 E64.10236
G1 X137.674 Y91.73 E64.13497
G1 X138.44 Y91.862 E64.1689
G1 X139.136 Y92.163 E64.20201
G1 X139.766 Y92.637 E64.23642
G1 X140.228 Y93.183 E64.26765
G1 X140.578 Y93.875 E64.3015
