;Generated with ArcOne Post-Processing Script
;POSTPROCESSED
;  [ArcOne]
;Exported with Cura-DuetRRF v1.2.10 plugin by Thomas Kriechbaumer
;top metadata start
;Git Commit Hash (Version): 4d605b3b45e23c8ae3e3c68ac0a89d25e468bda9
;FLAVOR:Marlin
;TIME:2185
;Filament used: 1.2074m
;Layer height: 0.1
;MINX:73.025
;MINY:98.025
;MINZ:0.3
;MAXX:126.975
;MAXY:151.975
;MAXZ:7.7

;Arc One Settings
;weld_gap = 8.0
;sleep_time = 30.0
;rotate_amount = 6
;overwrite_movement_rate = False
;movement_rate = 1035.0
;use_temperature_sensor = False
;wait_for_temp = 275.0
;pause_after_layer = False
;return_home = False
;change_initial_Z = False
;change_G0toG1 = False
;TARGET_MACHINE.NAME:Unknown
;Generated with Cura_SteamEngine 5.7.2 + Arc One
M568 P7 S275.0
;top metadata end
;startup script start
M140 S60
M105
M190 S60
M104 S200
M105
M109 S200
M82 ;absolute extrusion mode
G28 ;Home
G92 E0
G92 E0
G1 F1000
;LAYER_COUNT:75
;startup script end

;gcode movements start
;LAYER:0
M107

;Initial Z Offset Changed by change_initial_z.py
G1 F1000 Z100

G1 F1000 X82.792 Y104.23 
;TYPE:SKIRT
G4 P0
M42 P1 S1 ;Enable Welder
M291 P"Weld On L0 B1"
G1 F1000 
G1 F1000 X83.728 Y103.49 
G1 X84.675 Y102.804 
G1 X85.673 Y102.146 
G1 X86.668 Y101.56 
G1 X87.713 Y100.993 
G1 X88.768 Y100.474 
G1 X89.807 Y100.022 
G1 X90.924 Y99.594 
G1 X92.081 Y99.216 
G1 X93.189 Y98.901 
G1 X94.314 Y98.635 
G1 X95.451 Y98.413 
G1 X96.694 Y98.233 
G1 X97.823 Y98.12 
G1 X99.025 Y98.043 
G1 X100.223 Y98.025 
G1 X101.351 Y98.065 
G1 X102.533 Y98.143 
G1 X103.548 Y98.256 
G1 X104.849 Y98.469 
G1 X106.03 Y98.703 
G1 X107.046 Y98.957 
G1 X108.267 Y99.321 
G1 X109.295 Y99.677 
G1 X110.494 Y100.154 
G1 X111.549 Y100.625 
G1 X112.61 Y101.154 
G1 X113.598 Y101.699 
G1 X114.643 Y102.347 
G1 X115.612 Y103.007 
G1 X116.57 Y103.712 
G1 X117.429 Y104.409 
G1 X118.349 Y105.229 
G1 X119.202 Y106.053 
G1 X119.948 Y106.84 
G1 X120.744 Y107.759 
G1 X121.501 Y108.716 
G1 X122.203 Y109.686 
G1 X122.853 Y110.673 
G1 X123.439 Y111.667 
G1 X124.007 Y112.712 
G1 X124.526 Y113.767 
G1 X124.972 Y114.793 
G1 X125.411 Y115.939 
G1 X125.784 Y117.081 
G1 X126.099 Y118.189 
G1 X126.365 Y119.314 
G1 X126.587 Y120.451 
G1 X126.767 Y121.692 
G1 X126.88 Y122.823 
G1 X126.957 Y124.025 
G1 X126.975 Y125.223 
G1 X126.935 Y126.351 
G1 X126.857 Y127.533 
G1 X126.738 Y128.584 
G1 X126.531 Y129.847 
G1 X126.294 Y131.032 
G1 X126.031 Y132.08 
G1 X125.669 Y133.286 
G1 X125.283 Y134.401 
G1 X124.87 Y135.452 
G1 X124.393 Y136.519 
G1 X123.845 Y137.616 
G1 X123.316 Y138.572 
G1 X122.643 Y139.658 
G1 X121.993 Y140.612 
G1 X121.288 Y141.57 
G1 X120.591 Y142.429 
G1 X119.771 Y143.349 
G1 X118.947 Y144.202 
G1 X118.196 Y144.915 
G1 X117.208 Y145.77 
G1 X116.272 Y146.51 
G1 X115.325 Y147.196 
G1 X114.327 Y147.854 
G1 X113.332 Y148.44 
G1 X112.287 Y149.007 
G1 X111.232 Y149.526 
G1 X110.193 Y149.978 
G1 X109.076 Y150.406 
G1 X107.919 Y150.784 
G1 X106.811 Y151.099 
G1 X105.686 Y151.365 
G1 X104.549 Y151.587 
G1 X103.306 Y151.767 
G1 X102.177 Y151.88 
G1 X100.975 Y151.957 
G1 X99.777 Y151.975 
G1 X98.649 Y151.935 
G1 X97.467 Y151.857 
G1 X96.452 Y151.744 
G1 X95.151 Y151.531 
G1 X93.97 Y151.297 
G1 X92.954 Y151.043 
G1 X91.733 Y150.679 
G1 X90.705 Y150.323 
G1 X89.505 Y149.846 
G1 X88.423 Y149.363 
G1 X87.429 Y148.87 
G1 X86.417 Y148.31 
G1 X85.355 Y147.651 
G1 X84.387 Y146.992 
G1 X83.429 Y146.286 
G1 X82.557 Y145.577 
G1 X81.627 Y144.747 
G1 X80.794 Y143.934 
G1 X80.048 Y143.15 
G1 X79.212 Y142.186 
G1 X78.493 Y141.279 
G1 X77.816 Y140.35 
G1 X77.188 Y139.402 
G1 X76.574 Y138.373 
G1 X75.993 Y137.287 
G1 X75.474 Y136.232 
G1 X75.022 Y135.193 
G1 X74.594 Y134.076 
G1 X74.216 Y132.919 
G1 X73.901 Y131.811 
G1 X73.635 Y130.686 
G1 X73.413 Y129.549 
G1 X73.233 Y128.306 
G1 X73.12 Y127.177 
G1 X73.043 Y125.975 
G1 X73.025 Y124.777 
G1 X73.065 Y123.649 
G1 X73.143 Y122.467 
G1 X73.262 Y121.416 
G1 X73.469 Y120.153 
G1 X73.706 Y118.968 
G1 X73.969 Y117.92 
G1 X74.331 Y116.714 
G1 X74.717 Y115.599 
G1 X75.13 Y114.548 
G1 X75.607 Y113.481 
G1 X76.155 Y112.384 
G1 X76.684 Y111.428 
G1 X77.357 Y110.342 
G1 X78.007 Y109.388 
G1 X78.712 Y108.43 
G1 X79.409 Y107.571 
G1 X80.229 Y106.651 
G1 X81.053 Y105.798 
G1 X81.804 Y105.085 
G1 X82.792 Y104.23 
M42 P1 S0 ;Disable Welder
G4 P0
M291 P"Weld Off L0 B1"
G1 F1000 X83.021 Y104.495
G4 P0
M42 P1 S1 ;Enable Welder
M291 P"Weld On L0 B2"
G1 F1000 X83.933 Y103.773 
G1 X84.867 Y103.096 
G1 X85.851 Y102.448 
G1 X86.835 Y101.868 
G1 X87.867 Y101.307 
G1 X88.908 Y100.795 
G1 X89.932 Y100.349 
G1 X91.033 Y99.927 
G1 X92.177 Y99.553 
G1 X93.27 Y99.242 
G1 X94.381 Y98.979 
G1 X95.518 Y98.757 
G1 X96.729 Y98.581 
G1 X97.845 Y98.469 
G1 X99.03 Y98.393 
G1 X100.211 Y98.375 
G1 X101.328 Y98.414 
G1 X102.494 Y98.491 
G1 X103.509 Y98.604 
G1 X104.781 Y98.812 
G1 X105.945 Y99.043 
G1 X106.961 Y99.297 
G1 X108.152 Y99.652 
G1 X109.18 Y100.008 
G1 X110.351 Y100.474 
G1 X111.406 Y100.945 
G1 X112.441 Y101.46 
G1 X113.414 Y101.997 
G1 X114.446 Y102.636 
G1 X115.405 Y103.289 
G1 X116.35 Y103.984 
G1 X117.196 Y104.67 
G1 X118.106 Y105.481 
G1 X118.948 Y106.294 
G1 X119.683 Y107.069 
G1 X120.469 Y107.976 
G1 X121.226 Y108.933 
G1 X121.911 Y109.878 
G1 X122.551 Y110.851 
G1 X123.137 Y111.845 
G1 X123.693 Y112.866 
G1 X124.205 Y113.907 
G1 X124.645 Y114.918 
G1 X125.078 Y116.048 
G1 X125.447 Y117.177 
G1 X125.758 Y118.27 
G1 X126.021 Y119.381 
G1 X126.243 Y120.518 
G1 X126.419 Y121.727 
G1 X126.531 Y122.845 
G1 X126.607 Y124.03 
G1 X126.625 Y125.211 
G1 X126.586 Y126.328 
G1 X126.509 Y127.494 
G1 X126.393 Y128.527 
G1 X126.188 Y129.779 
G1 X125.955 Y130.947 
G1 X125.696 Y131.979 
G1 X125.338 Y133.172 
G1 X124.957 Y134.273 
G1 X124.55 Y135.309 
G1 X124.073 Y136.376 
G1 X123.539 Y137.447 
G1 X123.019 Y138.388 
G1 X122.354 Y139.461 
G1 X121.711 Y140.405 
G1 X121.016 Y141.35 
G1 X120.33 Y142.196 
G1 X119.519 Y143.106 
G1 X118.706 Y143.948 
G1 X117.967 Y144.65 
G1 X116.979 Y145.505 
G1 X116.067 Y146.227 
G1 X115.133 Y146.904 
G1 X114.149 Y147.552 
G1 X113.165 Y148.132 
G1 X112.133 Y148.693 
G1 X111.092 Y149.205 
G1 X110.068 Y149.651 
G1 X108.967 Y150.073 
G1 X107.823 Y150.447 
G1 X106.73 Y150.758 
G1 X105.619 Y151.021 
G1 X104.482 Y151.243 
G1 X103.271 Y151.419 
G1 X102.155 Y151.531 
G1 X100.97 Y151.607 
G1 X99.789 Y151.625 
G1 X98.672 Y151.586 
G1 X97.506 Y151.509 
G1 X96.491 Y151.396 
G1 X95.219 Y151.188 
G1 X94.055 Y150.957 
G1 X93.039 Y150.703 
G1 X91.848 Y150.348 
G1 X90.82 Y149.992 
G1 X89.648 Y149.526 
G1 X88.579 Y149.049 
G1 X87.585 Y148.556 
G1 X86.601 Y148.012 
G1 X85.552 Y147.362 
G1 X84.595 Y146.71 
G1 X83.65 Y146.014 
G1 X82.79 Y145.316 
G1 X81.871 Y144.496 
G1 X81.048 Y143.693 
G1 X80.302 Y142.909 
G1 X79.486 Y141.968 
G1 X78.776 Y141.073 
G1 X78.108 Y140.157 
G1 X77.489 Y139.223 
G1 X76.883 Y138.208 
G1 X76.307 Y137.133 
G1 X75.795 Y136.092 
G1 X75.349 Y135.068 
G1 X74.927 Y133.967 
G1 X74.553 Y132.823 
G1 X74.242 Y131.73 
G1 X73.979 Y130.619 
G1 X73.757 Y129.482 
G1 X73.581 Y128.271 
G1 X73.469 Y127.155 
G1 X73.393 Y125.97 
G1 X73.375 Y124.789 
G1 X73.414 Y123.672 
G1 X73.491 Y122.506 
G1 X73.607 Y121.473 
G1 X73.812 Y120.221 
G1 X74.045 Y119.053 
G1 X74.304 Y118.021 
G1 X74.662 Y116.828 
G1 X75.043 Y115.727 
G1 X75.45 Y114.691 
G1 X75.927 Y113.624 
G1 X76.461 Y112.553 
G1 X76.981 Y111.612 
G1 X77.646 Y110.539 
G1 X78.289 Y109.595 
G1 X78.984 Y108.65 
G1 X79.67 Y107.804 
G1 X80.481 Y106.894 
G1 X81.294 Y106.052 
G1 X82.033 Y105.35 
G1 X83.021 Y104.495 
M42 P1 S0 ;Disable Welder
G4 P0
M291 P"Weld Off L0 B2"
G1 F1000 X83.25 Y104.76
G4 P0
M42 P1 S1 ;Enable Welder
M291 P"Weld On L0 B3"
G1 F1000 X84.138 Y104.056 
G1 X85.059 Y103.388 
G1 X86.029 Y102.75 
G1 X87.013 Y102.17 
G1 X88.021 Y101.621 
G1 X89.048 Y101.116 
G1 X90.057 Y100.676 
G1 X91.142 Y100.26 
G1 X92.273 Y99.89 
G1 X93.351 Y99.583 
G1 X94.448 Y99.323 
G1 X95.585 Y99.101 
G1 X96.764 Y98.929 
G1 X97.867 Y98.818 
G1 X99.035 Y98.743 
G1 X100.199 Y98.725 
G1 X101.305 Y98.763 
G1 X102.455 Y98.839 
G1 X103.47 Y98.952 
G1 X104.713 Y99.155 
G1 X105.86 Y99.383 
G1 X106.876 Y99.637 
G1 X108.037 Y99.983 
G1 X109.065 Y100.339 
G1 X110.208 Y100.794 
G1 X111.263 Y101.265 
G1 X112.272 Y101.767 
G1 X113.23 Y102.295 
G1 X114.249 Y102.925 
G1 X115.198 Y103.571 
G1 X116.13 Y104.256 
G1 X116.963 Y104.931 
G1 X117.863 Y105.733 
G1 X118.694 Y106.535 
G1 X119.418 Y107.298 
G1 X120.204 Y108.205 
G1 X120.943 Y109.138 
G1 X121.619 Y110.07 
G1 X122.25 Y111.029 
G1 X122.83 Y112.012 
G1 X123.379 Y113.02 
G1 X123.884 Y114.047 
G1 X124.318 Y115.043 
G1 X124.745 Y116.157 
G1 X125.11 Y117.273 
G1 X125.417 Y118.351 
G1 X125.677 Y119.448 
G1 X125.899 Y120.585 
G1 X126.071 Y121.762 
G1 X126.182 Y122.867 
G1 X126.257 Y124.035 
G1 X126.275 Y125.199 
G1 X126.237 Y126.305 
G1 X126.161 Y127.455 
G1 X126.048 Y128.47 
G1 X125.845 Y129.711 
G1 X125.616 Y130.862 
G1 X125.361 Y131.878 
G1 X125.007 Y133.058 
G1 X124.631 Y134.145 
G1 X124.23 Y135.166 
G1 X123.753 Y136.233 
G1 X123.233 Y137.278 
G1 X122.722 Y138.204 
G1 X122.065 Y139.264 
G1 X121.429 Y140.198 
G1 X120.744 Y141.13 
G1 X120.069 Y141.963 
G1 X119.267 Y142.863 
G1 X118.465 Y143.694 
G1 X117.738 Y144.385 
G1 X116.75 Y145.24 
G1 X115.862 Y145.944 
G1 X114.941 Y146.612 
G1 X113.971 Y147.25 
G1 X112.987 Y147.83 
G1 X111.979 Y148.379 
G1 X110.952 Y148.884 
G1 X109.943 Y149.324 
G1 X108.858 Y149.74 
G1 X107.727 Y150.11 
G1 X106.649 Y150.417 
G1 X105.552 Y150.677 
G1 X104.415 Y150.899 
G1 X103.236 Y151.071 
G1 X102.133 Y151.182 
G1 X100.965 Y151.257 
G1 X99.801 Y151.275 
G1 X98.695 Y151.237 
G1 X97.545 Y151.161 
G1 X96.53 Y151.048 
G1 X95.287 Y150.845 
G1 X94.14 Y150.617 
G1 X93.124 Y150.363 
G1 X91.963 Y150.017 
G1 X90.935 Y149.661 
G1 X89.791 Y149.206 
G1 X88.735 Y148.735 
G1 X87.741 Y148.242 
G1 X86.785 Y147.714 
G1 X85.749 Y147.073 
G1 X84.802 Y146.428 
G1 X83.87 Y145.742 
G1 X83.023 Y145.055 
G1 X82.115 Y144.245 
G1 X81.302 Y143.452 
G1 X80.556 Y142.668 
G1 X79.76 Y141.751 
G1 X79.059 Y140.867 
G1 X78.4 Y139.964 
G1 X77.79 Y139.044 
G1 X77.184 Y138.029 
G1 X76.621 Y136.979 
G1 X76.116 Y135.952 
G1 X75.676 Y134.943 
G1 X75.26 Y133.858 
G1 X74.89 Y132.727 
G1 X74.583 Y131.649 
G1 X74.323 Y130.552 
G1 X74.101 Y129.415 
G1 X73.929 Y128.236 
G1 X73.818 Y127.133 
G1 X73.743 Y125.965 
G1 X73.725 Y124.801 
G1 X73.763 Y123.695 
G1 X73.839 Y122.545 
G1 X73.952 Y121.53 
G1 X74.155 Y120.289 
G1 X74.384 Y119.138 
G1 X74.639 Y118.122 
G1 X74.993 Y116.942 
G1 X75.369 Y115.855 
G1 X75.77 Y114.834 
G1 X76.247 Y113.767 
G1 X76.767 Y112.722 
G1 X77.278 Y111.796 
G1 X77.935 Y110.736 
G1 X78.571 Y109.802 
G1 X79.256 Y108.87 
G1 X79.931 Y108.037 
G1 X80.733 Y107.137 
G1 X81.535 Y106.306 
G1 X82.262 Y105.615 
G1 X83.25 Y104.76 
M42 P1 S0 ;Disable Welder
G4 P0
M291 P"Weld Off L0 B3"
G1 F1000 X83.468 Y105.034
G4 P0
M42 P1 S1 ;Enable Welder
M291 P"Weld On L0 B4"
G1 F1000 X84.344 Y104.339 
G1 X85.251 Y103.68 
G1 X86.207 Y103.051 
G1 X87.18 Y102.477 
G1 X88.175 Y101.935 
G1 X89.188 Y101.437 
G1 X90.182 Y101.003 
G1 X91.251 Y100.593 
G1 X92.369 Y100.227 
G1 X93.432 Y99.924 
G1 X94.515 Y99.667 
G1 X95.652 Y99.445 
G1 X96.799 Y99.277 
G1 X97.889 Y99.167 
G1 X99.04 Y99.093 
G1 X100.187 Y99.075 
G1 X101.282 Y99.112 
G1 X102.416 Y99.187 
G1 X103.431 Y99.3 
G1 X104.645 Y99.498 
G1 X105.775 Y99.723 
G1 X106.791 Y99.977 
G1 X107.922 Y100.314 
G1 X108.95 Y100.67 
G1 X110.066 Y101.114 
G1 X111.107 Y101.578 
G1 X112.103 Y102.073 
G1 X113.046 Y102.593 
G1 X114.052 Y103.214 
G1 X114.991 Y103.853 
G1 X115.91 Y104.528 
G1 X116.73 Y105.192 
G1 X117.62 Y105.985 
G1 X118.44 Y106.776 
G1 X119.153 Y107.527 
G1 X119.939 Y108.434 
G1 X120.66 Y109.344 
G1 X121.327 Y110.262 
G1 X121.949 Y111.207 
G1 X122.523 Y112.179 
G1 X123.065 Y113.174 
G1 X123.563 Y114.187 
G1 X123.991 Y115.168 
G1 X124.412 Y116.266 
G1 X124.773 Y117.369 
G1 X125.076 Y118.432 
G1 X125.333 Y119.515 
G1 X125.555 Y120.652 
G1 X125.723 Y121.797 
G1 X125.833 Y122.889 
G1 X125.907 Y124.04 
G1 X125.925 Y125.187 
G1 X125.888 Y126.282 
G1 X125.813 Y127.416 
G1 X125.7 Y128.431 
G1 X125.502 Y129.643 
G1 X125.277 Y130.777 
G1 X125.026 Y131.777 
G1 X124.676 Y132.944 
G1 X124.305 Y134.017 
G1 X123.91 Y135.023 
G1 X123.433 Y136.09 
G1 X122.927 Y137.109 
G1 X122.424 Y138.02 
G1 X121.776 Y139.067 
G1 X121.147 Y139.991 
G1 X120.472 Y140.91 
G1 X119.808 Y141.73 
G1 X119.015 Y142.62 
G1 X118.224 Y143.44 
G1 X117.509 Y144.12 
G1 X116.532 Y144.966 
G1 X115.656 Y145.661 
G1 X114.749 Y146.32 
G1 X113.793 Y146.949 
G1 X112.82 Y147.523 
G1 X111.825 Y148.065 
G1 X110.812 Y148.563 
G1 X109.818 Y148.997 
G1 X108.749 Y149.407 
G1 X107.631 Y149.773 
G1 X106.568 Y150.076 
G1 X105.485 Y150.333 
G1 X104.348 Y150.555 
G1 X103.201 Y150.723 
G1 X102.111 Y150.833 
G1 X100.96 Y150.907 
G1 X99.813 Y150.925 
G1 X98.718 Y150.888 
G1 X97.584 Y150.813 
G1 X96.569 Y150.7 
G1 X95.355 Y150.502 
G1 X94.225 Y150.277 
G1 X93.209 Y150.023 
G1 X92.078 Y149.686 
G1 X91.05 Y149.33 
G1 X89.934 Y148.886 
G1 X88.891 Y148.421 
G1 X87.897 Y147.928 
G1 X86.969 Y147.416 
G1 X85.946 Y146.784 
G1 X85.009 Y146.146 
G1 X84.09 Y145.47 
G1 X83.256 Y144.794 
G1 X82.359 Y143.994 
G1 X81.556 Y143.211 
G1 X80.81 Y142.427 
G1 X80.034 Y141.533 
G1 X79.342 Y140.661 
G1 X78.692 Y139.771 
G1 X78.091 Y138.865 
G1 X77.485 Y137.85 
G1 X76.935 Y136.825 
G1 X76.437 Y135.812 
G1 X76.003 Y134.818 
G1 X75.593 Y133.749 
G1 X75.227 Y132.631 
G1 X74.924 Y131.568 
G1 X74.667 Y130.485 
G1 X74.445 Y129.348 
G1 X74.277 Y128.201 
G1 X74.167 Y127.111 
G1 X74.093 Y125.96 
G1 X74.075 Y124.813 
G1 X74.112 Y123.718 
G1 X74.187 Y122.584 
G1 X74.3 Y121.569 
G1 X74.498 Y120.357 
G1 X74.723 Y119.223 
G1 X74.974 Y118.223 
G1 X75.324 Y117.056 
G1 X75.695 Y115.983 
G1 X76.09 Y114.977 
G1 X76.567 Y113.91 
G1 X77.073 Y112.891 
G1 X77.576 Y111.98 
G1 X78.224 Y110.933 
G1 X78.853 Y110.009 
G1 X79.528 Y109.09 
G1 X80.192 Y108.27 
G1 X80.985 Y107.38 
G1 X81.776 Y106.56 
G1 X82.491 Y105.88 
G1 X83.468 Y105.034 
M42 P1 S0 ;Disable Welder
G4 P0
M291 P"Weld Off L0 B4"
G1 F1000 X83.685 Y105.308
G4 P0
M42 P1 S1 ;Enable Welder
M291 P"Weld On L0 B5"
G1 F1000 X84.55 Y104.622 
G1 X85.444 Y103.972 
G1 X86.385 Y103.352 
G1 X87.347 Y102.784 
G1 X88.33 Y102.249 
G1 X89.328 Y101.758 
G1 X90.307 Y101.33 
G1 X91.36 Y100.926 
G1 X92.465 Y100.564 
G1 X93.513 Y100.265 
G1 X94.582 Y100.011 
G1 X95.719 Y99.789 
G1 X96.834 Y99.625 
G1 X97.911 Y99.516 
G1 X99.046 Y99.443 
G1 X100.175 Y99.425 
G1 X101.259 Y99.461 
G1 X102.377 Y99.535 
G1 X103.392 Y99.648 
G1 X104.577 Y99.841 
G1 X105.69 Y100.063 
G1 X106.706 Y100.317 
G1 X107.807 Y100.645 
G1 X108.835 Y101.001 
G1 X109.924 Y101.434 
G1 X110.951 Y101.891 
G1 X111.934 Y102.379 
G1 X112.862 Y102.891 
G1 X113.855 Y103.503 
G1 X114.784 Y104.135 
G1 X115.69 Y104.8 
G1 X116.497 Y105.453 
G1 X117.377 Y106.237 
G1 X118.186 Y107.017 
G1 X118.888 Y107.756 
G1 X119.674 Y108.663 
G1 X120.377 Y109.55 
G1 X121.035 Y110.455 
G1 X121.648 Y111.385 
G1 X122.216 Y112.346 
G1 X122.751 Y113.329 
G1 X123.242 Y114.327 
G1 X123.664 Y115.293 
G1 X124.079 Y116.375 
G1 X124.436 Y117.465 
G1 X124.735 Y118.513 
G1 X124.989 Y119.582 
G1 X125.211 Y120.719 
G1 X125.375 Y121.832 
G1 X125.484 Y122.911 
G1 X125.557 Y124.046 
G1 X125.575 Y125.175 
G1 X125.539 Y126.259 
G1 X125.465 Y127.377 
G1 X125.352 Y128.392 
G1 X125.159 Y129.575 
G1 X124.937 Y130.692 
G1 X124.691 Y131.676 
G1 X124.345 Y132.83 
G1 X123.979 Y133.889 
G1 X123.584 Y134.895 
G1 X123.119 Y135.934 
G1 X122.62 Y136.94 
G1 X122.126 Y137.836 
G1 X121.487 Y138.87 
G1 X120.865 Y139.784 
G1 X120.2 Y140.69 
G1 X119.547 Y141.497 
G1 X118.763 Y142.377 
G1 X117.983 Y143.186 
G1 X117.268 Y143.866 
G1 X116.315 Y144.692 
G1 X115.45 Y145.378 
G1 X114.556 Y146.028 
G1 X113.615 Y146.648 
G1 X112.653 Y147.216 
G1 X111.67 Y147.751 
G1 X110.672 Y148.242 
G1 X109.693 Y148.67 
G1 X108.64 Y149.074 
G1 X107.535 Y149.436 
G1 X106.487 Y149.735 
G1 X105.418 Y149.989 
G1 X104.281 Y150.211 
G1 X103.166 Y150.375 
G1 X102.089 Y150.484 
G1 X100.954 Y150.557 
G1 X99.825 Y150.575 
G1 X98.741 Y150.539 
G1 X97.623 Y150.465 
G1 X96.608 Y150.352 
G1 X95.423 Y150.159 
G1 X94.31 Y149.937 
G1 X93.294 Y149.683 
G1 X92.193 Y149.355 
G1 X91.165 Y148.999 
G1 X90.076 Y148.566 
G1 X89.047 Y148.108 
