;Generated with ArcOne Post-Processing Script
;POSTPROCESSED
;  [ArcOne]
;Exported with Cura-DuetRRF v1.2.9 plugin by Thomas Kriechbaumer
;top metadata start
;Git Commit Hash (Version): ac6e6f79e80bedeb96f95e1678761ac318202365
;FLAVOR:RepRap
;TIME:345
;Filament used: 2.87989m
;Layer height: 1.55
;MINX:118.912
;MINY:314.846
;MINZ:1.55
;MAXX:190.67
;MAXY:337.952
;MAXZ:18.6

;Arc One Settings
;weld_gap = 8.0
;sleep_time = 30.0
;rotate_amount = 6
;overwrite_movement_rate = False
;movement_rate = 281.0
;use_temperature_sensor = True
;wait_for_temp = 275.0
;pause_after_layer = True
;return_home = True
;TARGET_MACHINE.NAME:Unknown
;Generated with Cura_SteamEngine 5.7.2 + Arc One
M568 P7 S275.0
;top metadata end
;startup script start
T0
M104 S200
M109 S200
M82 ;absolute extrusion mode
G28 ;Home
M83 ;relative extrusion mode
G1 F1500
;LAYER_COUNT:12
;startup script end

;gcode movements start
;LAYER:0
M107
G1 F600 Z9.0
;MESH:Hose Clamp.stl

;Initial Z Offset
G1 F9000 Z100

G1 F7200 X190.002 Y336.866 
;TYPE:WALL-OUTER
G1 F600 Z8.0
G4 P0
M42 P1 S1 ;Enable Welder
M291 P"Weld On L0 B1"
G1 F1500 
G1 F315 X176.117 Y336.868 
G1 F313.3 X175.335 Y336.827 
G1 F306.4 X174.554 Y336.703 
G1 F293.6 X173.772 Y336.496 
G1 F276.3 X172.991 Y336.207 
G1 F256.2 X172.21 Y335.834 
G1 F252.3 X171.976 Y334.914 
G1 F262.9 X171.84 Y333.994 
G1 F268.2 X171.802 Y333.18 
G1 F269 X171.813 Y332.214 
G1 F268.5 X171.786 Y331.469 
G1 F268.5 X171.742 Y330.744 
G1 F268.6 X171.659 Y330.063 
G1 X171.542 Y329.275 
G1 X171.415 Y328.667 
G1 F268.5 X171.247 Y327.967 
G1 F268.5 X171.058 Y327.303 
G1 F268.4 X170.836 Y326.632 
G1 F268.4 X170.6 Y325.992 
G1 F268.7 X170.07 Y324.799 
G1 F268.4 X169.723 Y324.141 
G1 F268.4 X169.307 Y323.406 
G1 F268.5 X168.62 Y322.385 
G1 X168.208 Y321.828 
G1 F268.5 X167.778 Y321.303 
G1 F268.6 X167.319 Y320.776 
G1 F268.5 X166.842 Y320.285 
G1 F268.4 X166.392 Y319.845 
G1 F268.5 X165.865 Y319.379 
G1 F268.5 X165.136 Y318.777 
G1 F268.6 X164.177 Y318.106 
G1 F268.6 X163.639 Y317.76 
G1 X163.001 Y317.398 
G1 F268.7 X162.47 Y317.11 
G1 F268.6 X161.76 Y316.778 
G1 F268.4 X161.001 Y316.447 
G1 F268.6 X159.618 Y315.973 
G1 F268.5 X158.542 Y315.704 
G1 F268.6 X157.817 Y315.547 
G1 F268.5 X157.169 Y315.45 
G1 F268.5 X156.532 Y315.367 
G1 F268.5 X155.642 Y315.306 
G1 F268.6 X154.788 Y315.277 
G1 F268.6 X153.933 Y315.306 
G1 F268.5 X153.11 Y315.361 
G1 F268.6 X151.848 Y315.532 
G1 F268.4 X151.04 Y315.702 
G1 F268.6 X150.052 Y315.95 
G1 F268.7 X148.836 Y316.351 
G1 F268.5 X148.104 Y316.654 
G1 F268.6 X147.158 Y317.084 
G1 F268.7 X146.021 Y317.708 
G1 F268.5 X145.363 Y318.133 
G1 F268.7 X144.523 Y318.722 
G1 F268.6 X143.7 Y319.391 
G1 F268.7 X143.321 Y319.724 
G1 X142.947 Y320.078 
G1 F268.6 X142.231 Y320.807 
G1 F268.6 X141.537 Y321.626 
G1 F268.5 X141.073 Y322.217 
G1 F268.7 X140.341 Y323.3 
G1 F268.6 X139.813 Y324.223 
G1 F268.5 X139.506 Y324.804 
G1 F268.4 X139.199 Y325.479 
G1 F268.5 X138.882 Y326.238 
G1 F268.7 X138.473 Y327.447 
G1 F268.5 X138.294 Y328.116 
G1 F268.5 X138.072 Y329.063 
G1 F268.6 X137.905 Y330.179 
G1 F268.6 X137.826 Y330.89 
G1 F268.6 X137.784 Y331.654 
G1 F268.6 X137.765 Y332.21 
G1 F269.2 X137.778 Y333.18 
G1 F268.6 X137.746 Y333.93 
G1 F263.4 X137.606 Y334.904 
G1 F252.6 X137.369 Y335.837 
G1 F256.3 X136.588 Y336.209 
G1 F276.4 X135.808 Y336.497 
G1 F293.7 X135.027 Y336.704 
G1 F307.4 X134.176 Y336.838 
G1 F314.2 X133.467 Y336.868 
G1 F315 X119.574 Y336.866 
G1 F1500 
M42 P1 S0 ;Disable Welder
G4 P0
M291 P"Weld Off L0 B1"
G1 F600 Z9.0
;MESH:NONMESH
G1 F7200 X137.317 Y333.176 Z9.0
;TIME_ELAPSED:27.257256
;LAYER:1
G91
G1 F1000
G1 Z40
G1 X90 Y74
M226
G4 P0
M291 P"Interpass Start"
M98 P"/macros/WaitForInterpassTemp.g"
G4 P0
G4 P500
M291 P"Interpass End"
G1 X-90 Y-74
G1 Z-40
G90
;MESH:Hose Clamp.stl
G1 X137.317 Y333.176 Z10.55
;TYPE:WALL-OUTER
G1 F600 Z9.55
G4 P0
M42 P1 S1 ;Enable Welder
M291 P"Weld On L1 B1"
G1 F1500 
G1 F263 X136.473 Y333.64 
G1 F313.7 X135.597 Y333.866 
G1 F390.8 X134.748 Y333.85 
G1 F415.5 X134.735 Y334.461 
G1 F365.9 X134.526 Y335.118 
G1 F328.1 X134.099 Y335.766 
G1 F298.1 X133.454 Y336.341 
G1 F283.2 X133.33 Y336.423 
G1 X133.468 Y336.481 
G1 F298.1 X134.321 Y336.835 
G1 F328.1 X135.173 Y337.195 
G1 F365.9 X136.026 Y337.567 
G1 F415.5 X136.879 Y337.952 
G1 F446.2 X139.484 Y337.952 
G1 X139.484 Y335.347 
G1 F416.7 X139.115 Y334.983 
G1 F368 X138.746 Y334.619 
G1 F329.8 X138.384 Y334.255 
G1 F299.1 X138.022 Y333.891 
G1 F273.9 X137.67 Y333.534 
G1 F252.9 X137.317 Y333.176 
G1 F1500 
M42 P1 S0 ;Disable Welder
G4 P0
M291 P"Weld Off L1 B1"
G1 F600 Z10.55
G1 F7200 X172.261 Y333.176 Z10.55
G1 F600 Z9.55
G4 P0
M42 P1 S1 ;Enable Welder
M291 P"Weld On L1 B2"
G1 F1500 
G1 F252.9 X171.902 Y333.541 
G1 F274.4 X171.542 Y333.906 
G1 F299.9 X171.184 Y334.265 
G1 F330.5 X170.825 Y334.625 
G1 F368.4 X170.46 Y334.985 
G1 F416.8 X170.094 Y335.345 
G1 F446.1 X170.094 Y337.95 
G1 X172.699 Y337.95 
G1 F414 X173.552 Y337.547 
G1 F362.7 X174.405 Y337.158 
G1 F323.9 X175.258 Y336.78 
G1 F293.3 X176.111 Y336.41 
G1 X175.458 Y335.815 
G1 F323.9 X175.032 Y335.148 
G1 F362.7 X174.83 Y334.474 
G1 F414 X174.831 Y333.849 
G1 F391.1 X173.989 Y333.866 
G1 F314.5 X173.122 Y333.647 
G1 F263.2 X172.261 Y333.176 
G1 F1500 
M42 P1 S0 ;Disable Welder
G4 P0
M291 P"Weld Off L1 B2"
G1 F600 Z10.55
G1 F7200 X119.008 Y336.454 Z10.55
G1 F600 Z9.55
G4 P0
M42 P1 S1 ;Enable Welder
M291 P"Weld On L1 B3"
G1 F1500 
G1 F283.3 X132.616 Y336.454 
G1 F282.2 X133.33 Y336.423 
G1 F279 X133.728 Y336.099 
G1 F274.8 X134.127 Y335.774 
G1 F270.7 X134.525 Y335.45 
G1 F266.8 X134.924 Y335.125 
G1 F262.9 X135.322 Y334.801 
G1 F259.2 X135.721 Y334.476 
G1 F255.5 X136.119 Y334.151 
G1 F252 X136.518 Y333.827 
G1 F248.6 X136.916 Y333.502 
G1 F245.2 X137.315 Y333.178 
G1 F244.5 X137.352 Y332.435 
G1 F245.2 X137.372 Y331.631 
G1 F245.2 X137.415 Y330.853 
G1 F245.2 X137.491 Y330.159 
G1 F245.2 X137.622 Y329.229 
G1 X137.899 Y327.996 
G1 F245.2 X138.082 Y327.317 
G1 F245.1 X138.299 Y326.653 
G1 F245.1 X138.57 Y325.9 
G1 X138.833 Y325.29 
G1 F245.1 X139.132 Y324.631 
G1 X139.444 Y324.036 
G1 F245.2 X139.999 Y323.068 
G1 F245.2 X140.725 Y321.991 
G1 F245 X141.236 Y321.34 
G1 F245.2 X141.916 Y320.539 
G1 X142.644 Y319.797 
G1 F245.3 X143.056 Y319.408 
G1 F245.4 X143.444 Y319.07 
G1 F245.3 X144.268 Y318.397 
G1 F245.3 X145.129 Y317.794 
G1 F245.4 X145.606 Y317.485 
G1 X146.041 Y317.225 
G1 F245.3 X146.99 Y316.707 
G1 F245.2 X147.918 Y316.282 
G1 F245 X148.69 Y315.964 
G1 F245.2 X149.929 Y315.555 
G1 F245.1 X150.953 Y315.298 
G1 F245 X151.77 Y315.126 
G1 F245.2 X153.066 Y314.951 
G1 F245.2 X153.909 Y314.894 
G1 F245.2 X154.788 Y314.865 
G1 F245.2 X155.67 Y314.894 
G1 F245.2 X156.535 Y314.953 
G1 F245.2 X157.258 Y315.046 
G1 F245.2 X157.88 Y315.14 
G1 X158.628 Y315.298 
G1 F245.1 X159.702 Y315.567 
G1 X160.671 Y315.891 
G1 X161.288 Y316.123 
G1 X161.958 Y316.415 
G1 F245.2 X162.658 Y316.742 
G1 X163.199 Y317.035 
G1 F245.2 X163.836 Y317.395 
G1 F245.3 X164.415 Y317.769 
G1 F245.2 X165.39 Y318.451 
G1 F245.1 X166.085 Y319.025 
G1 X166.658 Y319.528 
G1 X167.121 Y319.982 
G1 F245.2 X167.608 Y320.481 
G1 F245.2 X168.087 Y321.032 
G1 F245.2 X168.796 Y321.91 
G1 X169.356 Y322.726 
G1 F245.1 X169.754 Y323.359 
G1 F245.1 X170.079 Y323.932 
G1 F245.1 X170.441 Y324.617 
G1 X170.701 Y325.186 
G1 F245.1 X171 Y325.883 
G1 F245.1 X171.232 Y326.513 
G1 F245.1 X171.597 Y327.654 
G1 F245.2 X171.816 Y328.571 
G1 F245.2 X171.948 Y329.202 
G1 X172.067 Y330.007 
G1 F245.2 X172.152 Y330.71 
G1 F245.2 X172.197 Y331.442 
G1 F245.1 X172.227 Y332.468 
G1 F244.3 X172.261 Y333.176 
G1 F245 X172.646 Y333.499 
G1 F248.3 X173.031 Y333.823 
G1 F251.6 X173.416 Y334.146 
G1 F255.1 X173.801 Y334.47 
G1 F258.7 X174.186 Y334.793 
G1 F262.3 X174.571 Y335.117 
G1 F266.1 X174.957 Y335.44 
G1 F270 X175.342 Y335.764 
G1 F274 X175.727 Y336.087 
G1 F278.1 X176.112 Y336.411 
G1 F281.7 X176.964 Y336.454 
G1 F283.3 X190.576 Y336.454 
G1 F1500 
M42 P1 S0 ;Disable Welder
G4 P0
M291 P"Weld Off L1 B3"
G1 F600 Z10.55
;MESH:NONMESH
G1 F7200 X137.286 Y333.182 Z10.55
;TIME_ELAPSED:59.180000
;LAYER:2
G91
G1 F1000
G1 Z40
G1 X90 Y74
M226
G4 P0
M291 P"Interpass Start"
M98 P"/macros/WaitForInterpassTemp.g"
G4 P0
G4 P500
M291 P"Interpass End"
G1 X-90 Y-74
G1 Z-40
G90
;MESH:Hose Clamp.stl
G1 X137.286 Y333.182 Z12.100000000000001
;TYPE:WALL-OUTER
G1 F600 Z11.100000000000001
G4 P0
M42 P1 S1 ;Enable Welder
M291 P"Weld On L2 B1"
G1 F1500 
G1 F251.4 X137.645 Y333.537 
G1 F272.5 X138.004 Y333.893 
G1 F297.7 X138.366 Y334.248 
G1 F328.2 X138.729 Y334.604 
G1 F366.1 X139.098 Y334.96 
G1 F414.4 X139.468 Y335.316 
G1 F443.5 X139.468 Y337.936 
G1 X136.848 Y337.936 
G1 F413 X135.991 Y337.548 
G1 F363.7 X135.134 Y337.174 
G1 F326.1 X134.277 Y336.811 
G1 F296.2 X133.42 Y336.455 
G1 F281.4 X133.282 Y336.397 
G1 X133.406 Y336.314 
G1 F296.2 X134.054 Y335.737 
G1 F326.1 X134.484 Y335.085 
G1 F363.7 X134.695 Y334.425 
G1 F413 X134.706 Y333.808 
G1 F388.7 X135.553 Y333.836 
G1 F312.2 X136.427 Y333.63 
G1 F261.5 X137.286 Y333.182 
G1 F1500 
M42 P1 S0 ;Disable Welder
G4 P0
M291 P"Weld Off L2 B1"
G1 F600 Z12.100000000000001
G1 F7200 X176.158 Y336.384 Z12.100000000000001
G1 F600 Z11.100000000000001
G4 P0
M42 P1 S1 ;Enable Welder
M291 P"Weld On L2 B2"
G1 F1500 
G1 F291.5 X175.301 Y336.757 
G1 F321.9 X174.443 Y337.139 
G1 F360.5 X173.586 Y337.53 
G1 F411.6 X172.729 Y337.936 
G1 F443.4 X170.108 Y337.936 
G1 X170.108 Y335.315 
G1 F415 X170.468 Y334.96 
G1 F367.7 X170.828 Y334.604 
G1 F330.4 X171.182 Y334.249 
G1 F300.2 X171.536 Y333.893 
G1 F264.2 X172.235 Y333.182 
G1 F243.4 X172.288 Y333.129 
G1 X172.349 Y333.172 
G1 F264.2 X173.187 Y333.617 
G1 F314.6 X174.044 Y333.826 
G1 F389.9 X174.872 Y333.808 
G1 F411.6 X174.871 Y334.436 
G1 F360.5 X175.074 Y335.113 
G1 F321.9 X175.502 Y335.785 
G1 F291.5 X176.158 Y336.384 
G1 F1500 
M42 P1 S0 ;Disable Welder
G4 P0
M291 P"Weld Off L2 B2"
G1 F600 Z12.100000000000001
G1 F7200 X190.668 Y336.428 Z12.100000000000001
G1 F600 Z11.100000000000001
G4 P0
M42 P1 S1 ;Enable Welder
M291 P"Weld On L2 B3"
G1 F1500 
G1 F281.5 X177.016 Y336.428 
G1 F280 X176.158 Y336.384 
G1 F276.4 X175.771 Y336.059 
G1 F272.3 X175.384 Y335.733 
G1 F268.4 X174.997 Y335.407 
G1 F264.6 X174.61 Y335.082 
G1 F260.8 X174.222 Y334.756 
G1 F257.2 X173.835 Y334.43 
G1 F253.7 X173.448 Y334.105 
G1 F250.3 X173.061 Y333.779 
G1 F247 X172.673 Y333.453 
G1 F243.7 X172.286 Y333.128 
G1 F243 X172.254 Y332.471 
G1 F243.8 X172.197 Y330.887 
G1 F243.8 X172.074 Y329.871 
G1 X171.917 Y328.888 
G1 F243.9 X171.577 Y327.5 
G1 X171.135 Y326.157 
G1 F243.7 X170.729 Y325.19 
G1 F243.9 X170.504 Y324.705 
G1 F243.9 X170.209 Y324.118 
G1 F243.9 X169.598 Y323.051 
G1 F244 X168.814 Y321.894 
G1 F243.8 X168.159 Y321.079 
G1 F244.1 X167.717 Y320.569 
G1 F244.1 X167.359 Y320.188 
G1 F243.9 X166.472 Y319.327 
G1 F244 X165.426 Y318.45 
G1 F243.8 X164.559 Y317.836 
G1 F244.1 X163.984 Y317.463 
G1 F244.1 X163.516 Y317.185 
G1 F243.9 X162.536 Y316.65 
G1 X161.199 Y316.056 
G1 F243.8 X160.209 Y315.711 
G1 F244 X159.575 Y315.517 
G1 F244.1 X158.999 Y315.363 
G1 F243.9 X157.912 Y315.118 
G1 F243.9 X156.493 Y314.921 
G1 F243.9 X155.406 Y314.858 
G1 F244.2 X154.788 Y314.846 
G1 F244.1 X154.17 Y314.858 
G1 F243.9 X153.079 Y314.921 
G1 F244 X151.752 Y315.108 
G1 F243.9 X150.577 Y315.363 
G1 F244.1 X150 Y315.515 
G1 X149.376 Y315.707 
G1 F243.8 X148.381 Y316.055 
G1 F243.9 X147.066 Y316.637 
G1 X146.07 Y317.18 
G1 F244.1 X145.592 Y317.465 
G1 F244.1 X145.023 Y317.835 
G1 F243.8 X144.148 Y318.455 
G1 F244 X143.117 Y319.315 
G1 F243.9 X142.224 Y320.183 
G1 F244.1 X141.865 Y320.567 
G1 X141.429 Y321.07 
G1 F243.8 X140.762 Y321.902 
G1 F244 X139.973 Y323.063 
G1 F243.9 X139.387 Y324.09 
G1 F244.1 X139.148 Y324.557 
G1 F244 X138.843 Y325.207 
G1 F243.8 X138.448 Y326.141 
G1 F244 X137.999 Y327.508 
G1 F243.9 X137.721 Y328.644 
G1 F244.1 X137.621 Y329.15 
G1 F244.1 X137.504 Y329.88 
G1 F243.8 X137.383 Y330.877 
G1 F243.9 X137.324 Y332.471 
G1 F243 X137.286 Y333.182 
G1 F243.6 X136.886 Y333.503 
G1 F247 X136.485 Y333.825 
G1 F250.4 X136.084 Y334.147 
G1 F253.9 X135.683 Y334.469 
G1 F257.5 X135.283 Y334.791 
G1 F261.3 X134.882 Y335.112 
G1 F265.1 X134.481 Y335.434 
G1 F269 X134.08 Y335.756 
G1 F273.1 X133.679 Y336.078 
G1 F277.3 X133.279 Y336.4 
G1 F280.5 X132.564 Y336.428 
G1 F281.5 X118.912 Y336.428 
G1 F1500 
M42 P1 S0 ;Disable Welder
G4 P0
M291 P"Weld Off L2 B3"
G1 F600 Z12.100000000000001
;MESH:NONMESH
G1 F7200 X137.286 Y333.182 Z12.100000000000001
;TIME_ELAPSED:91.940104
;LAYER:3
G91
G1 F1000
G1 Z40
G1 X90 Y74
M226
G4 P0
M291 P"Interpass Start"
M98 P"/macros/WaitForInterpassTemp.g"
G4 P0
G4 P500
M291 P"Interpass End"
G1 X-90 Y-74
G1 Z-40
G90
;MESH:Hose Clamp.stl
G1 X137.286 Y333.182 Z13.65
;TYPE:WALL-OUTER
G1 F600 Z12.65
G4 P0
M42 P1 S1 ;Enable Welder
M291 P"Weld On L3 B1"
G1 F1500 
G1 F261.5 X136.427 Y333.63 
G1 F312.2 X135.553 Y333.836 
G1 F388.7 X134.706 Y333.808 
G1 F413 X134.695 Y334.425 
G1 F363.7 X134.484 Y335.085 
G1 F326.1 X134.054 Y335.737 
G1 F296.2 X133.406 Y336.314 
G1 F281.4 X133.282 Y336.397 
G1 X133.42 Y336.455 
G1 F296.2 X134.277 Y336.811 
G1 F326.1 X135.134 Y337.174 
G1 F363.7 X135.991 Y337.548 
G1 F413 X136.848 Y337.936 
G1 F443.5 X139.468 Y337.936 
G1 X139.468 Y335.316 
G1 F414.4 X139.099 Y334.96 
G1 F366.1 X138.729 Y334.604 
G1 F328.2 X138.367 Y334.249 
G1 F297.7 X138.004 Y333.893 
G1 F272.5 X137.645 Y333.538 
G1 F251.4 X137.286 Y333.182 
G1 F1500 
M42 P1 S0 ;Disable Welder
G4 P0
M291 P"Weld Off L3 B1"
G1 F600 Z13.65
G1 F7200 X176.158 Y336.384 Z13.65
G1 F600 Z12.65
G4 P0
M42 P1 S1 ;Enable Welder
M291 P"Weld On L3 B2"
G1 F1500 
G1 F291.5 X175.502 Y335.785 
G1 F321.9 X175.074 Y335.113 
G1 F360.5 X174.871 Y334.436 
G1 F411.6 X174.872 Y333.808 
G1 F389.9 X174.044 Y333.826 
G1 F314.6 X173.187 Y333.617 
G1 F264.2 X172.349 Y333.172 
G1 F243.4 X172.288 Y333.129 
G1 X172.235 Y333.182 
G1 F264.2 X171.536 Y333.893 
G1 F300.2 X171.182 Y334.248 
G1 F330.4 X170.828 Y334.604 
G1 F367.7 X170.468 Y334.959 
G1 F415 X170.108 Y335.315 
G1 F443.4 X170.108 Y337.936 
G1 X172.729 Y337.936 
G1 F411.6 X173.586 Y337.53 
G1 F360.5 X174.443 Y337.139 
G1 F321.9 X175.301 Y336.757 
G1 F291.5 X176.158 Y336.384 
G1 F1500 
M42 P1 S0 ;Disable Welder
G4 P0
M291 P"Weld Off L3 B2"
G1 F600 Z13.65
G1 F7200 X118.912 Y336.428 Z13.65
G1 F600 Z12.65
G4 P0
M42 P1 S1 ;Enable Welder
M291 P"Weld On L3 B3"
G1 F1500 
G1 F281.5 X132.564 Y336.428 
G1 F280.5 X133.282 Y336.397 
G1 F277.3 X133.682 Y336.076 
G1 F273.1 X134.083 Y335.754 
G1 F269 X134.484 Y335.432 
G1 F265.1 X134.885 Y335.11 
G1 F261.3 X135.285 Y334.788 
G1 F257.5 X135.686 Y334.467 
G1 F253.9 X136.087 Y334.145 
G1 F250.4 X136.488 Y333.823 
G1 F247 X136.889 Y333.501 
G1 F243.6 X137.289 Y333.179 
G1 F243 X137.324 Y332.471 
G1 F243.9 X137.383 Y330.877 
G1 F243.8 X137.504 Y329.88 
G1 F244.1 X137.621 Y329.15 
G1 F244.1 X137.721 Y328.644 
G1 F243.9 X137.999 Y327.508 
G1 F244 X138.448 Y326.141 
G1 F243.8 X138.843 Y325.207 
G1 F244 X139.148 Y324.557 
G1 F244.1 X139.387 Y324.09 
G1 F243.9 X139.973 Y323.063 
G1 F244 X140.762 Y321.902 
G1 F243.8 X141.429 Y321.07 
G1 F244.1 X141.865 Y320.567 
G1 X142.224 Y320.183 
G1 F243.9 X143.117 Y319.315 
G1 F244 X144.148 Y318.455 
G1 F243.8 X145.023 Y317.835 
G1 F244.1 X145.592 Y317.465 
G1 F244.1 X146.07 Y317.18 
G1 F243.9 X147.066 Y316.637 
G1 X148.381 Y316.055 
G1 F243.8 X149.376 Y315.707 
G1 F244.1 X150 Y315.515 
G1 X150.577 Y315.363 
G1 F243.9 X151.752 Y315.108 
G1 F244 X153.079 Y314.921 
G1 F243.9 X154.17 Y314.858 
G1 F244.1 X154.788 Y314.846 
G1 F244.2 X155.406 Y314.858 
G1 F243.9 X156.493 Y314.921 
G1 F243.9 X157.912 Y315.118 
G1 F243.9 X158.999 Y315.363 
G1 F244.1 X159.575 Y315.517 
G1 F244 X160.209 Y315.711 
G1 F243.8 X161.199 Y316.056 
G1 F243.9 X162.536 Y316.65 
G1 X163.516 Y317.185 
G1 F244.1 X163.984 Y317.463 
G1 F244.1 X164.559 Y317.836 
G1 F243.8 X165.426 Y318.45 
G1 F244 X166.472 Y319.327 
G1 F243.9 X167.359 Y320.188 
G1 F244.1 X167.717 Y320.569 
G1 F244.1 X168.159 Y321.079 
G1 F243.8 X168.814 Y321.894 
G1 F244 X169.598 Y323.051 
G1 F243.9 X170.209 Y324.118 
G1 F243.9 X170.504 Y324.705 
G1 F243.9 X170.729 Y325.19 
