;FLAVOR:RepRap
;TIME:72
;Filament used: 0.598677m
;Layer height: 1.55
;MINX:147.3
;MINY:290
;MINZ:1.55
;MAXX:162.7
;MAXY:290
;MAXZ:24.8
;TARGET_MACHINE.NAME:Unknown
;Exported with Cura-DuetRRF v1.2.9 plugin by Thomas Kriechbaumer
;Generated with Cura_SteamEngine 5.7.2
T0
M104 S200
M109 S200
M82 ;absolute extrusion mode
G28 ;Home
M83 ;relative extrusion mode
G1 F1500 E-6.5
;LAYER_COUNT:16
;LAYER:0
M107
G1 F600 Z2.55
;MESH:Test Cube.stl
G0 F7200 X162.7 Y290 Z2.55
;TYPE:WALL-OUTER
G1 F600 Z1.55
G1 F1500 E6.5
G1 F232.4 X147.3 Y290 E37.41733
;TIME_ELAPSED:9.158291
;LAYER:1
;MESH:Test Cube.stl
G0 F7200 X147.3 Y290 Z3.1
;TYPE:WALL-OUTER
G1 F232.4 X162.7 Y290 E37.41733
;TIME_ELAPSED:13.381862
;LAYER:2
;MESH:Test Cube.stl
G0 F7200 X162.7 Y290 Z4.65
;TYPE:WALL-OUTER
G1 F232.4 X147.3 Y290 E37.41733
;TIME_ELAPSED:17.605432
;LAYER:3
;MESH:Test Cube.stl
G0 F7200 X147.3 Y290 Z6.2
;TYPE:WALL-OUTER
G1 F232.4 X162.7 Y290 E37.41733
;TIME_ELAPSED:21.829003
;LAYER:4
;MESH:Test Cube.stl
G0 F7200 X162.7 Y290 Z7.75
;TYPE:WALL-OUTER
G1 F232.4 X147.3 Y290 E37.41733
;TIME_ELAPSED:26.052573
;LAYER:5
;MESH:Test Cube.stl
G0 F7200 X147.3 Y290 Z9.3
;TYPE:WALL-OUTER
G1 F232.4 X162.7 Y290 E37.41733
;TIME_ELAPSED:30.276144
;LAYER:6
;MESH:Test Cube.stl
G0 F7200 X162.7 Y290 Z10.85
;TYPE:WALL-OUTER
G1 F232.4 X147.3 Y290 E37.41733
;TIME_ELAPSED:34.499714
;LAYER:7
;MESH:Test Cube.stl
G0 F7200 X147.3 Y290 Z12.4
;TYPE:WALL-OUTER
G1 F232.4 X162.7 Y290 E37.41733
;TIME_ELAPSED:38.723284
;LAYER:8
;MESH:Test Cube.stl
G0 F7200 X162.7 Y290 Z13.95
;TYPE:WALL-OUTER
G1 F232.4 X147.3 Y290 E37.41733
;TIME_ELAPSED:42.946855
;LAYER:9
;MESH:Test Cube.stl
G0 F7200 X147.3 Y290 Z15.5
;TYPE:WALL-OUTER
G1 F232.4 X162.7 Y290 E37.41733
;TIME_ELAPSED:47.170425
;LAYER:10
;MESH:Test Cube.stl
G0 F7200 X162.7 Y290 Z17.05
;TYPE:WALL-OUTER
G1 F232.4 X147.3 Y290 E37.41733
;TIME_ELAPSED:51.393996
;LAYER:11
;MESH:Test Cube.stl
G0 F7200 X147.3 Y290 Z18.6
;TYPE:WALL-OUTER
G1 F232.4 X162.7 Y290 E37.41733
;TIME_ELAPSED:55.617566
;LAYER:12
;MESH:Test Cube.stl
G0 F7200 X162.7 Y290 Z20.15
;TYPE:WALL-OUTER
G1 F232.4 X147.3 Y290 E37.41733
;TIME_ELAPSED:59.841137
;LAYER:13
;MESH:Test Cube.stl
G0 F7200 X147.3 Y290 Z21.7
;TYPE:WALL-OUTER
G1 F232.4 X162.7 Y290 E37.41733
;TIME_ELAPSED:64.064707
;LAYER:14
;MESH:Test Cube.stl
G0 F7200 X162.7 Y290 Z23.25
;TYPE:WALL-OUTER
G1 F232.4 X147.3 Y290 E37.41733
;TIME_ELAPSED:68.288277
;LAYER:15
;MESH:Test Cube.stl
G0 F7200 X147.3 Y290 Z24.8
;TYPE:WALL-OUTER
G1 F232.4 X162.7 Y290 E37.41733
;TIME_ELAPSED:72.511848
G1 F1500 E-6.5
M82 ;absolute extrusion mode
M42 P1 S0 ;Disable Welder
M83 ;relative extrusion mode
M104 S0
;End of Gcode
;SETTING_3 {"global_quality": "[general]\\nversion = 4\\nname = Arc One #2\\ndef
;SETTING_3 inition = custom\\n\\n[metadata]\\ntype = quality_changes\\nquality_t
;SETTING_3 ype = extra coarse\\nsetting_version = 23\\n\\n[values]\\nadhesion_ty
;SETTING_3 pe = none\\nlayer_height = 1.55\\nlayer_height_0 = 1.55\\nspeed_slowd
;SETTING_3 own_layers = 0\\n\\n", "extruder_quality": ["[general]\\nversion = 4\
;SETTING_3 \nname = Arc One #2\\ndefinition = custom\\n\\n[metadata]\\ntype = qu
;SETTING_3 ality_changes\\nquality_type = extra coarse\\nintent_category = defau
;SETTING_3 lt\\nposition = 0\\nsetting_version = 23\\n\\n[values]\\nbottom_layer
;SETTING_3 s = 0\\ncool_fan_enabled = False\\ninfill_angles = [90,270]\\ninfill_
;SETTING_3 sparse_density = 100\\nmaterial_alternate_walls = True\\nretraction_h
;SETTING_3 op_enabled = True\\nspeed_layer_0 = 6.35\\nspeed_print = 6.35\\nspeed
;SETTING_3 _wall = 6.35\\nspeed_wall_x = 6.35\\ntop_layers = 0\\nwall_thickness 
;SETTING_3 = 6.1\\nz_seam_type = back\\n\\n"]}
