;START_OF_HEADER
;POSTPROCESSED
;HEADER_VERSION:0.1
;FLAVOR:Griffin
;GENERATOR.NAME:Cura_SteamEngine
;GENERATOR.VERSION:5.4.0
;GENERATOR.BUILD_DATE:2023-07-04
;TARGET_MACHINE.NAME:Ultimaker S5
;EXTRUDER_TRAIN.0.INITIAL_TEMPERATURE:200
;EXTRUDER_TRAIN.0.MATERIAL.VOLUME_USED:685
;EXTRUDER_TRAIN.0.MATERIAL.GUID:506c9f0d-e3aa-4bd4-b2d2-23e2425b1aa9
;EXTRUDER_TRAIN.0.NOZZLE.DIAMETER:0.4
;EXTRUDER_TRAIN.0.NOZZLE.NAME:AA 0.4
;BUILD_PLATE.INITIAL_TEMPERATURE:60
;BUILD_VOLUME.TEMPERATURE:28
;PRINT.TIME:532
;PRINT.GROUPS:1
;PRINT.SIZE.MIN.X:152.94
;PRINT.SIZE.MIN.Y:107.94
;PRINT.SIZE.MIN.Z:0.2
;PRINT.SIZE.MAX.X:177.06
;PRINT.SIZE.MAX.Y:132.06
;PRINT.SIZE.MAX.Z:9.95
;SLICE_UUID:f17eefba-01a2-4bcf-8c69-abbea6830708
;END_OF_HEADER

;Generated with Cura_SteamEngine 5.4.0 + Micer

G280 S1
G0 Z27.801000000000002
;LAYER_COUNT:66

;LAYER:0
M106 S255
M204 S1000
M205 X20 Y20
G1 F600 Z10.0
G0 F9000 X176.521 Y128.024 Z10.0
;TYPE:SKIRT
G1 F600 Z8.0
G1 F1035 X175.031 Y129.947 E0.03051
G1 X173.203 Y131.382 E0.05965
G1 X170.698 Y132.06 E0.09219
G1 X159.097 Y132.06 E0.23768
G1 X156.976 Y131.521 E0.26512
G1 X155.053 Y130.031 E0.29563
G1 X153.618 Y128.203 E0.32477
G1 X152.94 Y125.698 E0.35731
G1 X152.94 Y114.137 E0.50229
G1 X153.476 Y111.983 E0.53013
G1 X154.938 Y110.084 E0.56018
G1 X156.811 Y108.612 E0.59006
G1 X159.296 Y107.94 E0.62234
G1 X170.863 Y107.94 E0.76739
G1 X173.017 Y108.476 E0.79523
G1 X174.916 Y109.938 E0.82528
G1 X176.388 Y111.811 E0.85516
G1 X177.06 Y114.296 E0.88744
G1 X177.06 Y125.903 E1.03299
G1 X176.521 Y128.024 E1.06044
G0 F9000 X176.153 Y127.846
G1 F1035 X174.746 Y129.662 E1.08925
G1 X173.019 Y131.018 E1.11678
G1 X170.646 Y131.66 E1.14761
G1 X159.149 Y131.66 E1.29179
G1 X157.154 Y131.153 E1.3176
G1 X155.338 Y129.746 E1.34641
G1 X153.982 Y128.019 E1.37394
G1 X153.34 Y125.646 E1.40477
G1 X153.34 Y114.186 E1.54848
G1 X153.844 Y112.161 E1.57465
G1 X155.226 Y110.366 E1.60306
G1 X156.993 Y108.977 E1.63125
G1 X159.348 Y108.34 E1.66184
G1 X170.814 Y108.34 E1.80563
G1 X172.839 Y108.844 E1.8318
G1 X174.634 Y110.226 E1.86021
G1 X176.023 Y111.993 E1.88839
G1 X176.66 Y114.348 E1.91899
G1 X176.66 Y125.851 E2.06324
G1 X176.153 Y127.846 E2.08905
G0 F9000 X175.785 Y127.668
G1 F1035 X174.461 Y129.377 E2.11616
G1 X172.835 Y130.653 E2.14208
G1 X170.593 Y131.26 E2.17121
G1 X159.201 Y131.26 E2.31407
G1 X157.332 Y130.785 E2.33825
G1 X155.623 Y129.461 E2.36536
G1 X154.347 Y127.835 E2.39128
G1 X153.74 Y125.593 E2.42041
G1 X153.74 Y114.235 E2.56284
G1 X154.212 Y112.339 E2.58735
G1 X155.514 Y110.648 E2.61411
G1 X157.175 Y109.342 E2.64061
G1 X159.4 Y108.74 E2.66951
G1 X170.765 Y108.74 E2.81203
G1 X172.661 Y109.212 E2.83654
G1 X174.352 Y110.514 E2.8633
G1 X175.658 Y112.175 E2.8898
G1 X176.26 Y114.4 E2.9187
G1 X176.26 Y125.799 E3.06165
G1 X175.785 Y127.668 E3.08583
G0 F9000 X175.417 Y127.49
G1 F1035 X174.176 Y129.092 E3.11125
G1 X172.651 Y130.289 E3.13556
G1 X170.541 Y130.86 E3.16297
G1 X159.253 Y130.86 E3.30452
G1 X157.51 Y130.417 E3.32708
G1 X155.908 Y129.176 E3.35249
G1 X154.711 Y127.651 E3.3768
G1 X154.14 Y125.541 E3.40421
G1 X154.14 Y114.284 E3.54538
G1 X154.58 Y112.517 E3.56822
G1 X155.8 Y110.932 E3.5933
G1 X157.359 Y109.707 E3.61816
G1 X159.453 Y109.14 E3.64537
G1 X170.716 Y109.14 E3.78661
G1 X172.483 Y109.58 E3.80945
G1 X174.068 Y110.8 E3.83453
G1 X175.293 Y112.359 E3.85939
G1 X175.86 Y114.453 E3.8866
G1 X175.86 Y125.747 E4.02823
G1 X175.417 Y127.49 E4.05078
G0 F9000 X175.049 Y127.312
G1 F1035 X173.891 Y128.807 E4.07449
G1 X172.467 Y129.925 E4.0972
G1 X170.489 Y130.46 E4.12289
G1 X159.305 Y130.46 E4.26315
G1 X157.688 Y130.049 E4.28407
G1 X156.193 Y128.891 E4.30778
G1 X155.075 Y127.467 E4.33049
G1 X154.54 Y125.489 E4.35618
G1 X154.54 Y114.333 E4.49608
G1 X154.948 Y112.695 E4.51725
G1 X156.088 Y111.214 E4.54069
G1 X157.541 Y110.072 E4.56386
G1 X159.506 Y109.54 E4.58939
G1 X170.667 Y109.54 E4.72936
G1 X172.305 Y109.948 E4.75053
G1 X173.786 Y111.088 E4.77396
G1 X174.928 Y112.541 E4.79714
G1 X175.46 Y114.506 E4.82267
G1 X175.46 Y125.695 E4.96298
G1 X175.049 Y127.312 E4.9839
G0 F9000 X174.681 Y127.134
G1 F1035 X173.606 Y128.522 E5.00592
G1 X172.283 Y129.56 E5.02701
G1 X170.436 Y130.06 E5.051
G1 X159.357 Y130.06 E5.18994
G1 X157.866 Y129.681 E5.20923
G1 X156.478 Y128.606 E5.23125
G1 X155.44 Y127.283 E5.25233
G1 X154.94 Y125.436 E5.27633
G1 X154.94 Y114.382 E5.41495
G1 X155.316 Y112.873 E5.43445
G1 X156.376 Y111.496 E5.45625
G1 X157.723 Y110.437 E5.47773
G1 X159.559 Y109.94 E5.50159
G1 X170.618 Y109.94 E5.64027
G1 X172.127 Y110.316 E5.65977
G1 X173.504 Y111.376 E5.68156
G1 X174.563 Y112.723 E5.70305
G1 X175.06 Y114.559 E5.7269
G1 X175.06 Y125.643 E5.8659
G1 X174.681 Y127.134 E5.88519
G0 F9000 X174.313 Y126.956
G1 F1035 X173.321 Y128.237 E5.90551
G1 X172.099 Y129.196 E5.92499
G1 X170.384 Y129.66 E5.94727
G1 X159.409 Y129.66 E6.0849
G1 X158.044 Y129.313 E6.10256
G1 X156.763 Y128.321 E6.12288
G1 X155.804 Y127.099 E6.14236
G1 X155.34 Y125.384 E6.16464
G1 X155.34 Y114.431 E6.302
G1 X155.684 Y113.051 E6.31983
G1 X156.664 Y111.778 E6.33998
G1 X157.905 Y110.802 E6.35978
G1 X159.612 Y110.34 E6.38195
G1 X170.569 Y110.34 E6.51936
G1 X171.949 Y110.684 E6.53719
G1 X173.222 Y111.664 E6.55734
G1 X174.198 Y112.905 E6.57714
G1 X174.66 Y114.612 E6.59931
G1 X174.66 Y125.591 E6.737
G1 X174.313 Y126.956 E6.75466
G0 F9000 X173.945 Y126.778
G1 F1035 X173.036 Y127.952 E6.77328
G1 X171.915 Y128.832 E6.79115
G1 X170.332 Y129.26 E6.81171
G1 X159.461 Y129.26 E6.94804
G1 X158.222 Y128.945 E6.96407
G1 X157.048 Y128.036 E6.98269
G1 X156.168 Y126.915 E7.00056
G1 X155.74 Y125.332 E7.02113
G1 X155.74 Y114.48 E7.15722
G1 X156.052 Y113.229 E7.17338
G1 X156.95 Y112.062 E7.19185
G1 X158.089 Y111.167 E7.21002
G1 X159.665 Y110.74 E7.23049
G1 X170.52 Y110.74 E7.36662
G1 X171.771 Y111.052 E7.38279
G1 X172.938 Y111.95 E7.40125
G1 X173.833 Y113.089 E7.41942
G1 X174.26 Y114.665 E7.43989
G1 X174.26 Y125.539 E7.57626
G1 X173.945 Y126.778 E7.59229
G0 F9000 X173.577 Y126.6
G1 F1035 X172.751 Y127.667 E7.60921
G1 X171.731 Y128.467 E7.62547
G1 X170.279 Y128.86 E7.64433
G1 X159.513 Y128.86 E7.77934
G1 X158.4 Y128.577 E7.79374
G1 X157.333 Y127.751 E7.81066
G1 X156.533 Y126.731 E7.82692
G1 X156.14 Y125.279 E7.84578
G1 X156.14 Y114.529 E7.98059
G1 X156.42 Y113.407 E7.99509
G1 X157.238 Y112.344 E8.01191
G1 X158.271 Y111.532 E8.02839
G1 X159.718 Y111.14 E8.04719
G1 X170.471 Y111.14 E8.18204
G1 X171.593 Y111.42 E8.19654
G1 X172.656 Y112.238 E8.21336
G1 X173.468 Y113.271 E8.22984
G1 X173.86 Y114.718 E8.24864
G1 X173.86 Y125.487 E8.38368
G1 X173.577 Y126.6 E8.39809
G0 F9000 X173.209 Y126.422
G1 F1035 X172.466 Y127.382 E8.41331
G1 X171.547 Y128.103 E8.42796
G1 X170.227 Y128.46 E8.44511
G1 X159.565 Y128.46 E8.57881
G1 X158.578 Y128.209 E8.59158
G1 X157.618 Y127.466 E8.60681
G1 X156.897 Y126.547 E8.62145
G1 X156.54 Y125.227 E8.6386
G1 X156.54 Y114.578 E8.77214
G1 X156.788 Y113.585 E8.78498
G1 X157.526 Y112.626 E8.80015
G1 X158.453 Y111.897 E8.81494
G1 X159.771 Y111.54 E8.83207
G1 X170.422 Y111.54 E8.96563
G1 X171.415 Y111.788 E8.97847
G1 X172.374 Y112.526 E8.99364
G1 X173.103 Y113.453 E9.00843
G1 X173.46 Y114.771 E9.02556
G1 X173.46 Y125.435 E9.15929
G1 X173.209 Y126.422 E9.17206
G0 F9000 X172.841 Y126.244
G1 F1035 X172.181 Y127.097 E9.18558
G1 X171.363 Y127.739 E9.19862
G1 X170.175 Y128.06 E9.21406
G1 X159.617 Y128.06 E9.34646
G1 X158.756 Y127.841 E9.3576
G1 X157.903 Y127.181 E9.37112
G1 X157.261 Y126.363 E9.38416
G1 X156.94 Y125.175 E9.3996
G1 X156.94 Y114.627 E9.53187
G1 X157.156 Y113.763 E9.54304
G1 X157.814 Y112.908 E9.55657
G1 X158.635 Y112.262 E9.56967
G1 X159.824 Y111.94 E9.58512
G1 X170.373 Y111.94 E9.71741
G1 X171.237 Y112.156 E9.72858
G1 X172.092 Y112.814 E9.7421
G1 X172.738 Y113.635 E9.75521
G1 X173.06 Y114.824 E9.77065
G1 X173.06 Y125.383 E9.90307
G1 X172.841 Y126.244 E9.91421
G0 F9000 X172.473 Y126.066
G1 F1035 X171.896 Y126.812 E9.92603
G1 X171.179 Y127.375 E9.93747
G1 X170.123 Y127.66 E9.95118
G1 X159.669 Y127.66 E10.08228
G1 X158.934 Y127.473 E10.09179
G1 X158.188 Y126.896 E10.10362
G1 X157.625 Y126.179 E10.11505
G1 X157.34 Y125.123 E10.12877
G1 X157.34 Y114.676 E10.25978
G1 X157.524 Y113.941 E10.26928
G1 X158.102 Y113.19 E10.28116
G1 X158.817 Y112.627 E10.29257
G1 X159.877 Y112.34 E10.30635
G1 X170.324 Y112.34 E10.43735
G1 X171.059 Y112.524 E10.44686
G1 X171.81 Y113.102 E10.45874
G1 X172.373 Y113.817 E10.47015
G1 X172.66 Y114.877 E10.48392
G1 X172.66 Y125.331 E10.61502
G1 X172.473 Y126.066 E10.62453
G0 F9000 X172.105 Y125.888
G1 F1035 X171.609 Y126.529 E10.6347
G1 X170.997 Y127.01 E10.64446
G1 X170.071 Y127.26 E10.65649
G1 X159.721 Y127.26 E10.78628
G1 X159.112 Y127.105 E10.79416
G1 X158.471 Y126.609 E10.80432
G1 X157.99 Y125.997 E10.81408
G1 X157.74 Y125.071 E10.82611
G1 X157.74 Y114.725 E10.95586
G1 X157.892 Y114.119 E10.96369
G1 X158.388 Y113.474 E10.97389
G1 X159.001 Y112.991 E10.98368
G1 X159.929 Y112.74 E10.99574
G1 X170.275 Y112.74 E11.12548
G1 X170.881 Y112.892 E11.13331
G1 X171.526 Y113.388 E11.14352
G1 X172.009 Y114.001 E11.1533
G1 X172.26 Y114.929 E11.16536
G1 X172.26 Y125.279 E11.29515
G1 X172.105 Y125.888 E11.30303
G0 F9000 X171.738 Y125.709
G1 F1035 X171.322 Y126.246 E11.31155
G1 X170.815 Y126.645 E11.31964
G1 X170.019 Y126.86 E11.32998
G1 X159.721 Y126.86 E11.45912
G1 X159.291 Y126.738 E11.46473
G1 X158.754 Y126.322 E11.47325
G1 X158.355 Y125.815 E11.48134
G1 X158.14 Y125.019 E11.49168
G1 X158.14 Y114.725 E11.62077
G1 X158.259 Y114.298 E11.62633
G1 X158.675 Y113.758 E11.63487
G1 X159.185 Y113.355 E11.64303
G1 X159.981 Y113.14 E11.65337
G1 X170.275 Y113.14 E11.78246
G1 X170.702 Y113.259 E11.78802
G1 X171.242 Y113.675 E11.79656
G1 X171.645 Y114.185 E11.80471
G1 X171.86 Y114.981 E11.81505
G1 X171.86 Y125.279 E11.9442
G1 X171.738 Y125.709 E11.9498
G0 F9000 X171.376 Y125.524
G1 F1035 X171.037 Y125.961 E11.95674
G1 X170.631 Y126.281 E11.96322
G1 X169.967 Y126.46 E11.97184
G1 X159.721 Y126.46 E12.10033
G1 X159.476 Y126.376 E12.10358
G1 X159.039 Y126.037 E12.11052
G1 X158.719 Y125.631 E12.117
G1 X158.54 Y124.967 E12.12562
G1 X158.54 Y114.725 E12.25406
G1 X158.623 Y114.481 E12.25729
G1 X158.962 Y114.041 E12.26426
G1 X159.369 Y113.719 E12.27077
G1 X160.033 Y113.54 E12.27939
G1 X170.275 Y113.54 E12.40783
G1 X170.519 Y113.623 E12.41106
G1 X170.959 Y113.962 E12.41803
G1 X171.281 Y114.369 E12.42453
G1 X171.46 Y115.033 E12.43316
G1 X171.46 Y125.279 E12.56165
G1 X171.376 Y125.524 E12.5649
G0 F9000 X171.06 Y125.279
G1 F1035 X170.721 Y125.716 E12.57183
G1 X170.448 Y125.916 E12.57607
G1 X169.915 Y126.06 E12.583
G1 X159.721 Y126.06 E12.71083
G1 X159.284 Y125.721 E12.71777
G1 X159.084 Y125.448 E12.72201
G1 X158.94 Y124.915 E12.72894
G1 X158.94 Y114.725 E12.85672
G1 X159.279 Y114.285 E12.86369
G1 X159.552 Y114.084 E12.86794
G1 X160.085 Y113.94 E12.87487
G1 X170.275 Y113.94 E13.00265
G1 X170.715 Y114.279 E13.00962
G1 X170.916 Y114.552 E13.01387
G1 X171.06 Y115.085 E13.02079
G1 X171.06 Y125.279 E13.14863
G0 F9000 X170.26 Y125.031
G1 F1035 X170.111 Y125.199 E13.15144
G1 X169.915 Y125.26 E13.15402
G1 X159.969 Y125.26 E13.27875
G1 X159.801 Y125.111 E13.28156
G1 X159.74 Y124.915 E13.28414
G1 X159.74 Y114.969 E13.40886
G1 X159.889 Y114.801 E13.41168
G1 X160.085 Y114.74 E13.41425
G1 X170.031 Y114.74 E13.53898
G1 X170.199 Y114.889 E13.54179
G1 X170.26 Y115.085 E13.54437
G1 X170.26 Y125.031 E13.6691
G0 F9000 X170.66 Y125.156
G1 F1035 X170.41 Y125.464 E13.67407
G1 X170.23 Y125.581 E13.67676
G1 X169.915 Y125.66 E13.68083
G1 X159.844 Y125.66 E13.80713
G1 X159.536 Y125.41 E13.8121
G1 X159.419 Y125.23 E13.8148
G1 X159.34 Y124.915 E13.81887
G1 X159.34 Y114.846 E13.94514
G1 X159.59 Y114.536 E13.95013
G1 X159.77 Y114.419 E13.95282
G1 X160.085 Y114.34 E13.9569
G1 X170.154 Y114.34 E14.08317
G1 X170.464 Y114.59 E14.08816
G1 X170.581 Y114.77 E14.09085
G1 X170.66 Y115.085 E14.09492
G1 X170.66 Y125.156 E14.22122
;MESH:10mm.stl
G0 F9000 X169.501 Y124.501
G0 X169.715 Y124.715
;TYPE:WALL-OUTER
G1 F1035 X169.715 Y115.285 E14.3513 ;Moved 0 lines
G1 X160.285 Y115.285 E14.48138 ;Moved 0 lines
G1 X160.285 Y124.715 E14.61146 ;Moved 0 lines
G1 X169.715 Y124.715 E14.74154 ;Moved 0 lines
G0 F9000 X169.715 Y124.515
G0 X169.315 Y124.315
;TYPE:WALL-INNER
G1 F1035 X169.315 Y115.685 E14.84436
G1 X160.685 Y115.685 E14.94717
G1 X160.685 Y124.315 E15.04998
G1 X169.315 Y124.315 E15.15279
G0 F9000 X168.995 Y123.995
;TYPE:SKIN
G1 F1035 X168.995 Y116.005 E15.23846
G1 X161.005 Y116.005 E15.32413
G1 X161.005 Y123.995 E15.4098
G1 X168.995 Y123.995 E15.49547
G0 F9000 X169.295 Y123.995
G0 X169.295 Y116.751
G0 X168.794 Y116.751
G1 F1035 X168.248 Y116.205 E15.50375
G0 F9000 X167.682 Y116.205
G1 F1035 X168.794 Y117.316 E15.5206
G0 F9000 X168.794 Y117.882
G1 F1035 X167.116 Y116.205 E15.54604
G0 F9000 X166.551 Y116.205
G1 F1035 X168.794 Y118.448 E15.58005
G0 F9000 X168.794 Y119.013
G1 F1035 X165.985 Y116.205 E15.62263
G0 F9000 X165.419 Y116.205
G1 F1035 X168.794 Y119.579 E15.6738
G0 F9000 X168.794 Y120.145
G1 F1035 X164.854 Y116.205 E15.73355
G0 F9000 X164.288 Y116.205
G1 F1035 X168.794 Y120.71 E15.80186
G0 F9000 X168.794 Y121.276
G1 F1035 X163.722 Y116.205 E15.87876
G0 F9000 X163.157 Y116.205
G1 F1035 X168.794 Y121.842 E15.96424
G0 F9000 X168.794 Y122.407
G1 F1035 X162.591 Y116.205 E16.05829
G0 F9000 X162.025 Y116.205
G1 F1035 X168.794 Y122.973 E16.16092
G0 F9000 X168.794 Y123.539
G1 F1035 X161.46 Y116.205 E16.27213
G0 F9000 X161.204 Y116.514
G1 F1035 X168.484 Y123.795 E16.38252
G0 F9000 X167.918 Y123.795
G1 F1035 X161.204 Y117.08 E16.48434
G0 F9000 X161.204 Y117.646
G1 F1035 X167.353 Y123.795 E16.57758
G0 F9000 X166.787 Y123.795
G1 F1035 X161.204 Y118.211 E16.66224
G0 F9000 X161.204 Y118.777
G1 F1035 X166.221 Y123.795 E16.73832
G0 F9000 X165.656 Y123.795
G1 F1035 X161.204 Y119.343 E16.80583
G0 F9000 X161.204 Y119.909
G1 F1035 X165.09 Y123.795 E16.86475
G0 F9000 X164.524 Y123.795
G1 F1035 X161.204 Y120.474 E16.9151
G0 F9000 X161.204 Y121.04
G1 F1035 X163.958 Y123.795 E16.95687
G0 F9000 X163.393 Y123.795
G1 F1035 X161.204 Y121.606 E16.99006
G0 F9000 X161.204 Y122.171
G1 F1035 X162.827 Y123.795 E17.01468
G0 F9000 X162.261 Y123.795
G1 F1035 X161.204 Y122.737 E17.03071
G0 F9000 X161.204 Y123.303
G1 F1035 X161.696 Y123.795 E17.03817
M204 S1500
;MESH:NONMESH
G0 F600 X161.696 Y123.795 Z8.15
G0 F9000 X161.696 Y124.295
G0 X169.445 Y124.445
G0 X169.795 Y124.795
;TIME_ELAPSED:145.44402300000002;LAYER:1
G4 S30 P0 
;TYPE:WALL-OUTER
;MESH:10mm.stl
G1 F1380 X169.795 Y115.205 E17.12837
G1 X160.205 Y115.205 E17.21857
G1 X160.205 Y124.795 E17.30876
G1 X169.795 Y124.795 E17.39896
G0 F9000 X169.795 Y124.595
G0 X169.395 Y124.395
;TYPE:WALL-INNER
G1 F2700 X169.395 Y115.605 E17.48163
G1 X160.605 Y115.605 E17.56431
G1 X160.605 Y124.395 E17.64698
G1 X169.395 Y124.395 E17.72965
M204 S1000
G0 F9000 X169.075 Y124.075
;TYPE:SKIN
G1 F2100 X169.075 Y115.925 E17.80247
G1 X160.925 Y115.925 E17.87529
G1 X160.925 Y124.075 E17.94811
G1 X169.075 Y124.075 E18.02093
G0 F9000 X168.874 Y123.585
G1 F2100 X168.584 Y123.875 E18.0246
G0 F9000 X168.018 Y123.875
G1 F2100 X168.874 Y123.019 E18.03541
G0 F9000 X168.874 Y122.453
G1 F2100 X167.452 Y123.875 E18.05338
G0 F9000 X166.887 Y123.875
G1 F2100 X168.874 Y121.888 E18.07849
G0 F9000 X168.874 Y121.322
G1 F2100 X166.321 Y123.875 E18.11075
G0 F9000 X165.755 Y123.875
G1 F2100 X168.874 Y120.756 E18.15016
G0 F9000 X168.874 Y120.191
G1 F2100 X165.19 Y123.875 E18.19671
G0 F9000 X164.624 Y123.875
G1 F2100 X168.874 Y119.625 E18.25041
G0 F9000 X168.874 Y119.059
G1 F2100 X164.058 Y123.875 E18.31127
G0 F9000 X163.492 Y123.875
G1 F2100 X168.874 Y118.494 E18.37927
G0 F9000 X168.874 Y117.928
G1 F2100 X162.927 Y123.875 E18.45442
G0 F9000 X162.361 Y123.875
G1 F2100 X168.874 Y117.362 E18.53672
G0 F9000 X168.874 Y116.797
G1 F2100 X161.795 Y123.875 E18.62616
G0 F9000 X161.23 Y123.875
G1 F2100 X168.874 Y116.231 E18.72275
G0 F9000 X168.414 Y116.125
G1 F2100 X161.124 Y123.415 E18.81487
G0 F9000 X161.124 Y122.849
G1 F2100 X167.848 Y116.125 E18.89983
G0 F9000 X167.283 Y116.125
G1 F2100 X161.124 Y122.284 E18.97766
G0 F9000 X161.124 Y121.718
G1 F2100 X166.717 Y116.125 E19.04833
G0 F9000 X166.151 Y116.125
G1 F2100 X161.124 Y121.152 E19.11185
G0 F9000 X161.124 Y120.587
G1 F2100 X165.586 Y116.125 E19.16823
G0 F9000 X165.02 Y116.125
G1 F2100 X161.124 Y120.021 E19.21746
G0 F9000 X161.124 Y119.455
G1 F2100 X164.454 Y116.125 E19.25954
G0 F9000 X163.888 Y116.125
G1 F2100 X161.124 Y118.89 E19.29447
G0 F9000 X161.124 Y118.324
G1 F2100 X163.323 Y116.125 E19.32226
G0 F9000 X162.757 Y116.125
G1 F2100 X161.124 Y117.758 E19.34289
G0 F9000 X161.124 Y117.193
G1 F2100 X162.191 Y116.125 E19.35638
G0 F9000 X161.626 Y116.125
G1 F2100 X161.124 Y116.627 E19.36273
M204 S1500
G0 F9000 X161.205 Y116.627
;MESH:NONMESH
G0 F600 X161.205 Y116.627 Z8.3
G0 F9000 X169.525 Y124.525
G0 X169.795 Y124.795
;TIME_ELAPSED:214.808596;LAYER:2
G4 S30 P0 
;TYPE:WALL-OUTER
;MESH:10mm.stl
G1 F1380 X169.795 Y115.205 E19.45292
G1 X160.205 Y115.205 E19.54312
G1 X160.205 Y124.795 E19.63332
G1 X169.795 Y124.795 E19.72351
G0 F9000 X169.795 Y124.595
G0 X169.395 Y124.395
;TYPE:WALL-INNER
G1 F2700 X169.395 Y115.605 E19.80618
G1 X160.605 Y115.605 E19.88886
G1 X160.605 Y124.395 E19.97153
G1 X169.395 Y124.395 E20.0542
M204 S1000
G0 F9000 X169.075 Y124.075
;TYPE:SKIN
G1 F2100 X169.075 Y115.925 E20.12702
G1 X160.925 Y115.925 E20.19984
G1 X160.925 Y124.075 E20.27266
G1 X169.075 Y124.075 E20.34548
G0 F9000 X168.874 Y116.265
G1 F2100 X168.734 Y116.125 E20.34725
G0 F9000 X168.168 Y116.125
G1 F2100 X168.874 Y116.831 E20.35617
G0 F9000 X168.874 Y117.396
G1 F2100 X167.602 Y116.125 E20.37224
G0 F9000 X167.037 Y116.125
G1 F2100 X168.874 Y117.962 E20.39545
G0 F9000 X168.874 Y118.528
G1 F2100 X166.471 Y116.125 E20.42582
G0 F9000 X165.905 Y116.125
G1 F2100 X168.874 Y119.093 E20.46333
G0 F9000 X168.874 Y119.659
G1 F2100 X165.339 Y116.125 E20.50799
G0 F9000 X164.774 Y116.125
G1 F2100 X168.874 Y120.225 E20.5598
G0 F9000 X168.874 Y120.79
G1 F2100 X164.208 Y116.125 E20.61875
G0 F9000 X163.642 Y116.125
G1 F2100 X168.874 Y121.356 E20.68485
G0 F9000 X168.874 Y121.922
G1 F2100 X163.077 Y116.125 E20.75811
G0 F9000 X162.511 Y116.125
G1 F2100 X168.874 Y122.487 E20.8385
G0 F9000 X168.874 Y123.053
G1 F2100 X161.945 Y116.125 E20.92605
G0 F9000 X161.38 Y116.125
G1 F2100 X168.874 Y123.619 E21.02075
G0 F9000 X168.564 Y123.875
G1 F2100 X161.124 Y116.435 E21.11476
G0 F9000 X161.124 Y117
G1 F2100 X167.998 Y123.875 E21.20162
G0 F9000 X167.432 Y123.875
G1 F2100 X161.124 Y117.566 E21.28134
G0 F9000 X161.124 Y118.132
G1 F2100 X166.867 Y123.875 E21.35391
G0 F9000 X166.301 Y123.875
G1 F2100 X161.124 Y118.697 E21.41933
G0 F9000 X161.124 Y119.263
G1 F2100 X165.735 Y123.875 E21.4776
G0 F9000 X165.17 Y123.875
G1 F2100 X161.124 Y119.829 E21.52873
G0 F9000 X161.124 Y120.394
G1 F2100 X164.604 Y123.875 E21.57271
G0 F9000 X164.038 Y123.875
G1 F2100 X161.124 Y120.96 E21.60953
G0 F9000 X161.124 Y121.526
G1 F2100 X163.473 Y123.875 E21.63922
G0 F9000 X162.907 Y123.875
G1 F2100 X161.124 Y122.091 E21.66175
G0 F9000 X161.124 Y122.657
G1 F2100 X162.341 Y123.875 E21.67714
G0 F9000 X161.776 Y123.875
G1 F2100 X161.124 Y123.223 E21.68537
G0 F9000 X161.124 Y123.788
G1 F2100 X161.21 Y123.875 E21.68647
M204 S1500
G0 F9000 X161.21 Y123.795
;MESH:NONMESH
G0 F600 X161.21 Y123.795 Z8.45
G0 F9000 X169.525 Y124.525
G0 X169.795 Y124.795
;TIME_ELAPSED:284.303266;LAYER:3
G4 S30 P0 
;TYPE:WALL-OUTER
;MESH:10mm.stl
G1 F1380 X169.795 Y115.205 E21.77666
G1 X160.205 Y115.205 E21.86686
G1 X160.205 Y124.795 E21.95706
G1 X169.795 Y124.795 E22.04725
G0 F9000 X169.795 Y124.595
G0 X169.395 Y124.395
;TYPE:WALL-INNER
G1 F2700 X169.395 Y115.605 E22.12993
G1 X160.605 Y115.605 E22.2126
G1 X160.605 Y124.395 E22.29527
G1 X169.395 Y124.395 E22.37794
M204 S1000
G0 F9000 X169.075 Y124.075
;TYPE:SKIN
G1 F2100 X169.075 Y115.925 E22.45076
G1 X160.925 Y115.925 E22.52358
G1 X160.925 Y124.075 E22.5964
G1 X169.075 Y124.075 E22.66923
G0 F9000 X168.874 Y123.585
G1 F2100 X168.584 Y123.875 E22.67289
G0 F9000 X168.018 Y123.875
G1 F2100 X168.874 Y123.019 E22.68371
G0 F9000 X168.874 Y122.453
G1 F2100 X167.452 Y123.875 E22.70167
G0 F9000 X166.887 Y123.875
G1 F2100 X168.874 Y121.888 E22.72678
G0 F9000 X168.874 Y121.322
G1 F2100 X166.321 Y123.875 E22.75904
G0 F9000 X165.755 Y123.875
G1 F2100 X168.874 Y120.756 E22.79845
G0 F9000 X168.874 Y120.191
G1 F2100 X165.19 Y123.875 E22.845
G0 F9000 X164.624 Y123.875
G1 F2100 X168.874 Y119.625 E22.89871
G0 F9000 X168.874 Y119.059
G1 F2100 X164.058 Y123.875 E22.95956
G0 F9000 X163.492 Y123.875
G1 F2100 X168.874 Y118.494 E23.02756
G0 F9000 X168.874 Y117.928
G1 F2100 X162.927 Y123.875 E23.10271
G0 F9000 X162.361 Y123.875
G1 F2100 X168.874 Y117.362 E23.18501
G0 F9000 X168.874 Y116.797
G1 F2100 X161.795 Y123.875 E23.27445
G0 F9000 X161.23 Y123.875
G1 F2100 X168.874 Y116.231 E23.37104
G0 F9000 X168.414 Y116.125
G1 F2100 X161.124 Y123.415 E23.46316
G0 F9000 X161.124 Y122.849
G1 F2100 X167.848 Y116.125 E23.54812
G0 F9000 X167.283 Y116.125
G1 F2100 X161.124 Y122.284 E23.62595
G0 F9000 X161.124 Y121.718
G1 F2100 X166.717 Y116.125 E23.69662
G0 F9000 X166.151 Y116.125
G1 F2100 X161.124 Y121.152 E23.76014
G0 F9000 X161.124 Y120.587
G1 F2100 X165.586 Y116.125 E23.81653
G0 F9000 X165.02 Y116.125
G1 F2100 X161.124 Y120.021 E23.86576
G0 F9000 X161.124 Y119.455
G1 F2100 X164.454 Y116.125 E23.90783
G0 F9000 X163.888 Y116.125
G1 F2100 X161.124 Y118.89 E23.94277
G0 F9000 X161.124 Y118.324
G1 F2100 X163.323 Y116.125 E23.97055
G0 F9000 X162.757 Y116.125
G1 F2100 X161.124 Y117.758 E23.99119
G0 F9000 X161.124 Y117.193
G1 F2100 X162.191 Y116.125 E24.00468
G0 F9000 X161.626 Y116.125
G1 F2100 X161.124 Y116.627 E24.01102
M204 S1500
G0 F9000 X161.205 Y116.627
;MESH:NONMESH
G0 F600 X161.205 Y116.627 Z8.6
G0 F9000 X169.525 Y124.525
G0 X169.795 Y124.795
;TIME_ELAPSED:353.667839;LAYER:4
G4 S30 P0 
;TYPE:WALL-OUTER
;MESH:10mm.stl
G1 F1380 X169.795 Y115.205 E24.10122
G1 X160.205 Y115.205 E24.19141
G1 X160.205 Y124.795 E24.28161
G1 X169.795 Y124.795 E24.37181
G0 F9000 X169.795 Y124.595
G0 X169.395 Y124.395
;TYPE:WALL-INNER
G1 F2700 X169.395 Y115.605 E24.45448
G1 X160.605 Y115.605 E24.53715
G1 X160.605 Y124.395 E24.61982
G1 X169.395 Y124.395 E24.70249
M204 S1000
G0 F9000 X169.075 Y124.075
;TYPE:SKIN
G1 F2100 X169.075 Y115.925 E24.77532
G1 X160.925 Y115.925 E24.84814
G1 X160.925 Y124.075 E24.92096
G1 X169.075 Y124.075 E24.99378
G0 F9000 X168.874 Y116.265
G1 F2100 X168.734 Y116.125 E24.99555
G0 F9000 X168.168 Y116.125
G1 F2100 X168.874 Y116.831 E25.00447
G0 F9000 X168.874 Y117.396
G1 F2100 X167.602 Y116.125 E25.02053
G0 F9000 X167.037 Y116.125
G1 F2100 X168.874 Y117.962 E25.04375
G0 F9000 X168.874 Y118.528
G1 F2100 X166.471 Y116.125 E25.07411
G0 F9000 X165.905 Y116.125
G1 F2100 X168.874 Y119.093 E25.11162
G0 F9000 X168.874 Y119.659
G1 F2100 X165.339 Y116.125 E25.15628
G0 F9000 X164.774 Y116.125
G1 F2100 X168.874 Y120.225 E25.20809
G0 F9000 X168.874 Y120.79
G1 F2100 X164.208 Y116.125 E25.26704
G0 F9000 X163.642 Y116.125
G1 F2100 X168.874 Y121.356 E25.33315
G0 F9000 X168.874 Y121.922
G1 F2100 X163.077 Y116.125 E25.4064
G0 F9000 X162.511 Y116.125
G1 F2100 X168.874 Y122.487 E25.4868
G0 F9000 X168.874 Y123.053
G1 F2100 X161.945 Y116.125 E25.57434
G0 F9000 X161.38 Y116.125
G1 F2100 X168.874 Y123.619 E25.66904
G0 F9000 X168.564 Y123.875
G1 F2100 X161.124 Y116.435 E25.76305
G0 F9000 X161.124 Y117
G1 F2100 X167.998 Y123.875 E25.84992
G0 F9000 X167.432 Y123.875
G1 F2100 X161.124 Y117.566 E25.92963
G0 F9000 X161.124 Y118.132
G1 F2100 X166.867 Y123.875 E26.0022
G0 F9000 X166.301 Y123.875
G1 F2100 X161.124 Y118.697 E26.06762
G0 F9000 X161.124 Y119.263
G1 F2100 X165.735 Y123.875 E26.12589
G0 F9000 X165.17 Y123.875
G1 F2100 X161.124 Y119.829 E26.17702
G0 F9000 X161.124 Y120.394
G1 F2100 X164.604 Y123.875 E26.221
G0 F9000 X164.038 Y123.875
G1 F2100 X161.124 Y120.96 E26.25783
G0 F9000 X161.124 Y121.526
G1 F2100 X163.473 Y123.875 E26.28751
G0 F9000 X162.907 Y123.875
G1 F2100 X161.124 Y122.091 E26.31005
G0 F9000 X161.124 Y122.657
G1 F2100 X162.341 Y123.875 E26.32543
G0 F9000 X161.776 Y123.875
G1 F2100 X161.124 Y123.223 E26.33367
G0 F9000 X161.124 Y123.788
G1 F2100 X161.21 Y123.875 E26.33476
M204 S1500
G0 F9000 X161.21 Y123.795
;MESH:NONMESH
G0 F600 X161.21 Y123.795 Z8.75
G0 F9000 X169.525 Y124.525
G0 X169.795 Y124.795
;TIME_ELAPSED:423.162509;LAYER:5
G4 S30 P0 
;TYPE:WALL-OUTER
;MESH:10mm.stl
G1 F1380 X169.795 Y115.205 E26.42496
G1 X160.205 Y115.205 E26.51515
G1 X160.205 Y124.795 E26.60535
G1 X169.795 Y124.795 E26.69555
G0 F9000 X169.795 Y124.595
G0 X169.395 Y124.395
;TYPE:WALL-INNER
G1 F2700 X169.395 Y115.605 E26.77822
G1 X160.605 Y115.605 E26.86089
G1 X160.605 Y124.395 E26.94356
G1 X169.395 Y124.395 E27.02624
M204 S1000
G0 F9000 X169.075 Y124.075
;TYPE:SKIN
G1 F2100 X169.075 Y115.925 E27.09906
G1 X160.925 Y115.925 E27.17188
G1 X160.925 Y124.075 E27.2447
G1 X169.075 Y124.075 E27.31752
G0 F9000 X168.874 Y123.585
G1 F2100 X168.584 Y123.875 E27.32118
G0 F9000 X168.018 Y123.875
G1 F2100 X168.874 Y123.019 E27.332
G0 F9000 X168.874 Y122.453
G1 F2100 X167.452 Y123.875 E27.34997
G0 F9000 X166.887 Y123.875
G1 F2100 X168.874 Y121.888 E27.37508
G0 F9000 X168.874 Y121.322
G1 F2100 X166.321 Y123.875 E27.40734
G0 F9000 X165.755 Y123.875
G1 F2100 X168.874 Y120.756 E27.44675
G0 F9000 X168.874 Y120.191
G1 F2100 X165.19 Y123.875 E27.4933
G0 F9000 X164.624 Y123.875
G1 F2100 X168.874 Y119.625 E27.547
G0 F9000 X168.874 Y119.059
G1 F2100 X164.058 Y123.875 E27.60786
G0 F9000 X163.492 Y123.875
G1 F2100 X168.874 Y118.494 E27.67586
G0 F9000 X168.874 Y117.928
G1 F2100 X162.927 Y123.875 E27.751
G0 F9000 X162.361 Y123.875
G1 F2100 X168.874 Y117.362 E27.8333
G0 F9000 X168.874 Y116.797
G1 F2100 X161.795 Y123.875 E27.92275
G0 F9000 X161.23 Y123.875
G1 F2100 X168.874 Y116.231 E28.01934
G0 F9000 X168.414 Y116.125
G1 F2100 X161.124 Y123.415 E28.11145
G0 F9000 X161.124 Y122.849
G1 F2100 X167.848 Y116.125 E28.19642
G0 F9000 X167.283 Y116.125
G1 F2100 X161.124 Y122.284 E28.27424
G0 F9000 X161.124 Y121.718
G1 F2100 X166.717 Y116.125 E28.34492
G0 F9000 X166.151 Y116.125
G1 F2100 X161.124 Y121.152 E28.40844
G0 F9000 X161.124 Y120.587
G1 F2100 X165.586 Y116.125 E28.46482
G0 F9000 X165.02 Y116.125
G1 F2100 X161.124 Y120.021 E28.51405
G0 F9000 X161.124 Y119.455
G1 F2100 X164.454 Y116.125 E28.55613
G0 F9000 X163.888 Y116.125
G1 F2100 X161.124 Y118.89 E28.59106
G0 F9000 X161.124 Y118.324
G1 F2100 X163.323 Y116.125 E28.61885
G0 F9000 X162.757 Y116.125
G1 F2100 X161.124 Y117.758 E28.63948
G0 F9000 X161.124 Y117.193
G1 F2100 X162.191 Y116.125 E28.65297
G0 F9000 X161.626 Y116.125
G1 F2100 X161.124 Y116.627 E28.65931
M204 S1500
G0 F9000 X161.205 Y116.627
;MESH:NONMESH
G0 F600 X161.205 Y116.627 Z8.9
G0 F9000 X169.525 Y124.525
G0 X169.795 Y124.795
;TIME_ELAPSED:492.527082;LAYER:6
G4 S30 P0 
;TYPE:WALL-OUTER
;MESH:10mm.stl
G1 F1380 X169.795 Y115.205 E28.74951
G1 X160.205 Y115.205 E28.83971
G1 X160.205 Y124.795 E28.9299
G1 X169.795 Y124.795 E29.0201
G0 F9000 X169.795 Y124.595
G0 X169.395 Y124.395
;TYPE:WALL-INNER
G1 F2700 X169.395 Y115.605 E29.10277
G1 X160.605 Y115.605 E29.18544
G1 X160.605 Y124.395 E29.26812
G1 X169.395 Y124.395 E29.35079
M204 S1000
G0 F9000 X169.075 Y124.075
;TYPE:SKIN
G1 F2100 X169.075 Y115.925 E29.42361
G1 X160.925 Y115.925 E29.49643
G1 X160.925 Y124.075 E29.56925
G1 X169.075 Y124.075 E29.64207
G0 F9000 X168.874 Y116.265
G1 F2100 X168.734 Y116.125 E29.64384
G0 F9000 X168.168 Y116.125
G1 F2100 X168.874 Y116.831 E29.65276
G0 F9000 X168.874 Y117.396
G1 F2100 X167.602 Y116.125 E29.66883
G0 F9000 X167.037 Y116.125
G1 F2100 X168.874 Y117.962 E29.69204
G0 F9000 X168.874 Y118.528
G1 F2100 X166.471 Y116.125 E29.7224
G0 F9000 X165.905 Y116.125
G1 F2100 X168.874 Y119.093 E29.75991
G0 F9000 X168.874 Y119.659
G1 F2100 X165.339 Y116.125 E29.80458
G0 F9000 X164.774 Y116.125
G1 F2100 X168.874 Y120.225 E29.85638
G0 F9000 X168.874 Y120.79
G1 F2100 X164.208 Y116.125 E29.91534
G0 F9000 X163.642 Y116.125
G1 F2100 X168.874 Y121.356 E29.98144
G0 F9000 X168.874 Y121.922
G1 F2100 X163.077 Y116.125 E30.05469
G0 F9000 X162.511 Y116.125
G1 F2100 X168.874 Y122.487 E30.13509
G0 F9000 X168.874 Y123.053
G1 F2100 X161.945 Y116.125 E30.22264
G0 F9000 X161.38 Y116.125
G1 F2100 X168.874 Y123.619 E30.31733
G0 F9000 X168.564 Y123.875
G1 F2100 X161.124 Y116.435 E30.41134
G0 F9000 X161.124 Y117
G1 F2100 X167.998 Y123.875 E30.49821
G0 F9000 X167.432 Y123.875
G1 F2100 X161.124 Y117.566 E30.57792
G0 F9000 X161.124 Y118.132
G1 F2100 X166.867 Y123.875 E30.65049
G0 F9000 X166.301 Y123.875
G1 F2100 X161.124 Y118.697 E30.71592
G0 F9000 X161.124 Y119.263
G1 F2100 X165.735 Y123.875 E30.77419
G0 F9000 X165.17 Y123.875
G1 F2100 X161.124 Y119.829 E30.82531
G0 F9000 X161.124 Y120.394
G1 F2100 X164.604 Y123.875 E30.86929
G0 F9000 X164.038 Y123.875
G1 F2100 X161.124 Y120.96 E30.90612
G0 F9000 X161.124 Y121.526
G1 F2100 X163.473 Y123.875 E30.9358
G0 F9000 X162.907 Y123.875
G1 F2100 X161.124 Y122.091 E30.95834
G0 F9000 X161.124 Y122.657
G1 F2100 X162.341 Y123.875 E30.97372
G0 F9000 X161.776 Y123.875
G1 F2100 X161.124 Y123.223 E30.98196
G0 F9000 X161.124 Y123.788
G1 F2100 X161.21 Y123.875 E30.98305
M204 S3500
G0 F9000 X161.21 Y123.795
;MESH:NONMESH
G0 F600 X161.21 Y123.795 Z9.05
G0 F9000 X169.035 Y115.965
;TIME_ELAPSED:561.982305;LAYER:7
G4 S30 P0 
;TYPE:FILL
;MESH:10mm.stl
G1 F1237.8 X160.965 Y115.965 E31.05896
G1 X169.035 Y124.035 E31.16629
G1 X169.034 Y118.918 E31.21442
G1 X160.964 Y121.08 E31.293
G1 X160.965 Y124.035 E31.32079
G1 X163.918 Y124.034 E31.34857
G1 X166.081 Y115.964 E31.42714
M204 S1500
G0 F9000 X169.525 Y124.525
G0 X169.795 Y124.795
;TYPE:WALL-OUTER
G1 F1237.8 X169.795 Y124.795 E31.78793 ;Moved 1 lines
G1 X169.795 Y115.205 E31.51734 ;Moved 1 lines
G1 X160.205 Y115.205 E31.60754 ;Moved 1 lines
G1 X160.205 Y124.795 E31.69773 ;Moved 1 lines
G0 F9000 X169.795 Y124.595
G0 X169.395 Y124.395
;TYPE:WALL-INNER
G1 F1237.8 X169.395 Y115.605 E31.8706
G1 X160.605 Y115.605 E31.95328
G1 X160.605 Y124.395 E32.03595
G1 X169.395 Y124.395 E32.11862
M204 S3500
G0 F9000 X168.795 Y123.913
;MESH:NONMESH
G0 F600 X168.795 Y123.913 Z9.2
G0 F9000 X169.035 Y115.965
;TIME_ELAPSED:628.21018;LAYER:8
G4 S30 P0 
;TYPE:FILL
;MESH:10mm.stl
G1 F1233.4 X160.965 Y115.965 E32.19452
G1 X169.035 Y124.035 E32.30186
G1 X169.034 Y118.918 E32.34999
G1 X160.964 Y121.08 E32.42857
G1 X160.965 Y124.035 E32.45636
G1 X163.918 Y124.034 E32.48413
G1 X166.081 Y115.964 E32.56271
M204 S1500
G0 F9000 X169.525 Y124.525
G0 X169.795 Y124.795
;TYPE:WALL-OUTER
G1 F1233.4 X160.205 Y124.795 E32.8333 ;Moved 2 lines
G1 X169.795 Y124.795 E32.9235 ;Moved 2 lines
G1 X169.795 Y115.205 E32.65291 ;Moved 2 lines
G1 X160.205 Y115.205 E32.7431 ;Moved 2 lines
G0 F9000 X169.795 Y124.595
G0 X169.395 Y124.395
;TYPE:WALL-INNER
G1 F1233.4 X169.395 Y115.605 E33.00617
G1 X160.605 Y115.605 E33.08884
G1 X160.605 Y124.395 E33.17151
G1 X169.395 Y124.395 E33.25419
M204 S3500
G0 F9000 X168.795 Y123.913
;MESH:NONMESH
G0 F600 X168.795 Y123.913 Z9.35
G0 F9000 X169.035 Y115.965
;TIME_ELAPSED:694.458569;LAYER:9
G4 S30 P0 
;TYPE:FILL
;MESH:10mm.stl
G1 F1233.4 X160.965 Y115.965 E33.33009
G1 X169.035 Y124.035 E33.43743
G1 X169.034 Y118.918 E33.48555
G1 X160.964 Y121.08 E33.56413
G1 X160.965 Y124.035 E33.59192
G1 X163.918 Y124.034 E33.6197
G1 X166.081 Y115.964 E33.69828
M204 S1500
G0 F9000 X169.525 Y124.525
G0 X169.795 Y124.795
;TYPE:WALL-OUTER
G1 F1233.4 X160.205 Y124.795 E33.96887 ;Moved 2 lines
G1 X169.795 Y124.795 E34.05906 ;Moved 2 lines
G1 X169.795 Y115.205 E33.78847 ;Moved 2 lines
G1 X160.205 Y115.205 E33.87867 ;Moved 2 lines
G0 F9000 X169.795 Y124.595
G0 X169.395 Y124.395
;TYPE:WALL-INNER
G1 F1233.4 X169.395 Y115.605 E34.14174
G1 X160.605 Y115.605 E34.22441
G1 X160.605 Y124.395 E34.30708
G1 X169.395 Y124.395 E34.38975
M204 S3500
G0 F9000 X168.795 Y123.913
;MESH:NONMESH
G0 F600 X168.795 Y123.913 Z9.5
G0 F9000 X169.035 Y115.965
;TIME_ELAPSED:760.706959;LAYER:10
G4 S30 P0 
;TYPE:FILL
;MESH:10mm.stl
G1 F1233.4 X160.965 Y115.965 E34.46565
G1 X169.035 Y124.035 E34.57299
G1 X169.034 Y118.918 E34.62112
G1 X160.964 Y121.08 E34.6997
G1 X160.965 Y124.035 E34.72749
G1 X163.918 Y124.034 E34.75526
G1 X166.081 Y115.964 E34.83384
M204 S1500
G0 F9000 X169.525 Y124.525
G0 X169.795 Y124.795
;TYPE:WALL-OUTER
G1 F1233.4 X160.205 Y115.205 E35.01424 ;Moved 3 lines
G1 X160.205 Y124.795 E35.10443 ;Moved 3 lines
G1 X169.795 Y124.795 E35.19463 ;Moved 3 lines
G1 X169.795 Y115.205 E34.92404 ;Moved 3 lines
G0 F9000 X169.795 Y124.595
G0 X169.395 Y124.395
;TYPE:WALL-INNER
G1 F1233.4 X169.395 Y115.605 E35.2773
G1 X160.605 Y115.605 E35.35998
G1 X160.605 Y124.395 E35.44265
G1 X169.395 Y124.395 E35.52532
M204 S3500
G0 F9000 X168.795 Y123.913
;MESH:NONMESH
G0 F600 X168.795 Y123.913 Z9.65
G0 F9000 X169.035 Y115.965
;TIME_ELAPSED:826.955348;LAYER:11
G4 S30 P0 
;TYPE:FILL
;MESH:10mm.stl
G1 F1233.4 X160.965 Y115.965 E35.60122
G1 X169.035 Y124.035 E35.70856
G1 X169.034 Y118.918 E35.75669
G1 X160.964 Y121.08 E35.83526
G1 X160.965 Y124.035 E35.86306
G1 X163.918 Y124.034 E35.89083
G1 X166.081 Y115.964 E35.96941
M204 S1500
G0 F9000 X169.525 Y124.525
G0 X169.795 Y124.795
;TYPE:WALL-OUTER
G1 F1233.4 X169.795 Y115.205 E36.05961 ;Moved 4 lines
G1 X160.205 Y115.205 E36.1498 ;Moved 4 lines
G1 X160.205 Y124.795 E36.24 ;Moved 4 lines
G1 X169.795 Y124.795 E36.3302 ;Moved 4 lines
G0 F9000 X169.795 Y124.595
G0 X169.395 Y124.395
;TYPE:WALL-INNER
G1 F1233.4 X169.395 Y115.605 E36.41287
G1 X160.605 Y115.605 E36.49554
G1 X160.605 Y124.395 E36.57821
G1 X169.395 Y124.395 E36.66089
M204 S3500
G0 F9000 X168.795 Y123.913
;MESH:NONMESH
G0 F600 X168.795 Y123.913 Z9.8
G0 F9000 X169.035 Y115.965
;TIME_ELAPSED:893.203737;LAYER:12
G4 S30 P0 
;TYPE:FILL
;MESH:10mm.stl
G1 F1233.4 X160.965 Y115.965 E36.73679
G1 X169.035 Y124.035 E36.84413
G1 X169.034 Y118.918 E36.89225
G1 X160.964 Y121.08 E36.97083
G1 X160.965 Y124.035 E36.99862
G1 X163.918 Y124.034 E37.0264
G1 X166.081 Y115.964 E37.10498
M204 S1500
G0 F9000 X169.525 Y124.525
G0 X169.795 Y124.795
;TYPE:WALL-OUTER
G1 F1233.4 X169.795 Y115.205 E37.19517 ;Moved 0 lines
G1 X160.205 Y115.205 E37.28537 ;Moved 0 lines
G1 X160.205 Y124.795 E37.37557 ;Moved 0 lines
G1 X169.795 Y124.795 E37.46576 ;Moved 0 lines
G0 F9000 X169.795 Y124.595
G0 X169.395 Y124.395
;TYPE:WALL-INNER
G1 F1233.4 X169.395 Y115.605 E37.54844
G1 X160.605 Y115.605 E37.63111
G1 X160.605 Y124.395 E37.71378
G1 X169.395 Y124.395 E37.79645
M204 S3500
G0 F9000 X168.795 Y123.913
;MESH:NONMESH
G0 F600 X168.795 Y123.913 Z9.95
G0 F9000 X169.035 Y115.965
;TIME_ELAPSED:959.452126;LAYER:13
G4 S30 P0 
;TYPE:FILL
;MESH:10mm.stl
G1 F1233.4 X160.965 Y115.965 E37.87235
G1 X169.035 Y124.035 E37.97969
G1 X169.034 Y118.918 E38.02782
G1 X160.964 Y121.08 E38.1064
G1 X160.965 Y124.035 E38.13419
G1 X163.918 Y124.034 E38.16196
G1 X166.081 Y115.964 E38.24054
M204 S1500
G0 F9000 X169.525 Y124.525
G0 X169.795 Y124.795
;TYPE:WALL-OUTER
G1 F1233.4 X169.795 Y124.795 E38.60133 ;Moved 1 lines
G1 X169.795 Y115.205 E38.33074 ;Moved 1 lines
G1 X160.205 Y115.205 E38.42094 ;Moved 1 lines
G1 X160.205 Y124.795 E38.51113 ;Moved 1 lines
G0 F9000 X169.795 Y124.595
G0 X169.395 Y124.395
;TYPE:WALL-INNER
G1 F1233.4 X169.395 Y115.605 E38.684
G1 X160.605 Y115.605 E38.76667
G1 X160.605 Y124.395 E38.84935
G1 X169.395 Y124.395 E38.93202
M204 S3500
G0 F9000 X168.795 Y123.913
;MESH:NONMESH
G0 F600 X168.795 Y123.913 Z10.1
G0 F9000 X169.035 Y115.965
;TIME_ELAPSED:1025.7005159999999;LAYER:14
G4 S30 P0 
;TYPE:FILL
;MESH:10mm.stl
G1 F1233.4 X160.965 Y115.965 E39.00792
G1 X169.035 Y124.035 E39.11526
G1 X169.034 Y118.918 E39.16339
G1 X160.964 Y121.08 E39.24196
G1 X160.965 Y124.035 E39.26976
G1 X163.918 Y124.034 E39.29753
G1 X166.081 Y115.964 E39.37611
M204 S1500
G0 F9000 X169.525 Y124.525
G0 X169.795 Y124.795
;TYPE:WALL-OUTER
G1 F1233.4 X160.205 Y124.795 E39.6467 ;Moved 2 lines
G1 X169.795 Y124.795 E39.7369 ;Moved 2 lines
G1 X169.795 Y115.205 E39.46631 ;Moved 2 lines
G1 X160.205 Y115.205 E39.5565 ;Moved 2 lines
G0 F9000 X169.795 Y124.595
G0 X169.395 Y124.395
;TYPE:WALL-INNER
G1 F1233.4 X169.395 Y115.605 E39.81957
G1 X160.605 Y115.605 E39.90224
G1 X160.605 Y124.395 E39.98491
G1 X169.395 Y124.395 E40.06759
M204 S3500
G0 F9000 X168.795 Y123.913
;MESH:NONMESH
G0 F600 X168.795 Y123.913 Z10.25
G0 F9000 X169.035 Y115.965
;TIME_ELAPSED:1091.948905;LAYER:15
G4 S30 P0 
;TYPE:FILL
;MESH:10mm.stl
G1 F1233.4 X160.965 Y115.965 E40.14349
G1 X169.035 Y124.035 E40.25083
G1 X169.034 Y118.918 E40.29895
G1 X160.964 Y121.08 E40.37753
G1 X160.965 Y124.035 E40.40532
G1 X163.918 Y124.034 E40.4331
G1 X166.081 Y115.964 E40.51168
M204 S1500
G0 F9000 X169.525 Y124.525
G0 X169.795 Y124.795
;TYPE:WALL-OUTER
G1 F1233.4 X160.205 Y124.795 E40.78227 ;Moved 2 lines
G1 X169.795 Y124.795 E40.87246 ;Moved 2 lines
G1 X169.795 Y115.205 E40.60187 ;Moved 2 lines
G1 X160.205 Y115.205 E40.69207 ;Moved 2 lines
G0 F9000 X169.795 Y124.595
G0 X169.395 Y124.395
;TYPE:WALL-INNER
G1 F1233.4 X169.395 Y115.605 E40.95513
G1 X160.605 Y115.605 E41.03781
G1 X160.605 Y124.395 E41.12048
G1 X169.395 Y124.395 E41.20315
M204 S3500
G0 F9000 X168.795 Y123.913
;MESH:NONMESH
G0 F600 X168.795 Y123.913 Z10.4
G0 F9000 X169.035 Y115.965
;TIME_ELAPSED:1158.197294;LAYER:16
G4 S30 P0 
;TYPE:FILL
;MESH:10mm.stl
G1 F1233.4 X160.965 Y115.965 E41.27905
G1 X169.035 Y124.035 E41.38639
G1 X169.034 Y118.918 E41.43452
G1 X160.964 Y121.08 E41.5131
G1 X160.965 Y124.035 E41.54089
G1 X163.918 Y124.034 E41.56866
G1 X166.081 Y115.964 E41.64724
M204 S1500
G0 F9000 X169.525 Y124.525
G0 X169.795 Y124.795
;TYPE:WALL-OUTER
G1 F1233.4 X160.205 Y115.205 E41.82764 ;Moved 3 lines
G1 X160.205 Y124.795 E41.91783 ;Moved 3 lines
G1 X169.795 Y124.795 E42.00803 ;Moved 3 lines
G1 X169.795 Y115.205 E41.73744 ;Moved 3 lines
G0 F9000 X169.795 Y124.595
G0 X169.395 Y124.395
;TYPE:WALL-INNER
G1 F1233.4 X169.395 Y115.605 E42.0907
G1 X160.605 Y115.605 E42.17337
G1 X160.605 Y124.395 E42.25605
G1 X169.395 Y124.395 E42.33872
M204 S3500
G0 F9000 X168.795 Y123.913
;MESH:NONMESH
G0 F600 X168.795 Y123.913 Z10.55
G0 F9000 X169.035 Y115.965
;TIME_ELAPSED:1224.445683;LAYER:17
G4 S30 P0 
;TYPE:FILL
;MESH:10mm.stl
G1 F1233.4 X160.965 Y115.965 E42.41462
G1 X169.035 Y124.035 E42.52196
G1 X169.034 Y118.918 E42.57009
G1 X160.964 Y121.08 E42.64866
G1 X160.965 Y124.035 E42.67646
G1 X163.918 Y124.034 E42.70423
G1 X166.081 Y115.964 E42.78281
M204 S1500
G0 F9000 X169.525 Y124.525
G0 X169.795 Y124.795
;TYPE:WALL-OUTER
G1 F1233.4 X169.795 Y115.205 E42.87301 ;Moved 4 lines
G1 X160.205 Y115.205 E42.9632 ;Moved 4 lines
G1 X160.205 Y124.795 E43.0534 ;Moved 4 lines
G1 X169.795 Y124.795 E43.1436 ;Moved 4 lines
G0 F9000 X169.795 Y124.595
G0 X169.395 Y124.395
;TYPE:WALL-INNER
G1 F1233.4 X169.395 Y115.605 E43.22627
G1 X160.605 Y115.605 E43.30894
G1 X160.605 Y124.395 E43.39161
G1 X169.395 Y124.395 E43.47428
M204 S3500
G0 F9000 X168.795 Y123.913
;MESH:NONMESH
G0 F600 X168.795 Y123.913 Z10.7
G0 F9000 X169.035 Y115.965
;TIME_ELAPSED:1290.6940730000001;LAYER:18
G4 S30 P0 
;TYPE:FILL
;MESH:10mm.stl
G1 F1233.4 X160.965 Y115.965 E43.55019
G1 X169.035 Y124.035 E43.65753
G1 X169.034 Y118.918 E43.70565
G1 X160.964 Y121.08 E43.78423
G1 X160.965 Y124.035 E43.81202
G1 X163.918 Y124.034 E43.8398
G1 X166.081 Y115.964 E43.91838
M204 S1500
G0 F9000 X169.525 Y124.525
G0 X169.795 Y124.795
;TYPE:WALL-OUTER
G1 F1233.4 X169.795 Y115.205 E44.00857 ;Moved 0 lines
G1 X160.205 Y115.205 E44.09877 ;Moved 0 lines
G1 X160.205 Y124.795 E44.18897 ;Moved 0 lines
G1 X169.795 Y124.795 E44.27916 ;Moved 0 lines
G0 F9000 X169.795 Y124.595
G0 X169.395 Y124.395
;TYPE:WALL-INNER
G1 F1233.4 X169.395 Y115.605 E44.36183
G1 X160.605 Y115.605 E44.44451
G1 X160.605 Y124.395 E44.52718
G1 X169.395 Y124.395 E44.60985
M204 S3500
G0 F9000 X168.795 Y123.913
;MESH:NONMESH
G0 F600 X168.795 Y123.913 Z10.85
G0 F9000 X169.035 Y115.965
;TIME_ELAPSED:1356.942462;LAYER:19
G4 S30 P0 
;TYPE:FILL
;MESH:10mm.stl
G1 F1233.4 X160.965 Y115.965 E44.68575
G1 X169.035 Y124.035 E44.79309
G1 X169.034 Y118.918 E44.84122
G1 X160.964 Y121.08 E44.9198
G1 X160.965 Y124.035 E44.94759
G1 X163.918 Y124.034 E44.97536
G1 X166.081 Y115.964 E45.05394
M204 S1500
G0 F9000 X169.525 Y124.525
G0 X169.795 Y124.795
;TYPE:WALL-OUTER
G1 F1233.4 X169.795 Y124.795 E45.41473 ;Moved 1 lines
G1 X169.795 Y115.205 E45.14414 ;Moved 1 lines
G1 X160.205 Y115.205 E45.23433 ;Moved 1 lines
G1 X160.205 Y124.795 E45.32453 ;Moved 1 lines
G0 F9000 X169.795 Y124.595
G0 X169.395 Y124.395
;TYPE:WALL-INNER
G1 F1233.4 X169.395 Y115.605 E45.4974
G1 X160.605 Y115.605 E45.58007
G1 X160.605 Y124.395 E45.66275
G1 X169.395 Y124.395 E45.74542
M204 S3500
G0 F9000 X168.795 Y123.913
;MESH:NONMESH
G0 F600 X168.795 Y123.913 Z11.0
G0 F9000 X169.035 Y115.965
;TIME_ELAPSED:1423.190851;LAYER:20
G4 S30 P0 
;TYPE:FILL
;MESH:10mm.stl
G1 F1233.4 X160.965 Y115.965 E45.82132
G1 X169.035 Y124.035 E45.92866
G1 X169.034 Y118.918 E45.97678
G1 X160.964 Y121.08 E46.05536
G1 X160.965 Y124.035 E46.08315
G1 X163.918 Y124.034 E46.11093
G1 X166.081 Y115.964 E46.18951
M204 S1500
G0 F9000 X169.525 Y124.525
G0 X169.795 Y124.795
;TYPE:WALL-OUTER
G1 F1233.4 X160.205 Y124.795 E46.4601 ;Moved 2 lines
G1 X169.795 Y124.795 E46.55029 ;Moved 2 lines
G1 X169.795 Y115.205 E46.2797 ;Moved 2 lines
G1 X160.205 Y115.205 E46.3699 ;Moved 2 lines
G0 F9000 X169.795 Y124.595
G0 X169.395 Y124.395
;TYPE:WALL-INNER
G1 F1233.4 X169.395 Y115.605 E46.63297
G1 X160.605 Y115.605 E46.71564
G1 X160.605 Y124.395 E46.79831
G1 X169.395 Y124.395 E46.88098
M204 S3500
G0 F9000 X168.795 Y123.913
;MESH:NONMESH
G0 F600 X168.795 Y123.913 Z11.15
G0 F9000 X169.035 Y115.965
;TIME_ELAPSED:1489.4392400000002;LAYER:21
G4 S30 P0 
;TYPE:FILL
;MESH:10mm.stl
G1 F1233.4 X160.965 Y115.965 E46.95688
G1 X169.035 Y124.035 E47.06422
G1 X169.034 Y118.918 E47.11235
G1 X160.964 Y121.08 E47.19093
G1 X160.965 Y124.035 E47.21872
G1 X163.918 Y124.034 E47.24649
G1 X166.081 Y115.964 E47.32507
M204 S1500
G0 F9000 X169.525 Y124.525
G0 X169.795 Y124.795
;TYPE:WALL-OUTER
G1 F1233.4 X160.205 Y124.795 E47.59566 ;Moved 2 lines
G1 X169.795 Y124.795 E47.68586 ;Moved 2 lines
G1 X169.795 Y115.205 E47.41527 ;Moved 2 lines
G1 X160.205 Y115.205 E47.50547 ;Moved 2 lines
G0 F9000 X169.795 Y124.595
G0 X169.395 Y124.395
;TYPE:WALL-INNER
G1 F1233.4 X169.395 Y115.605 E47.76853
G1 X160.605 Y115.605 E47.85121
G1 X160.605 Y124.395 E47.93388
G1 X169.395 Y124.395 E48.01655
M204 S3500
G0 F9000 X168.795 Y123.913
;MESH:NONMESH
G0 F600 X168.795 Y123.913 Z11.3
G0 F9000 X169.035 Y115.965
;TIME_ELAPSED:1555.68763;LAYER:22
G4 S30 P0 
;TYPE:FILL
;MESH:10mm.stl
G1 F1233.4 X160.965 Y115.965 E48.09245
G1 X169.035 Y124.035 E48.19979
G1 X169.034 Y118.918 E48.24792
G1 X160.964 Y121.08 E48.32649
G1 X160.965 Y124.035 E48.35429
G1 X163.918 Y124.034 E48.38206
G1 X166.081 Y115.964 E48.46064
M204 S1500
G0 F9000 X169.525 Y124.525
G0 X169.795 Y124.795
;TYPE:WALL-OUTER
G1 F1233.4 X160.205 Y115.205 E48.64103 ;Moved 3 lines
G1 X160.205 Y124.795 E48.73123 ;Moved 3 lines
G1 X169.795 Y124.795 E48.82143 ;Moved 3 lines
G1 X169.795 Y115.205 E48.55084 ;Moved 3 lines
G0 F9000 X169.795 Y124.595
G0 X169.395 Y124.395
;TYPE:WALL-INNER
G1 F1233.4 X169.395 Y115.605 E48.9041
G1 X160.605 Y115.605 E48.98677
G1 X160.605 Y124.395 E49.06944
G1 X169.395 Y124.395 E49.15212
M204 S3500
G0 F9000 X168.795 Y123.913
;MESH:NONMESH
G0 F600 X168.795 Y123.913 Z11.45
G0 F9000 X169.035 Y115.965
;TIME_ELAPSED:1621.936019;LAYER:23
G4 S30 P0 
;TYPE:FILL
;MESH:10mm.stl
G1 F1233.4 X160.965 Y115.965 E49.22802
G1 X169.035 Y124.035 E49.33536
G1 X169.034 Y118.918 E49.38348
G1 X160.964 Y121.08 E49.46206
G1 X160.965 Y124.035 E49.48985
G1 X163.918 Y124.034 E49.51763
G1 X166.081 Y115.964 E49.59621
M204 S1500
G0 F9000 X169.525 Y124.525
G0 X169.795 Y124.795
;TYPE:WALL-OUTER
G1 F1233.4 X169.795 Y115.205 E49.6864 ;Moved 4 lines
G1 X160.205 Y115.205 E49.7766 ;Moved 4 lines
G1 X160.205 Y124.795 E49.8668 ;Moved 4 lines
G1 X169.795 Y124.795 E49.95699 ;Moved 4 lines
G0 F9000 X169.795 Y124.595
G0 X169.395 Y124.395
;TYPE:WALL-INNER
G1 F1233.4 X169.395 Y115.605 E50.03967
G1 X160.605 Y115.605 E50.12234
G1 X160.605 Y124.395 E50.20501
G1 X169.395 Y124.395 E50.28768
M204 S3500
G0 F9000 X168.795 Y123.913
;MESH:NONMESH
G0 F600 X168.795 Y123.913 Z11.6
G0 F9000 X169.035 Y115.965
;TIME_ELAPSED:1688.184408;LAYER:24
G4 S30 P0 
;TYPE:FILL
;MESH:10mm.stl
G1 F1233.4 X160.965 Y115.965 E50.36358
G1 X169.035 Y124.035 E50.47092
G1 X169.034 Y118.918 E50.51905
G1 X160.964 Y121.08 E50.59763
G1 X160.965 Y124.035 E50.62542
G1 X163.918 Y124.034 E50.65319
G1 X166.081 Y115.964 E50.73177
M204 S1500
G0 F9000 X169.525 Y124.525
G0 X169.795 Y124.795
;TYPE:WALL-OUTER
G1 F1233.4 X169.795 Y115.205 E50.82197 ;Moved 0 lines
G1 X160.205 Y115.205 E50.91217 ;Moved 0 lines
G1 X160.205 Y124.795 E51.00236 ;Moved 0 lines
G1 X169.795 Y124.795 E51.09256 ;Moved 0 lines
G0 F9000 X169.795 Y124.595
G0 X169.395 Y124.395
;TYPE:WALL-INNER
G1 F1233.4 X169.395 Y115.605 E51.17523
G1 X160.605 Y115.605 E51.2579
G1 X160.605 Y124.395 E51.34058
G1 X169.395 Y124.395 E51.42325
M204 S3500
G0 F9000 X168.795 Y123.913
;MESH:NONMESH
G0 F600 X168.795 Y123.913 Z11.75
G0 F9000 X169.035 Y115.965
;TIME_ELAPSED:1754.432797;LAYER:25
G4 S30 P0 
;TYPE:FILL
;MESH:10mm.stl
G1 F1233.4 X160.965 Y115.965 E51.49915
G1 X169.035 Y124.035 E51.60649
G1 X169.034 Y118.918 E51.65462
G1 X160.964 Y121.08 E51.73319
G1 X160.965 Y124.035 E51.76099
G1 X163.918 Y124.034 E51.78876
G1 X166.081 Y115.964 E51.86734
M204 S1500
G0 F9000 X169.525 Y124.525
G0 X169.795 Y124.795
;TYPE:WALL-OUTER
G1 F1233.4 X169.795 Y124.795 E52.22813 ;Moved 1 lines
G1 X169.795 Y115.205 E51.95754 ;Moved 1 lines
G1 X160.205 Y115.205 E52.04773 ;Moved 1 lines
G1 X160.205 Y124.795 E52.13793 ;Moved 1 lines
G0 F9000 X169.795 Y124.595
G0 X169.395 Y124.395
;TYPE:WALL-INNER
G1 F1233.4 X169.395 Y115.605 E52.3108
G1 X160.605 Y115.605 E52.39347
G1 X160.605 Y124.395 E52.47614
G1 X169.395 Y124.395 E52.55882
M204 S3500
G0 F9000 X168.795 Y123.913
;MESH:NONMESH
G0 F600 X168.795 Y123.913 Z11.899999999999999
G0 F9000 X169.035 Y115.965
;TIME_ELAPSED:1820.6811870000001;LAYER:26
G4 S30 P0 
;TYPE:FILL
;MESH:10mm.stl
G1 F1233.4 X160.965 Y115.965 E52.63472
G1 X169.035 Y124.035 E52.74206
G1 X169.034 Y118.918 E52.79018
G1 X160.964 Y121.08 E52.86876
G1 X160.965 Y124.035 E52.89655
G1 X163.918 Y124.034 E52.92433
G1 X166.081 Y115.964 E53.00291
M204 S1500
G0 F9000 X169.525 Y124.525
G0 X169.795 Y124.795
;TYPE:WALL-OUTER
G1 F1233.4 X160.205 Y124.795 E53.2735 ;Moved 2 lines
G1 X169.795 Y124.795 E53.36369 ;Moved 2 lines
G1 X169.795 Y115.205 E53.0931 ;Moved 2 lines
G1 X160.205 Y115.205 E53.1833 ;Moved 2 lines
G0 F9000 X169.795 Y124.595
G0 X169.395 Y124.395
;TYPE:WALL-INNER
G1 F1233.4 X169.395 Y115.605 E53.44637
G1 X160.605 Y115.605 E53.52904
G1 X160.605 Y124.395 E53.61171
G1 X169.395 Y124.395 E53.69438
M204 S3500
G0 F9000 X168.795 Y123.913
;MESH:NONMESH
G0 F600 X168.795 Y123.913 Z12.05
G0 F9000 X169.035 Y115.965
;TIME_ELAPSED:1886.929576;LAYER:27
G4 S30 P0 
;TYPE:FILL
;MESH:10mm.stl
G1 F1233.4 X160.965 Y115.965 E53.77028
G1 X169.035 Y124.035 E53.87762
G1 X169.034 Y118.918 E53.92575
G1 X160.964 Y121.08 E54.00433
G1 X160.965 Y124.035 E54.03212
G1 X163.918 Y124.034 E54.05989
G1 X166.081 Y115.964 E54.13847
M204 S1500
G0 F9000 X169.525 Y124.525
G0 X169.795 Y124.795
;TYPE:WALL-OUTER
G1 F1233.4 X160.205 Y124.795 E54.40906 ;Moved 2 lines
G1 X169.795 Y124.795 E54.49926 ;Moved 2 lines
G1 X169.795 Y115.205 E54.22867 ;Moved 2 lines
G1 X160.205 Y115.205 E54.31887 ;Moved 2 lines
G0 F9000 X169.795 Y124.595
G0 X169.395 Y124.395
;TYPE:WALL-INNER
G1 F1233.4 X169.395 Y115.605 E54.58193
G1 X160.605 Y115.605 E54.6646
G1 X160.605 Y124.395 E54.74728
G1 X169.395 Y124.395 E54.82995
M204 S3500
G0 F9000 X168.795 Y123.913
;MESH:NONMESH
G0 F600 X168.795 Y123.913 Z12.2
G0 F9000 X169.035 Y115.965
;TIME_ELAPSED:1953.1779649999999;LAYER:28
G4 S30 P0 
;TYPE:FILL
;MESH:10mm.stl
G1 F1233.4 X160.965 Y115.965 E54.90585
G1 X169.035 Y124.035 E55.01319
G1 X169.034 Y118.918 E55.06132
G1 X160.964 Y121.08 E55.13989
G1 X160.965 Y124.035 E55.16769
G1 X163.918 Y124.034 E55.19546
G1 X166.081 Y115.964 E55.27404
M204 S1500
G0 F9000 X169.525 Y124.525
G0 X169.795 Y124.795
;TYPE:WALL-OUTER
G1 F1233.4 X160.205 Y115.205 E55.45443 ;Moved 3 lines
G1 X160.205 Y124.795 E55.54463 ;Moved 3 lines
G1 X169.795 Y124.795 E55.63483 ;Moved 3 lines
G1 X169.795 Y115.205 E55.36424 ;Moved 3 lines
G0 F9000 X169.795 Y124.595
G0 X169.395 Y124.395
;TYPE:WALL-INNER
G1 F1233.4 X169.395 Y115.605 E55.7175
G1 X160.605 Y115.605 E55.80017
G1 X160.605 Y124.395 E55.88284
G1 X169.395 Y124.395 E55.96552
M204 S3500
G0 F9000 X168.795 Y123.913
;MESH:NONMESH
G0 F600 X168.795 Y123.913 Z12.35
G0 F9000 X169.035 Y115.965
;TIME_ELAPSED:2019.426354;LAYER:29
G4 S30 P0 
;TYPE:FILL
;MESH:10mm.stl
G1 F1233.4 X160.965 Y115.965 E56.04142
G1 X169.035 Y124.035 E56.14876
G1 X169.034 Y118.918 E56.19688
G1 X160.964 Y121.08 E56.27546
G1 X160.965 Y124.035 E56.30325
G1 X163.918 Y124.034 E56.33103
G1 X166.081 Y115.964 E56.40961
M204 S1500
G0 F9000 X169.525 Y124.525
G0 X169.795 Y124.795
;TYPE:WALL-OUTER
G1 F1233.4 X169.795 Y115.205 E56.4998 ;Moved 4 lines
G1 X160.205 Y115.205 E56.59 ;Moved 4 lines
G1 X160.205 Y124.795 E56.6802 ;Moved 4 lines
G1 X169.795 Y124.795 E56.77039 ;Moved 4 lines
G0 F9000 X169.795 Y124.595
G0 X169.395 Y124.395
;TYPE:WALL-INNER
G1 F1233.4 X169.395 Y115.605 E56.85306
G1 X160.605 Y115.605 E56.93574
G1 X160.605 Y124.395 E57.01841
G1 X169.395 Y124.395 E57.10108
M204 S3500
G0 F9000 X168.795 Y123.913
;MESH:NONMESH
G0 F600 X168.795 Y123.913 Z12.5
G0 F9000 X169.035 Y115.965
;TIME_ELAPSED:2085.674744;LAYER:30
G4 S30 P0 
;TYPE:FILL
;MESH:10mm.stl
G1 F1233.4 X160.965 Y115.965 E57.17698
G1 X169.035 Y124.035 E57.28432
G1 X169.034 Y118.918 E57.33245
G1 X160.964 Y121.08 E57.41103
G1 X160.965 Y124.035 E57.43882
G1 X163.918 Y124.034 E57.46659
G1 X166.081 Y115.964 E57.54517
M204 S1500
G0 F9000 X169.525 Y124.525
G0 X169.795 Y124.795
;TYPE:WALL-OUTER
G1 F1233.4 X169.795 Y115.205 E57.63537 ;Moved 0 lines
G1 X160.205 Y115.205 E57.72557 ;Moved 0 lines
G1 X160.205 Y124.795 E57.81576 ;Moved 0 lines
G1 X169.795 Y124.795 E57.90596 ;Moved 0 lines
G0 F9000 X169.795 Y124.595
G0 X169.395 Y124.395
;TYPE:WALL-INNER
G1 F1233.4 X169.395 Y115.605 E57.98863
G1 X160.605 Y115.605 E58.0713
G1 X160.605 Y124.395 E58.15398
G1 X169.395 Y124.395 E58.23665
M204 S3500
G0 F9000 X168.795 Y123.913
;MESH:NONMESH
G0 F600 X168.795 Y123.913 Z12.649999999999999
G0 F9000 X169.035 Y115.965
;TIME_ELAPSED:2151.9231330000002;LAYER:31
G4 S30 P0 
;TYPE:FILL
;MESH:10mm.stl
G1 F1233.4 X160.965 Y115.965 E58.31255
G1 X169.035 Y124.035 E58.41989
G1 X169.034 Y118.918 E58.46801
G1 X160.964 Y121.08 E58.54659
G1 X160.965 Y124.035 E58.57438
G1 X163.918 Y124.034 E58.60216
G1 X166.081 Y115.964 E58.68074
M204 S1500
G0 F9000 X169.525 Y124.525
G0 X169.795 Y124.795
;TYPE:WALL-OUTER
G1 F1233.4 X169.795 Y124.795 E59.04152 ;Moved 1 lines
G1 X169.795 Y115.205 E58.77093 ;Moved 1 lines
G1 X160.205 Y115.205 E58.86113 ;Moved 1 lines
G1 X160.205 Y124.795 E58.95133 ;Moved 1 lines
G0 F9000 X169.795 Y124.595
G0 X169.395 Y124.395
;TYPE:WALL-INNER
G1 F1233.4 X169.395 Y115.605 E59.1242
G1 X160.605 Y115.605 E59.20687
G1 X160.605 Y124.395 E59.28954
G1 X169.395 Y124.395 E59.37221
M204 S3500
G0 F9000 X168.795 Y123.913
;MESH:NONMESH
G0 F600 X168.795 Y123.913 Z12.8
G0 F9000 X169.035 Y115.965
;TIME_ELAPSED:2218.171522;LAYER:32
G4 S30 P0 
;TYPE:FILL
;MESH:10mm.stl
G1 F1233.4 X160.965 Y115.965 E59.44811
G1 X169.035 Y124.035 E59.55545
G1 X169.034 Y118.918 E59.60358
G1 X160.964 Y121.08 E59.68216
G1 X160.965 Y124.035 E59.70995
G1 X163.918 Y124.034 E59.73772
G1 X166.081 Y115.964 E59.8163
M204 S1500
G0 F9000 X169.525 Y124.525
G0 X169.795 Y124.795
;TYPE:WALL-OUTER
G1 F1233.4 X160.205 Y124.795 E60.08689 ;Moved 2 lines
G1 X169.795 Y124.795 E60.17709 ;Moved 2 lines
G1 X169.795 Y115.205 E59.9065 ;Moved 2 lines
G1 X160.205 Y115.205 E59.9967 ;Moved 2 lines
G0 F9000 X169.795 Y124.595
G0 X169.395 Y124.395
;TYPE:WALL-INNER
G1 F1233.4 X169.395 Y115.605 E60.25976
G1 X160.605 Y115.605 E60.34244
G1 X160.605 Y124.395 E60.42511
G1 X169.395 Y124.395 E60.50778
M204 S3500
G0 F9000 X168.795 Y123.913
;MESH:NONMESH
G0 F600 X168.795 Y123.913 Z12.95
G0 F9000 X169.035 Y115.965
;TIME_ELAPSED:2284.419911;LAYER:33
G4 S30 P0 
;TYPE:FILL
;MESH:10mm.stl
G1 F1233.4 X160.965 Y115.965 E60.58368
G1 X169.035 Y124.035 E60.69102
G1 X169.034 Y118.918 E60.73915
G1 X160.964 Y121.08 E60.81772
G1 X160.965 Y124.035 E60.84552
G1 X163.918 Y124.034 E60.87329
G1 X166.081 Y115.964 E60.95187
M204 S1500
G0 F9000 X169.525 Y124.525
G0 X169.795 Y124.795
;TYPE:WALL-OUTER
G1 F1233.4 X160.205 Y124.795 E61.22246 ;Moved 2 lines
G1 X169.795 Y124.795 E61.31266 ;Moved 2 lines
G1 X169.795 Y115.205 E61.04207 ;Moved 2 lines
G1 X160.205 Y115.205 E61.13226 ;Moved 2 lines
G0 F9000 X169.795 Y124.595
G0 X169.395 Y124.395
;TYPE:WALL-INNER
G1 F1233.4 X169.395 Y115.605 E61.39533
G1 X160.605 Y115.605 E61.478
G1 X160.605 Y124.395 E61.56067
G1 X169.395 Y124.395 E61.64335
M204 S3500
G0 F9000 X168.795 Y123.913
;MESH:NONMESH
G0 F600 X168.795 Y123.913 Z13.1
G0 F9000 X169.035 Y115.965
;TIME_ELAPSED:2350.6683009999997;LAYER:34
G4 S30 P0 
;TYPE:FILL
;MESH:10mm.stl
G1 F1233.4 X160.965 Y115.965 E61.71925
G1 X169.035 Y124.035 E61.82659
G1 X169.034 Y118.918 E61.87471
G1 X160.964 Y121.08 E61.95329
G1 X160.965 Y124.035 E61.98108
G1 X163.918 Y124.034 E62.00886
G1 X166.081 Y115.964 E62.08744
M204 S1500
G0 F9000 X169.525 Y124.525
G0 X169.795 Y124.795
;TYPE:WALL-OUTER
G1 F1233.4 X160.205 Y115.205 E62.26783 ;Moved 3 lines
G1 X160.205 Y124.795 E62.35803 ;Moved 3 lines
G1 X169.795 Y124.795 E62.44822 ;Moved 3 lines
G1 X169.795 Y115.205 E62.17763 ;Moved 3 lines
G0 F9000 X169.795 Y124.595
G0 X169.395 Y124.395
;TYPE:WALL-INNER
G1 F1233.4 X169.395 Y115.605 E62.5309
G1 X160.605 Y115.605 E62.61357
G1 X160.605 Y124.395 E62.69624
G1 X169.395 Y124.395 E62.77891
M204 S3500
G0 F9000 X168.795 Y123.913
;MESH:NONMESH
G0 F600 X168.795 Y123.913 Z13.25
G0 F9000 X169.035 Y115.965
;TIME_ELAPSED:2416.91669;LAYER:35
G4 S30 P0 
;TYPE:FILL
;MESH:10mm.stl
G1 F1233.4 X160.965 Y115.965 E62.85481
G1 X169.035 Y124.035 E62.96215
G1 X169.034 Y118.918 E63.01028
G1 X160.964 Y121.08 E63.08886
G1 X160.965 Y124.035 E63.11665
G1 X163.918 Y124.034 E63.14442
G1 X166.081 Y115.964 E63.223
M204 S1500
G0 F9000 X169.525 Y124.525
G0 X169.795 Y124.795
;TYPE:WALL-OUTER
G1 F1233.4 X169.795 Y115.205 E63.3132 ;Moved 4 lines
G1 X160.205 Y115.205 E63.4034 ;Moved 4 lines
G1 X160.205 Y124.795 E63.49359 ;Moved 4 lines
G1 X169.795 Y124.795 E63.58379 ;Moved 4 lines
G0 F9000 X169.795 Y124.595
G0 X169.395 Y124.395
;TYPE:WALL-INNER
G1 F1233.4 X169.395 Y115.605 E63.66646
G1 X160.605 Y115.605 E63.74914
G1 X160.605 Y124.395 E63.83181
G1 X169.395 Y124.395 E63.91448
M204 S3500
G0 F9000 X168.795 Y123.913
;MESH:NONMESH
G0 F600 X168.795 Y123.913 Z13.399999999999999
G0 F9000 X169.035 Y115.965
;TIME_ELAPSED:2483.165079;LAYER:36
G4 S30 P0 
;TYPE:FILL
;MESH:10mm.stl
G1 F1233.4 X160.965 Y115.965 E63.99038
G1 X169.035 Y124.035 E64.09772
G1 X169.034 Y118.918 E64.14585
G1 X160.964 Y121.08 E64.22442
G1 X160.965 Y124.035 E64.25222
G1 X163.918 Y124.034 E64.27999
G1 X166.081 Y115.964 E64.35857
M204 S1500
G0 F9000 X169.525 Y124.525
G0 X169.795 Y124.795
;TYPE:WALL-OUTER
G1 F1233.4 X169.795 Y115.205 E64.44877 ;Moved 0 lines
G1 X160.205 Y115.205 E64.53896 ;Moved 0 lines
G1 X160.205 Y124.795 E64.62916 ;Moved 0 lines
G1 X169.795 Y124.795 E64.71936 ;Moved 0 lines
G0 F9000 X169.795 Y124.595
G0 X169.395 Y124.395
;TYPE:WALL-INNER
G1 F1233.4 X169.395 Y115.605 E64.80203
G1 X160.605 Y115.605 E64.8847
G1 X160.605 Y124.395 E64.96737
G1 X169.395 Y124.395 E65.05005
M204 S3500
G0 F9000 X168.795 Y123.913
;MESH:NONMESH
G0 F600 X168.795 Y123.913 Z13.55
G0 F9000 X169.035 Y115.965
;TIME_ELAPSED:2549.4134679999997;LAYER:37
G4 S30 P0 
;TYPE:FILL
;MESH:10mm.stl
G1 F1233.4 X160.965 Y115.965 E65.12595
G1 X169.035 Y124.035 E65.23329
G1 X169.034 Y118.918 E65.28141
G1 X160.964 Y121.08 E65.35999
G1 X160.965 Y124.035 E65.38778
G1 X163.918 Y124.034 E65.41556
G1 X166.081 Y115.964 E65.49414
M204 S1500
G0 F9000 X169.525 Y124.525
G0 X169.795 Y124.795
;TYPE:WALL-OUTER
G1 F1233.4 X169.795 Y124.795 E65.85492 ;Moved 1 lines
G1 X169.795 Y115.205 E65.58433 ;Moved 1 lines
G1 X160.205 Y115.205 E65.67453 ;Moved 1 lines
G1 X160.205 Y124.795 E65.76473 ;Moved 1 lines
G0 F9000 X169.795 Y124.595
G0 X169.395 Y124.395
;TYPE:WALL-INNER
G1 F1233.4 X169.395 Y115.605 E65.9376
G1 X160.605 Y115.605 E66.02027
G1 X160.605 Y124.395 E66.10294
G1 X169.395 Y124.395 E66.18561
M204 S3500
G0 F9000 X168.795 Y123.913
;MESH:NONMESH
G0 F600 X168.795 Y123.913 Z13.7
G0 F9000 X169.035 Y115.965
;TIME_ELAPSED:2615.661858;LAYER:38
G4 S30 P0 
;TYPE:FILL
;MESH:10mm.stl
G1 F1233.4 X160.965 Y115.965 E66.26151
G1 X169.035 Y124.035 E66.36885
G1 X169.034 Y118.918 E66.41698
G1 X160.964 Y121.08 E66.49556
G1 X160.965 Y124.035 E66.52335
G1 X163.918 Y124.034 E66.55112
G1 X166.081 Y115.964 E66.6297
M204 S1500
G0 F9000 X169.525 Y124.525
G0 X169.795 Y124.795
;TYPE:WALL-OUTER
G1 F1233.4 X160.205 Y124.795 E66.90029 ;Moved 2 lines
G1 X169.795 Y124.795 E66.99049 ;Moved 2 lines
G1 X169.795 Y115.205 E66.7199 ;Moved 2 lines
G1 X160.205 Y115.205 E66.8101 ;Moved 2 lines
G0 F9000 X169.795 Y124.595
G0 X169.395 Y124.395
;TYPE:WALL-INNER
G1 F1233.4 X169.395 Y115.605 E67.07316
G1 X160.605 Y115.605 E67.15583
G1 X160.605 Y124.395 E67.23851
G1 X169.395 Y124.395 E67.32118
M204 S3500
G0 F9000 X168.795 Y123.913
;MESH:NONMESH
G0 F600 X168.795 Y123.913 Z13.85
G0 F9000 X169.035 Y115.965
;TIME_ELAPSED:2681.910247;LAYER:39
G4 S30 P0 
;TYPE:FILL
;MESH:10mm.stl
G1 F1233.4 X160.965 Y115.965 E67.39708
G1 X169.035 Y124.035 E67.50442
G1 X169.034 Y118.918 E67.55255
G1 X160.964 Y121.08 E67.63112
G1 X160.965 Y124.035 E67.65892
G1 X163.918 Y124.034 E67.68669
G1 X166.081 Y115.964 E67.76527
M204 S1500
G0 F9000 X169.525 Y124.525
G0 X169.795 Y124.795
;TYPE:WALL-OUTER
G1 F1233.4 X160.205 Y124.795 E68.03586 ;Moved 2 lines
G1 X169.795 Y124.795 E68.12606 ;Moved 2 lines
G1 X169.795 Y115.205 E67.85547 ;Moved 2 lines
G1 X160.205 Y115.205 E67.94566 ;Moved 2 lines
G0 F9000 X169.795 Y124.595
G0 X169.395 Y124.395
;TYPE:WALL-INNER
G1 F1233.4 X169.395 Y115.605 E68.20873
G1 X160.605 Y115.605 E68.2914
G1 X160.605 Y124.395 E68.37407
G1 X169.395 Y124.395 E68.45675
M204 S3500
G0 F9000 X168.795 Y123.913
;MESH:NONMESH
G0 F600 X168.795 Y123.913 Z14.0
G0 F9000 X169.035 Y115.965
;TIME_ELAPSED:2748.158636;LAYER:40
G4 S30 P0 
;TYPE:FILL
;MESH:10mm.stl
G1 F1233.4 X160.965 Y115.965 E68.53265
G1 X169.035 Y124.035 E68.63999
G1 X169.034 Y118.918 E68.68811
G1 X160.964 Y121.08 E68.76669
G1 X160.965 Y124.035 E68.79448
G1 X163.918 Y124.034 E68.82226
G1 X166.081 Y115.964 E68.90084
M204 S1500
G0 F9000 X169.525 Y124.525
G0 X169.795 Y124.795
;TYPE:WALL-OUTER
G1 F1233.4 X160.205 Y115.205 E69.08123 ;Moved 3 lines
G1 X160.205 Y124.795 E69.17143 ;Moved 3 lines
G1 X169.795 Y124.795 E69.26162 ;Moved 3 lines
G1 X169.795 Y115.205 E68.99103 ;Moved 3 lines
G0 F9000 X169.795 Y124.595
G0 X169.395 Y124.395
;TYPE:WALL-INNER
G1 F1233.4 X169.395 Y115.605 E69.34429
G1 X160.605 Y115.605 E69.42697
G1 X160.605 Y124.395 E69.50964
G1 X169.395 Y124.395 E69.59231
M204 S3500
G0 F9000 X168.795 Y123.913
;MESH:NONMESH
G0 F600 X168.795 Y123.913 Z14.149999999999999
G0 F9000 X169.035 Y115.965
;TIME_ELAPSED:2814.407025;LAYER:41
G4 S30 P0 
;TYPE:FILL
;MESH:10mm.stl
G1 F1233.4 X160.965 Y115.965 E69.66821
G1 X169.035 Y124.035 E69.77555
G1 X169.034 Y118.918 E69.82368
G1 X160.964 Y121.08 E69.90226
G1 X160.965 Y124.035 E69.93005
G1 X163.918 Y124.034 E69.95782
G1 X166.081 Y115.964 E70.0364
M204 S1500
G0 F9000 X169.525 Y124.525
G0 X169.795 Y124.795
;TYPE:WALL-OUTER
G1 F1233.4 X169.795 Y115.205 E70.1266 ;Moved 4 lines
G1 X160.205 Y115.205 E70.2168 ;Moved 4 lines
G1 X160.205 Y124.795 E70.30699 ;Moved 4 lines
G1 X169.795 Y124.795 E70.39719 ;Moved 4 lines
G0 F9000 X169.795 Y124.595
G0 X169.395 Y124.395
;TYPE:WALL-INNER
G1 F1233.4 X169.395 Y115.605 E70.47986
G1 X160.605 Y115.605 E70.56253
G1 X160.605 Y124.395 E70.64521
G1 X169.395 Y124.395 E70.72788
M204 S3500
G0 F9000 X168.795 Y123.913
;MESH:NONMESH
G0 F600 X168.795 Y123.913 Z14.3
G0 F9000 X169.035 Y115.965
;TIME_ELAPSED:2880.655415;LAYER:42
G4 S30 P0 
;TYPE:FILL
;MESH:10mm.stl
G1 F1233.4 X160.965 Y115.965 E70.80378
G1 X169.035 Y124.035 E70.91112
G1 X169.034 Y118.918 E70.95925
G1 X160.964 Y121.08 E71.03782
G1 X160.965 Y124.035 E71.06562
G1 X163.918 Y124.034 E71.09339
G1 X166.081 Y115.964 E71.17197
M204 S1500
G0 F9000 X169.525 Y124.525
G0 X169.795 Y124.795
;TYPE:WALL-OUTER
G1 F1233.4 X169.795 Y115.205 E71.26217 ;Moved 0 lines
G1 X160.205 Y115.205 E71.35236 ;Moved 0 lines
G1 X160.205 Y124.795 E71.44256 ;Moved 0 lines
G1 X169.795 Y124.795 E71.53275 ;Moved 0 lines
G0 F9000 X169.795 Y124.595
G0 X169.395 Y124.395
;TYPE:WALL-INNER
G1 F1233.4 X169.395 Y115.605 E71.61543
G1 X160.605 Y115.605 E71.6981
G1 X160.605 Y124.395 E71.78077
G1 X169.395 Y124.395 E71.86344
M204 S3500
G0 F9000 X168.795 Y123.913
;MESH:NONMESH
G0 F600 X168.795 Y123.913 Z14.45
G0 F9000 X169.035 Y115.965
;TIME_ELAPSED:2946.903804;LAYER:43
G4 S30 P0 
;TYPE:FILL
;MESH:10mm.stl
G1 F1233.4 X160.965 Y115.965 E71.93935
G1 X169.035 Y124.035 E72.04668
G1 X169.034 Y118.918 E72.09481
G1 X160.964 Y121.08 E72.17339
G1 X160.965 Y124.035 E72.20118
G1 X163.918 Y124.034 E72.22896
G1 X166.081 Y115.964 E72.30753
M204 S1500
G0 F9000 X169.525 Y124.525
G0 X169.795 Y124.795
;TYPE:WALL-OUTER
G1 F1233.4 X169.795 Y124.795 E72.66832 ;Moved 1 lines
G1 X169.795 Y115.205 E72.39773 ;Moved 1 lines
G1 X160.205 Y115.205 E72.48793 ;Moved 1 lines
G1 X160.205 Y124.795 E72.57812 ;Moved 1 lines
G0 F9000 X169.795 Y124.595
G0 X169.395 Y124.395
;TYPE:WALL-INNER
G1 F1233.4 X169.395 Y115.605 E72.75099
G1 X160.605 Y115.605 E72.83367
G1 X160.605 Y124.395 E72.91634
G1 X169.395 Y124.395 E72.99901
M204 S3500
G0 F9000 X168.795 Y123.913
;MESH:NONMESH
G0 F600 X168.795 Y123.913 Z14.6
G0 F9000 X169.035 Y115.965
;TIME_ELAPSED:3013.152193;LAYER:44
G4 S30 P0 
;TYPE:FILL
;MESH:10mm.stl
G1 F1233.4 X160.965 Y115.965 E73.07491
G1 X169.035 Y124.035 E73.18225
G1 X169.034 Y118.918 E73.23038
G1 X160.964 Y121.08 E73.30896
G1 X160.965 Y124.035 E73.33675
G1 X163.918 Y124.034 E73.36452
G1 X166.081 Y115.964 E73.4431
M204 S1500
G0 F9000 X169.525 Y124.525
G0 X169.795 Y124.795
;TYPE:WALL-OUTER
G1 F1233.4 X160.205 Y124.795 E73.71369 ;Moved 2 lines
G1 X169.795 Y124.795 E73.80389 ;Moved 2 lines
G1 X169.795 Y115.205 E73.5333 ;Moved 2 lines
G1 X160.205 Y115.205 E73.62349 ;Moved 2 lines
G0 F9000 X169.795 Y124.595
G0 X169.395 Y124.395
;TYPE:WALL-INNER
G1 F1233.4 X169.395 Y115.605 E73.88656
G1 X160.605 Y115.605 E73.96923
G1 X160.605 Y124.395 E74.0519
G1 X169.395 Y124.395 E74.13458
M204 S3500
G0 F9000 X168.795 Y123.913
;MESH:NONMESH
G0 F600 X168.795 Y123.913 Z14.75
G0 F9000 X169.035 Y115.965
;TIME_ELAPSED:3079.400582;LAYER:45
G4 S30 P0 
;TYPE:FILL
;MESH:10mm.stl
G1 F1233.4 X160.965 Y115.965 E74.21048
G1 X169.035 Y124.035 E74.31782
G1 X169.034 Y118.918 E74.36594
G1 X160.964 Y121.08 E74.44452
G1 X160.965 Y124.035 E74.47231
G1 X163.918 Y124.034 E74.50009
G1 X166.081 Y115.964 E74.57867
M204 S1500
G0 F9000 X169.525 Y124.525
G0 X169.795 Y124.795
;TYPE:WALL-OUTER
G1 F1233.4 X160.205 Y124.795 E74.84926 ;Moved 2 lines
G1 X169.795 Y124.795 E74.93945 ;Moved 2 lines
G1 X169.795 Y115.205 E74.66886 ;Moved 2 lines
G1 X160.205 Y115.205 E74.75906 ;Moved 2 lines
G0 F9000 X169.795 Y124.595
G0 X169.395 Y124.395
;TYPE:WALL-INNER
G1 F1233.4 X169.395 Y115.605 E75.02213
G1 X160.605 Y115.605 E75.1048
G1 X160.605 Y124.395 E75.18747
G1 X169.395 Y124.395 E75.27014
M204 S3500
G0 F9000 X168.795 Y123.913
;MESH:NONMESH
G0 F600 X168.795 Y123.913 Z14.899999999999999
G0 F9000 X169.035 Y115.965
;TIME_ELAPSED:3145.648972;LAYER:46
G4 S30 P0 
;TYPE:FILL
;MESH:10mm.stl
G1 F1233.4 X160.965 Y115.965 E75.34604
G1 X169.035 Y124.035 E75.45338
G1 X169.034 Y118.918 E75.50151
G1 X160.964 Y121.08 E75.58009
G1 X160.965 Y124.035 E75.60788
G1 X163.918 Y124.034 E75.63565
G1 X166.081 Y115.964 E75.71423
M204 S1500
G0 F9000 X169.525 Y124.525
G0 X169.795 Y124.795
;TYPE:WALL-OUTER
G1 F1233.4 X160.205 Y115.205 E75.89463 ;Moved 3 lines
G1 X160.205 Y124.795 E75.98482 ;Moved 3 lines
G1 X169.795 Y124.795 E76.07502 ;Moved 3 lines
G1 X169.795 Y115.205 E75.80443 ;Moved 3 lines
G0 F9000 X169.795 Y124.595
G0 X169.395 Y124.395
;TYPE:WALL-INNER
G1 F1233.4 X169.395 Y115.605 E76.15769
G1 X160.605 Y115.605 E76.24037
G1 X160.605 Y124.395 E76.32304
G1 X169.395 Y124.395 E76.40571
M204 S3500
G0 F9000 X168.795 Y123.913
;MESH:NONMESH
G0 F600 X168.795 Y123.913 Z15.05
G0 F9000 X169.035 Y115.965
;TIME_ELAPSED:3211.8973610000003;LAYER:47
G4 S30 P0 
;TYPE:FILL
;MESH:10mm.stl
G1 F1233.4 X160.965 Y115.965 E76.48161
G1 X169.035 Y124.035 E76.58895
G1 X169.034 Y118.918 E76.63708
G1 X160.964 Y121.08 E76.71565
G1 X160.965 Y124.035 E76.74345
G1 X163.918 Y124.034 E76.77122
G1 X166.081 Y115.964 E76.8498
M204 S1500
G0 F9000 X169.525 Y124.525
G0 X169.795 Y124.795
;TYPE:WALL-OUTER
G1 F1233.4 X169.795 Y115.205 E76.94 ;Moved 4 lines
G1 X160.205 Y115.205 E77.03019 ;Moved 4 lines
G1 X160.205 Y124.795 E77.12039 ;Moved 4 lines
G1 X169.795 Y124.795 E77.21059 ;Moved 4 lines
G0 F9000 X169.795 Y124.595
G0 X169.395 Y124.395
;TYPE:WALL-INNER
G1 F1233.4 X169.395 Y115.605 E77.29326
G1 X160.605 Y115.605 E77.37593
G1 X160.605 Y124.395 E77.4586
G1 X169.395 Y124.395 E77.54128
M204 S3500
G0 F9000 X168.795 Y123.913
;MESH:NONMESH
G0 F600 X168.795 Y123.913 Z15.2
G0 F9000 X169.035 Y115.965
;TIME_ELAPSED:3278.14575;LAYER:48
G4 S30 P0 
;TYPE:FILL
;MESH:10mm.stl
G1 F1233.4 X160.965 Y115.965 E77.61718
G1 X169.035 Y124.035 E77.72452
G1 X169.034 Y118.918 E77.77264
G1 X160.964 Y121.08 E77.85122
G1 X160.965 Y124.035 E77.87901
G1 X163.918 Y124.034 E77.90679
G1 X166.081 Y115.964 E77.98537
M204 S1500
G0 F9000 X169.525 Y124.525
G0 X169.795 Y124.795
;TYPE:WALL-OUTER
G1 F1233.4 X169.795 Y115.205 E78.07556 ;Moved 0 lines
G1 X160.205 Y115.205 E78.16576 ;Moved 0 lines
G1 X160.205 Y124.795 E78.25596 ;Moved 0 lines
G1 X169.795 Y124.795 E78.34615 ;Moved 0 lines
G0 F9000 X169.795 Y124.595
G0 X169.395 Y124.395
;TYPE:WALL-INNER
G1 F1233.4 X169.395 Y115.605 E78.42883
G1 X160.605 Y115.605 E78.5115
G1 X160.605 Y124.395 E78.59417
G1 X169.395 Y124.395 E78.67684
M204 S3500
G0 F9000 X168.795 Y123.913
;MESH:NONMESH
G0 F600 X168.795 Y123.913 Z15.35
G0 F9000 X169.035 Y115.965
;TIME_ELAPSED:3344.394139;LAYER:49
G4 S30 P0 
;TYPE:FILL
;MESH:10mm.stl
G1 F1233.4 X160.965 Y115.965 E78.75274
G1 X169.035 Y124.035 E78.86008
G1 X169.034 Y118.918 E78.90821
G1 X160.964 Y121.08 E78.98679
G1 X160.965 Y124.035 E79.01458
G1 X163.918 Y124.034 E79.04235
G1 X166.081 Y115.964 E79.12093
M204 S1500
G0 F9000 X169.525 Y124.525
G0 X169.795 Y124.795
;TYPE:WALL-OUTER
G1 F1233.4 X169.795 Y124.795 E79.48172 ;Moved 1 lines
G1 X169.795 Y115.205 E79.21113 ;Moved 1 lines
G1 X160.205 Y115.205 E79.30133 ;Moved 1 lines
G1 X160.205 Y124.795 E79.39152 ;Moved 1 lines
G0 F9000 X169.795 Y124.595
G0 X169.395 Y124.395
;TYPE:WALL-INNER
G1 F1233.4 X169.395 Y115.605 E79.56439
G1 X160.605 Y115.605 E79.64706
G1 X160.605 Y124.395 E79.72974
G1 X169.395 Y124.395 E79.81241
M204 S3500
G0 F9000 X168.795 Y123.913
;MESH:NONMESH
G0 F600 X168.795 Y123.913 Z15.5
G0 F9000 X169.035 Y115.965
;TIME_ELAPSED:3410.6425289999997;LAYER:50
G4 S30 P0 
;TYPE:FILL
;MESH:10mm.stl
G1 F1233.4 X160.965 Y115.965 E79.88831
G1 X169.035 Y124.035 E79.99565
G1 X169.034 Y118.918 E80.04378
G1 X160.964 Y121.08 E80.12235
G1 X160.965 Y124.035 E80.15015
G1 X163.918 Y124.034 E80.17792
G1 X166.081 Y115.964 E80.2565
M204 S1500
G0 F9000 X169.525 Y124.525
G0 X169.795 Y124.795
;TYPE:WALL-OUTER
G1 F1233.4 X160.205 Y124.795 E80.52709 ;Moved 2 lines
G1 X169.795 Y124.795 E80.61729 ;Moved 2 lines
G1 X169.795 Y115.205 E80.3467 ;Moved 2 lines
G1 X160.205 Y115.205 E80.43689 ;Moved 2 lines
G0 F9000 X169.795 Y124.595
G0 X169.395 Y124.395
;TYPE:WALL-INNER
G1 F1233.4 X169.395 Y115.605 E80.69996
G1 X160.605 Y115.605 E80.78263
G1 X160.605 Y124.395 E80.8653
G1 X169.395 Y124.395 E80.94798
M204 S3500
G0 F9000 X168.795 Y123.913
;MESH:NONMESH
G0 F600 X168.795 Y123.913 Z15.649999999999999
G0 F9000 X169.035 Y115.965
;TIME_ELAPSED:3476.890918;LAYER:51
G4 S30 P0 
;TYPE:FILL
;MESH:10mm.stl
G1 F1233.4 X160.965 Y115.965 E81.02388
G1 X169.035 Y124.035 E81.13122
G1 X169.034 Y118.918 E81.17934
G1 X160.964 Y121.08 E81.25792
G1 X160.965 Y124.035 E81.28571
G1 X163.918 Y124.034 E81.31349
G1 X166.081 Y115.964 E81.39207
M204 S1500
G0 F9000 X169.525 Y124.525
G0 X169.795 Y124.795
;TYPE:WALL-OUTER
G1 F1233.4 X160.205 Y124.795 E81.66266 ;Moved 2 lines
G1 X169.795 Y124.795 E81.75285 ;Moved 2 lines
G1 X169.795 Y115.205 E81.48226 ;Moved 2 lines
G1 X160.205 Y115.205 E81.57246 ;Moved 2 lines
G0 F9000 X169.795 Y124.595
G0 X169.395 Y124.395
;TYPE:WALL-INNER
G1 F1233.4 X169.395 Y115.605 E81.83552
G1 X160.605 Y115.605 E81.9182
G1 X160.605 Y124.395 E82.00087
G1 X169.395 Y124.395 E82.08354
M204 S3500
G0 F9000 X168.795 Y123.913
;MESH:NONMESH
G0 F600 X168.795 Y123.913 Z15.8
G0 F9000 X169.035 Y115.965
;TIME_ELAPSED:3543.139307;LAYER:52
G4 S30 P0 
;TYPE:FILL
;MESH:10mm.stl
G1 F1233.4 X160.965 Y115.965 E82.15944
G1 X169.035 Y124.035 E82.26678
G1 X169.034 Y118.918 E82.31491
G1 X160.964 Y121.08 E82.39349
G1 X160.965 Y124.035 E82.42128
G1 X163.918 Y124.034 E82.44905
G1 X166.081 Y115.964 E82.52763
M204 S1500
G0 F9000 X169.525 Y124.525
G0 X169.795 Y124.795
;TYPE:WALL-OUTER
G1 F1233.4 X160.205 Y115.205 E82.70803 ;Moved 3 lines
G1 X160.205 Y124.795 E82.79822 ;Moved 3 lines
G1 X169.795 Y124.795 E82.88842 ;Moved 3 lines
G1 X169.795 Y115.205 E82.61783 ;Moved 3 lines
G0 F9000 X169.795 Y124.595
G0 X169.395 Y124.395
;TYPE:WALL-INNER
G1 F1233.4 X169.395 Y115.605 E82.97109
G1 X160.605 Y115.605 E83.05376
G1 X160.605 Y124.395 E83.13644
G1 X169.395 Y124.395 E83.21911
M204 S3500
G0 F9000 X168.795 Y123.913
;MESH:NONMESH
G0 F600 X168.795 Y123.913 Z15.95
G0 F9000 X169.035 Y115.965
;TIME_ELAPSED:3609.387696;LAYER:53
G4 S30 P0 
;TYPE:FILL
;MESH:10mm.stl
G1 F1233.4 X160.965 Y115.965 E83.29501
G1 X169.035 Y124.035 E83.40235
G1 X169.034 Y118.918 E83.45048
G1 X160.964 Y121.08 E83.52905
G1 X160.965 Y124.035 E83.55685
G1 X163.918 Y124.034 E83.58462
G1 X166.081 Y115.964 E83.6632
M204 S1500
G0 F9000 X169.525 Y124.525
G0 X169.795 Y124.795
;TYPE:WALL-OUTER
G1 F1233.4 X169.795 Y115.205 E83.7534 ;Moved 4 lines
G1 X160.205 Y115.205 E83.84359 ;Moved 4 lines
G1 X160.205 Y124.795 E83.93379 ;Moved 4 lines
G1 X169.795 Y124.795 E84.02399 ;Moved 4 lines
G0 F9000 X169.795 Y124.595
G0 X169.395 Y124.395
;TYPE:WALL-INNER
G1 F1233.4 X169.395 Y115.605 E84.10666
G1 X160.605 Y115.605 E84.18933
G1 X160.605 Y124.395 E84.272
G1 X169.395 Y124.395 E84.35467
M204 S3500
G0 F9000 X168.795 Y123.913
;MESH:NONMESH
G0 F600 X168.795 Y123.913 Z16.1
G0 F9000 X169.035 Y115.965
;TIME_ELAPSED:3675.636086;LAYER:54
G4 S30 P0 
;TYPE:FILL
;MESH:10mm.stl
G1 F1233.4 X160.965 Y115.965 E84.43058
G1 X169.035 Y124.035 E84.53792
G1 X169.034 Y118.918 E84.58604
G1 X160.964 Y121.08 E84.66462
G1 X160.965 Y124.035 E84.69241
G1 X163.918 Y124.034 E84.72019
G1 X166.081 Y115.964 E84.79877
M204 S1500
G0 F9000 X169.525 Y124.525
G0 X169.795 Y124.795
;TYPE:WALL-OUTER
G1 F1233.4 X169.795 Y115.205 E84.88896 ;Moved 0 lines
G1 X160.205 Y115.205 E84.97916 ;Moved 0 lines
G1 X160.205 Y124.795 E85.06936 ;Moved 0 lines
G1 X169.795 Y124.795 E85.15955 ;Moved 0 lines
G0 F9000 X169.795 Y124.595
G0 X169.395 Y124.395
;TYPE:WALL-INNER
G1 F1233.4 X169.395 Y115.605 E85.24222
G1 X160.605 Y115.605 E85.3249
G1 X160.605 Y124.395 E85.40757
G1 X169.395 Y124.395 E85.49024
M204 S3500
G0 F9000 X168.795 Y123.913
;MESH:NONMESH
G0 F600 X168.795 Y123.913 Z16.25
G0 F9000 X169.035 Y124.035
;TIME_ELAPSED:3741.806259;LAYER:55
G4 S30 P0 
;TYPE:FILL
;MESH:10mm.stl
G1 F1710.6 X169.035 Y115.965 E85.56614
G1 X160.965 Y115.965 E85.64204
G1 X160.965 Y124.035 E85.71794
G1 X169.035 Y124.035 E85.79384
G0 F9000 X168.635 Y116.365
G1 F1710.6 X161.363 Y116.365 E85.86224
G1 X168.635 Y123.635 E85.95895
G1 X168.634 Y119.025 E86.00231
G1 X161.364 Y120.973 E86.0731
G1 X161.365 Y123.635 E86.09813
G1 X164.026 Y123.634 E86.12316
G1 X165.974 Y116.364 E86.19395
M204 S1500
G0 F9000 X169.525 Y124.525
G0 X169.795 Y124.795
;TYPE:WALL-OUTER
G1 F1380 X169.795 Y124.795 E86.55474 ;Moved 1 lines
G1 X169.795 Y115.205 E86.28415 ;Moved 1 lines
G1 X160.205 Y115.205 E86.37434 ;Moved 1 lines
G1 X160.205 Y124.795 E86.46454 ;Moved 1 lines
G0 F9000 X169.795 Y124.595
G0 X169.395 Y124.395
;TYPE:WALL-INNER
G1 F1534.7 X169.395 Y115.605 E86.63741
G1 X160.605 Y115.605 E86.72008
G1 X160.605 Y124.395 E86.80275
G1 X169.395 Y124.395 E86.88543
M204 S3500
G0 F9000 X168.795 Y123.913
;MESH:NONMESH
G0 F600 X168.795 Y123.913 Z16.4
G0 F9000 X169.035 Y124.035
;TIME_ELAPSED:3807.886928;LAYER:56
G4 S30 P0 
;TYPE:FILL
;MESH:10mm.stl
G1 F1710.6 X169.035 Y115.965 E86.96133
G1 X160.965 Y115.965 E87.03723
G1 X160.965 Y124.035 E87.11313
G1 X169.035 Y124.035 E87.18903
G0 F9000 X168.635 Y116.365
G1 F1710.6 X161.363 Y116.365 E87.25742
G1 X168.635 Y123.635 E87.35414
G1 X168.634 Y119.025 E87.39749
G1 X161.364 Y120.973 E87.46828
G1 X161.365 Y123.635 E87.49332
G1 X164.026 Y123.634 E87.51835
G1 X165.974 Y116.364 E87.58914
M204 S1500
G0 F9000 X169.525 Y124.525
G0 X169.795 Y124.795
;TYPE:WALL-OUTER
G1 F1380 X160.205 Y124.795 E87.85973 ;Moved 2 lines
G1 X169.795 Y124.795 E87.94992 ;Moved 2 lines
G1 X169.795 Y115.205 E87.67933 ;Moved 2 lines
G1 X160.205 Y115.205 E87.76953 ;Moved 2 lines
G0 F9000 X169.795 Y124.595
G0 X169.395 Y124.395
;TYPE:WALL-INNER
G1 F1534.7 X169.395 Y115.605 E88.03259
G1 X160.605 Y115.605 E88.11527
G1 X160.605 Y124.395 E88.19794
G1 X169.395 Y124.395 E88.28061
M204 S3500
G0 F9000 X168.795 Y123.913
;MESH:NONMESH
G0 F600 X168.795 Y123.913 Z16.55
G0 F9000 X169.035 Y124.035
;TIME_ELAPSED:3873.967597;LAYER:57
G4 S30 P0 
;TYPE:FILL
;MESH:10mm.stl
G1 F1710.6 X169.035 Y115.965 E88.35651
G1 X160.965 Y115.965 E88.43241
G1 X160.965 Y124.035 E88.50831
G1 X169.035 Y124.035 E88.58421
G0 F9000 X168.635 Y116.365
G1 F1710.6 X161.363 Y116.365 E88.65261
G1 X168.635 Y123.635 E88.74932
G1 X168.634 Y119.025 E88.79268
G1 X161.364 Y120.973 E88.86347
G1 X161.365 Y123.635 E88.88851
G1 X164.026 Y123.634 E88.91353
G1 X165.974 Y116.364 E88.98432
M204 S1500
G0 F9000 X169.525 Y124.525
G0 X169.795 Y124.795
;TYPE:WALL-OUTER
G1 F1380 X160.205 Y124.795 E89.25491 ;Moved 2 lines
G1 X169.795 Y124.795 E89.34511 ;Moved 2 lines
G1 X169.795 Y115.205 E89.07452 ;Moved 2 lines
G1 X160.205 Y115.205 E89.16471 ;Moved 2 lines
G0 F9000 X169.795 Y124.595
G0 X169.395 Y124.395
;TYPE:WALL-INNER
G1 F1534.7 X169.395 Y115.605 E89.42778
G1 X160.605 Y115.605 E89.51045
G1 X160.605 Y124.395 E89.59312
G1 X169.395 Y124.395 E89.6758
M204 S3500
G0 F9000 X168.795 Y123.913
;MESH:NONMESH
G0 F600 X168.795 Y123.913 Z16.7
G0 F9000 X169.035 Y124.035
;TIME_ELAPSED:3940.048266;LAYER:58
G4 S30 P0 
;TYPE:FILL
;MESH:10mm.stl
G1 F1710.6 X169.035 Y115.965 E89.7517
G1 X160.965 Y115.965 E89.8276
G1 X160.965 Y124.035 E89.9035
G1 X169.035 Y124.035 E89.9794
G0 F9000 X168.635 Y116.365
G1 F1710.6 X161.363 Y116.365 E90.04779
G1 X168.635 Y123.635 E90.14451
G1 X168.634 Y119.025 E90.18787
G1 X161.364 Y120.973 E90.25865
G1 X161.365 Y123.635 E90.28369
G1 X164.026 Y123.634 E90.30872
G1 X165.974 Y116.364 E90.37951
M204 S1500
G0 F9000 X169.525 Y124.525
G0 X169.795 Y124.795
;TYPE:WALL-OUTER
G1 F1380 X160.205 Y115.205 E90.5599 ;Moved 3 lines
G1 X160.205 Y124.795 E90.6501 ;Moved 3 lines
G1 X169.795 Y124.795 E90.74029 ;Moved 3 lines
G1 X169.795 Y115.205 E90.4697 ;Moved 3 lines
G0 F9000 X169.795 Y124.595
G0 X169.395 Y124.395
;TYPE:WALL-INNER
G1 F1534.7 X169.395 Y115.605 E90.82297
G1 X160.605 Y115.605 E90.90564
G1 X160.605 Y124.395 E90.98831
G1 X169.395 Y124.395 E91.07098
G0 F9000 X168.795 Y123.913
;MESH:NONMESH
G0 F600 X168.795 Y123.913 Z16.85
G0 F9000 X169.525 Y124.525
G0 X169.795 Y124.795
;TIME_ELAPSED:4006.179915;LAYER:59
G4 S30 P0 
;TYPE:WALL-OUTER
;MESH:10mm.stl
G1 F1380 X169.795 Y115.205 E91.16118
G1 X160.205 Y115.205 E91.25138
G1 X160.205 Y124.795 E91.34157
G1 X169.795 Y124.795 E91.43177
G0 F9000 X169.795 Y124.595
G0 X169.395 Y124.395
;TYPE:WALL-INNER
G1 F2700 X169.395 Y115.605 E91.51444
G1 X160.605 Y115.605 E91.59711
G1 X160.605 Y124.395 E91.67979
G1 X169.395 Y124.395 E91.76246
M204 S1000
G0 F9000 X169.075 Y124.075
;TYPE:SKIN
G1 F2100 X169.075 Y115.925 E91.83528
G1 X160.925 Y115.925 E91.9081
G1 X160.925 Y124.075 E91.98092
G1 X169.075 Y124.075 E92.05374
G0 F9000 X168.874 Y123.585
G1 F2100 X168.584 Y123.875 E92.0574
G0 F9000 X168.018 Y123.875
G1 F2100 X168.874 Y123.019 E92.06822
G0 F9000 X168.874 Y122.453
G1 F2100 X167.452 Y123.875 E92.08619
G0 F9000 X166.887 Y123.875
G1 F2100 X168.874 Y121.888 E92.1113
G0 F9000 X168.874 Y121.322
G1 F2100 X166.321 Y123.875 E92.14356
G0 F9000 X165.755 Y123.875
G1 F2100 X168.874 Y120.756 E92.18297
G0 F9000 X168.874 Y120.191
G1 F2100 X165.19 Y123.875 E92.22952
G0 F9000 X164.624 Y123.875
G1 F2100 X168.874 Y119.625 E92.28322
G0 F9000 X168.874 Y119.059
G1 F2100 X164.058 Y123.875 E92.34408
G0 F9000 X163.492 Y123.875
G1 F2100 X168.874 Y118.494 E92.41208
G0 F9000 X168.874 Y117.928
G1 F2100 X162.927 Y123.875 E92.48722
G0 F9000 X162.361 Y123.875
G1 F2100 X168.874 Y117.362 E92.56952
G0 F9000 X168.874 Y116.797
G1 F2100 X161.795 Y123.875 E92.65897
G0 F9000 X161.23 Y123.875
G1 F2100 X168.874 Y116.231 E92.75556
G0 F9000 X168.414 Y116.125
G1 F2100 X161.124 Y123.415 E92.84767
G0 F9000 X161.124 Y122.849
G1 F2100 X167.848 Y116.125 E92.93264
G0 F9000 X167.283 Y116.125
G1 F2100 X161.124 Y122.284 E93.01046
G0 F9000 X161.124 Y121.718
G1 F2100 X166.717 Y116.125 E93.08114
G0 F9000 X166.151 Y116.125
G1 F2100 X161.124 Y121.152 E93.14466
G0 F9000 X161.124 Y120.587
G1 F2100 X165.586 Y116.125 E93.20104
G0 F9000 X165.02 Y116.125
G1 F2100 X161.124 Y120.021 E93.25027
G0 F9000 X161.124 Y119.455
G1 F2100 X164.454 Y116.125 E93.29235
G0 F9000 X163.888 Y116.125
G1 F2100 X161.124 Y118.89 E93.32728
G0 F9000 X161.124 Y118.324
G1 F2100 X163.323 Y116.125 E93.35507
G0 F9000 X162.757 Y116.125
G1 F2100 X161.124 Y117.758 E93.3757
G0 F9000 X161.124 Y117.193
G1 F2100 X162.191 Y116.125 E93.38919
G0 F9000 X161.626 Y116.125
G1 F2100 X161.124 Y116.627 E93.39553
M204 S1500
G0 F9000 X161.205 Y116.627
;MESH:NONMESH
G0 F600 X161.205 Y116.627 Z17.0
G0 F9000 X169.525 Y124.525
G0 X169.795 Y124.795
;TIME_ELAPSED:4075.544488;LAYER:60
G4 S30 P0 
;TYPE:WALL-OUTER
;MESH:10mm.stl
G1 F1380 X169.795 Y115.205 E93.48573
G1 X160.205 Y115.205 E93.57593
G1 X160.205 Y124.795 E93.66612
G1 X169.795 Y124.795 E93.75632
G0 F9000 X169.795 Y124.595
G0 X169.395 Y124.395
;TYPE:WALL-INNER
G1 F2700 X169.395 Y115.605 E93.83899
G1 X160.605 Y115.605 E93.92166
G1 X160.605 Y124.395 E94.00434
G1 X169.395 Y124.395 E94.08701
M204 S1000
G0 F9000 X169.075 Y124.075
;TYPE:SKIN
G1 F2100 X169.075 Y115.925 E94.15983
G1 X160.925 Y115.925 E94.23265
G1 X160.925 Y124.075 E94.30547
G1 X169.075 Y124.075 E94.37829
G0 F9000 X168.874 Y116.265
G1 F2100 X168.734 Y116.125 E94.38006
G0 F9000 X168.168 Y116.125
G1 F2100 X168.874 Y116.831 E94.38898
G0 F9000 X168.874 Y117.396
G1 F2100 X167.602 Y116.125 E94.40505
G0 F9000 X167.037 Y116.125
G1 F2100 X168.874 Y117.962 E94.42826
G0 F9000 X168.874 Y118.528
G1 F2100 X166.471 Y116.125 E94.45862
G0 F9000 X165.905 Y116.125
G1 F2100 X168.874 Y119.093 E94.49613
G0 F9000 X168.874 Y119.659
G1 F2100 X165.339 Y116.125 E94.5408
G0 F9000 X164.774 Y116.125
G1 F2100 X168.874 Y120.225 E94.5926
G0 F9000 X168.874 Y120.79
G1 F2100 X164.208 Y116.125 E94.65156
G0 F9000 X163.642 Y116.125
G1 F2100 X168.874 Y121.356 E94.71766
G0 F9000 X168.874 Y121.922
G1 F2100 X163.077 Y116.125 E94.79091
G0 F9000 X162.511 Y116.125
G1 F2100 X168.874 Y122.487 E94.87131
G0 F9000 X168.874 Y123.053
G1 F2100 X161.945 Y116.125 E94.95886
G0 F9000 X161.38 Y116.125
G1 F2100 X168.874 Y123.619 E95.05355
G0 F9000 X168.564 Y123.875
G1 F2100 X161.124 Y116.435 E95.14757
G0 F9000 X161.124 Y117
G1 F2100 X167.998 Y123.875 E95.23443
G0 F9000 X167.432 Y123.875
G1 F2100 X161.124 Y117.566 E95.31415
G0 F9000 X161.124 Y118.132
G1 F2100 X166.867 Y123.875 E95.38671
G0 F9000 X166.301 Y123.875
G1 F2100 X161.124 Y118.697 E95.45214
G0 F9000 X161.124 Y119.263
G1 F2100 X165.735 Y123.875 E95.51041
G0 F9000 X165.17 Y123.875
G1 F2100 X161.124 Y119.829 E95.56153
G0 F9000 X161.124 Y120.394
G1 F2100 X164.604 Y123.875 E95.60551
G0 F9000 X164.038 Y123.875
G1 F2100 X161.124 Y120.96 E95.64234
G0 F9000 X161.124 Y121.526
G1 F2100 X163.473 Y123.875 E95.67202
G0 F9000 X162.907 Y123.875
G1 F2100 X161.124 Y122.091 E95.69456
G0 F9000 X161.124 Y122.657
G1 F2100 X162.341 Y123.875 E95.70994
G0 F9000 X161.776 Y123.875
G1 F2100 X161.124 Y123.223 E95.71818
G0 F9000 X161.124 Y123.788
G1 F2100 X161.21 Y123.875 E95.71928
M204 S1500
G0 F9000 X161.21 Y123.795
;MESH:NONMESH
G0 F600 X161.21 Y123.795 Z17.15
G0 F9000 X169.525 Y124.525
G0 X169.795 Y124.795
;TIME_ELAPSED:4145.039158;LAYER:61
G4 S30 P0 
;TYPE:WALL-OUTER
;MESH:10mm.stl
G1 F1380 X169.795 Y115.205 E95.80947
G1 X160.205 Y115.205 E95.89967
G1 X160.205 Y124.795 E95.98987
G1 X169.795 Y124.795 E96.08006
G0 F9000 X169.795 Y124.595
G0 X169.395 Y124.395
;TYPE:WALL-INNER
G1 F2700 X169.395 Y115.605 E96.16273
G1 X160.605 Y115.605 E96.24541
G1 X160.605 Y124.395 E96.32808
G1 X169.395 Y124.395 E96.41075
M204 S1000
G0 F9000 X169.075 Y124.075
;TYPE:SKIN
G1 F2100 X169.075 Y115.925 E96.48357
G1 X160.925 Y115.925 E96.55639
G1 X160.925 Y124.075 E96.62921
G1 X169.075 Y124.075 E96.70203
G0 F9000 X168.874 Y123.585
G1 F2100 X168.584 Y123.875 E96.7057
G0 F9000 X168.018 Y123.875
G1 F2100 X168.874 Y123.019 E96.71651
G0 F9000 X168.874 Y122.453
G1 F2100 X167.452 Y123.875 E96.73448
G0 F9000 X166.887 Y123.875
G1 F2100 X168.874 Y121.888 E96.75959
G0 F9000 X168.874 Y121.322
G1 F2100 X166.321 Y123.875 E96.79185
G0 F9000 X165.755 Y123.875
G1 F2100 X168.874 Y120.756 E96.83126
G0 F9000 X168.874 Y120.191
G1 F2100 X165.19 Y123.875 E96.87781
G0 F9000 X164.624 Y123.875
G1 F2100 X168.874 Y119.625 E96.93152
G0 F9000 X168.874 Y119.059
G1 F2100 X164.058 Y123.875 E96.99237
G0 F9000 X163.492 Y123.875
G1 F2100 X168.874 Y118.494 E97.06037
G0 F9000 X168.874 Y117.928
G1 F2100 X162.927 Y123.875 E97.13552
G0 F9000 X162.361 Y123.875
G1 F2100 X168.874 Y117.362 E97.21782
G0 F9000 X168.874 Y116.797
G1 F2100 X161.795 Y123.875 E97.30726
G0 F9000 X161.23 Y123.875
G1 F2100 X168.874 Y116.231 E97.40385
G0 F9000 X168.414 Y116.125
G1 F2100 X161.124 Y123.415 E97.49597
G0 F9000 X161.124 Y122.849
G1 F2100 X167.848 Y116.125 E97.58093
G0 F9000 X167.283 Y116.125
G1 F2100 X161.124 Y122.284 E97.65876
G0 F9000 X161.124 Y121.718
G1 F2100 X166.717 Y116.125 E97.72943
G0 F9000 X166.151 Y116.125
G1 F2100 X161.124 Y121.152 E97.79295
G0 F9000 X161.124 Y120.587
G1 F2100 X165.586 Y116.125 E97.84933
G0 F9000 X165.02 Y116.125
G1 F2100 X161.124 Y120.021 E97.89856
G0 F9000 X161.124 Y119.455
G1 F2100 X164.454 Y116.125 E97.94064
G0 F9000 X163.888 Y116.125
G1 F2100 X161.124 Y118.89 E97.97557
G0 F9000 X161.124 Y118.324
G1 F2100 X163.323 Y116.125 E98.00336
G0 F9000 X162.757 Y116.125
G1 F2100 X161.124 Y117.758 E98.02399
G0 F9000 X161.124 Y117.193
G1 F2100 X162.191 Y116.125 E98.03748
G0 F9000 X161.626 Y116.125
G1 F2100 X161.124 Y116.627 E98.04383
M204 S1500
G0 F9000 X161.205 Y116.627
;MESH:NONMESH
G0 F600 X161.205 Y116.627 Z17.3
G0 F9000 X169.525 Y124.525
G0 X169.795 Y124.795
;TIME_ELAPSED:4214.403731;LAYER:62
G4 S30 P0 
;TYPE:WALL-OUTER
;MESH:10mm.stl
G1 F1380 X169.795 Y115.205 E98.13402
G1 X160.205 Y115.205 E98.22422
G1 X160.205 Y124.795 E98.31442
G1 X169.795 Y124.795 E98.40461
G0 F9000 X169.795 Y124.595
G0 X169.395 Y124.395
;TYPE:WALL-INNER
G1 F2700 X169.395 Y115.605 E98.48729
G1 X160.605 Y115.605 E98.56996
G1 X160.605 Y124.395 E98.65263
G1 X169.395 Y124.395 E98.7353
M204 S1000
G0 F9000 X169.075 Y124.075
;TYPE:SKIN
G1 F2100 X169.075 Y115.925 E98.80812
G1 X160.925 Y115.925 E98.88094
G1 X160.925 Y124.075 E98.95376
G1 X169.075 Y124.075 E99.02658
G0 F9000 X168.874 Y116.265
G1 F2100 X168.734 Y116.125 E99.02835
G0 F9000 X168.168 Y116.125
G1 F2100 X168.874 Y116.831 E99.03727
G0 F9000 X168.874 Y117.396
G1 F2100 X167.602 Y116.125 E99.05334
G0 F9000 X167.037 Y116.125
G1 F2100 X168.874 Y117.962 E99.07655
G0 F9000 X168.874 Y118.528
G1 F2100 X166.471 Y116.125 E99.10692
G0 F9000 X165.905 Y116.125
G1 F2100 X168.874 Y119.093 E99.14443
G0 F9000 X168.874 Y119.659
G1 F2100 X165.339 Y116.125 E99.18909
G0 F9000 X164.774 Y116.125
G1 F2100 X168.874 Y120.225 E99.2409
G0 F9000 X168.874 Y120.79
G1 F2100 X164.208 Y116.125 E99.29985
G0 F9000 X163.642 Y116.125
G1 F2100 X168.874 Y121.356 E99.36596
G0 F9000 X168.874 Y121.922
G1 F2100 X163.077 Y116.125 E99.43921
G0 F9000 X162.511 Y116.125
G1 F2100 X168.874 Y122.487 E99.5196
G0 F9000 X168.874 Y123.053
G1 F2100 X161.945 Y116.125 E99.60715
G0 F9000 X161.38 Y116.125
G1 F2100 X168.874 Y123.619 E99.70185
G0 F9000 X168.564 Y123.875
G1 F2100 X161.124 Y116.435 E99.79586
G0 F9000 X161.124 Y117
G1 F2100 X167.998 Y123.875 E99.88273
G0 F9000 X167.432 Y123.875
G1 F2100 X161.124 Y117.566 E99.96244
G0 F9000 X161.124 Y118.132
G1 F2100 X166.867 Y123.875 E100.03501
G0 F9000 X166.301 Y123.875
G1 F2100 X161.124 Y118.697 E100.10043
G0 F9000 X161.124 Y119.263
G1 F2100 X165.735 Y123.875 E100.1587
G0 F9000 X165.17 Y123.875
G1 F2100 X161.124 Y119.829 E100.20983
G0 F9000 X161.124 Y120.394
G1 F2100 X164.604 Y123.875 E100.25381
G0 F9000 X164.038 Y123.875
G1 F2100 X161.124 Y120.96 E100.29063
G0 F9000 X161.124 Y121.526
G1 F2100 X163.473 Y123.875 E100.32032
G0 F9000 X162.907 Y123.875
G1 F2100 X161.124 Y122.091 E100.34285
G0 F9000 X161.124 Y122.657
G1 F2100 X162.341 Y123.875 E100.35824
G0 F9000 X161.776 Y123.875
G1 F2100 X161.124 Y123.223 E100.36648
G0 F9000 X161.124 Y123.788
G1 F2100 X161.21 Y123.875 E100.36757
M204 S1500
G0 F9000 X161.21 Y123.795
;MESH:NONMESH
G0 F600 X161.21 Y123.795 Z17.45
G0 F9000 X169.525 Y124.525
G0 X169.795 Y124.795
;TIME_ELAPSED:4283.898401;LAYER:63
G4 S30 P0 
;TYPE:WALL-OUTER
;MESH:10mm.stl
G1 F1380 X169.795 Y115.205 E100.45777
G1 X160.205 Y115.205 E100.54796
G1 X160.205 Y124.795 E100.63816
G1 X169.795 Y124.795 E100.72836
G0 F9000 X169.795 Y124.595
G0 X169.395 Y124.395
;TYPE:WALL-INNER
G1 F2700 X169.395 Y115.605 E100.81103
G1 X160.605 Y115.605 E100.8937
G1 X160.605 Y124.395 E100.97637
G1 X169.395 Y124.395 E101.05905
M204 S1000
G0 F9000 X169.075 Y124.075
;TYPE:SKIN
G1 F2100 X169.075 Y115.925 E101.13187
G1 X160.925 Y115.925 E101.20469
G1 X160.925 Y124.075 E101.27751
G1 X169.075 Y124.075 E101.35033
G0 F9000 X168.874 Y123.585
G1 F2100 X168.584 Y123.875 E101.35399
G0 F9000 X168.018 Y123.875
G1 F2100 X168.874 Y123.019 E101.36481
G0 F9000 X168.874 Y122.453
G1 F2100 X167.452 Y123.875 E101.38278
G0 F9000 X166.887 Y123.875
G1 F2100 X168.874 Y121.888 E101.40788
G0 F9000 X168.874 Y121.322
G1 F2100 X166.321 Y123.875 E101.44014
G0 F9000 X165.755 Y123.875
G1 F2100 X168.874 Y120.756 E101.47956
G0 F9000 X168.874 Y120.191
G1 F2100 X165.19 Y123.875 E101.52611
G0 F9000 X164.624 Y123.875
G1 F2100 X168.874 Y119.625 E101.57981
G0 F9000 X168.874 Y119.059
G1 F2100 X164.058 Y123.875 E101.64066
G0 F9000 X163.492 Y123.875
G1 F2100 X168.874 Y118.494 E101.70867
G0 F9000 X168.874 Y117.928
G1 F2100 X162.927 Y123.875 E101.78381
G0 F9000 X162.361 Y123.875
G1 F2100 X168.874 Y117.362 E101.86611
G0 F9000 X168.874 Y116.797
G1 F2100 X161.795 Y123.875 E101.95555
G0 F9000 X161.23 Y123.875
G1 F2100 X168.874 Y116.231 E102.05214
G0 F9000 X168.414 Y116.125
G1 F2100 X161.124 Y123.415 E102.14426
G0 F9000 X161.124 Y122.849
G1 F2100 X167.848 Y116.125 E102.22922
G0 F9000 X167.283 Y116.125
G1 F2100 X161.124 Y122.284 E102.30705
G0 F9000 X161.124 Y121.718
G1 F2100 X166.717 Y116.125 E102.37772
G0 F9000 X166.151 Y116.125
G1 F2100 X161.124 Y121.152 E102.44124
G0 F9000 X161.124 Y120.587
G1 F2100 X165.586 Y116.125 E102.49763
G0 F9000 X165.02 Y116.125
G1 F2100 X161.124 Y120.021 E102.54686
G0 F9000 X161.124 Y119.455
G1 F2100 X164.454 Y116.125 E102.58893
G0 F9000 X163.888 Y116.125
G1 F2100 X161.124 Y118.89 E102.62387
G0 F9000 X161.124 Y118.324
G1 F2100 X163.323 Y116.125 E102.65165
G0 F9000 X162.757 Y116.125
G1 F2100 X161.124 Y117.758 E102.67229
G0 F9000 X161.124 Y117.193
G1 F2100 X162.191 Y116.125 E102.68578
G0 F9000 X161.626 Y116.125
G1 F2100 X161.124 Y116.627 E102.69212
M204 S1500
G0 F9000 X161.205 Y116.627
;MESH:NONMESH
G0 F600 X161.205 Y116.627 Z17.6
G0 F9000 X169.525 Y124.525
G0 X169.795 Y124.795
;TIME_ELAPSED:4353.262973;LAYER:64
G4 S30 P0 
;TYPE:WALL-OUTER
;MESH:10mm.stl
G1 F1380 X169.795 Y115.205 E102.78232
G1 X160.205 Y115.205 E102.87251
G1 X160.205 Y124.795 E102.96271
G1 X169.795 Y124.795 E103.05291
G0 F9000 X169.795 Y124.595
G0 X169.395 Y124.395
;TYPE:WALL-INNER
G1 F2700 X169.395 Y115.605 E103.13558
G1 X160.605 Y115.605 E103.21825
G1 X160.605 Y124.395 E103.30092
G1 X169.395 Y124.395 E103.3836
M204 S1000
G0 F9000 X169.075 Y124.075
;TYPE:SKIN
G1 F2100 X169.075 Y115.925 E103.45642
G1 X160.925 Y115.925 E103.52924
G1 X160.925 Y124.075 E103.60206
G1 X169.075 Y124.075 E103.67488
G0 F9000 X168.874 Y116.265
G1 F2100 X168.734 Y116.125 E103.67665
G0 F9000 X168.168 Y116.125
G1 F2100 X168.874 Y116.831 E103.68557
G0 F9000 X168.874 Y117.396
G1 F2100 X167.602 Y116.125 E103.70163
G0 F9000 X167.037 Y116.125
G1 F2100 X168.874 Y117.962 E103.72485
G0 F9000 X168.874 Y118.528
G1 F2100 X166.471 Y116.125 E103.75521
G0 F9000 X165.905 Y116.125
G1 F2100 X168.874 Y119.093 E103.79272
G0 F9000 X168.874 Y119.659
G1 F2100 X165.339 Y116.125 E103.83738
G0 F9000 X164.774 Y116.125
G1 F2100 X168.874 Y120.225 E103.88919
G0 F9000 X168.874 Y120.79
G1 F2100 X164.208 Y116.125 E103.94814
G0 F9000 X163.642 Y116.125
G1 F2100 X168.874 Y121.356 E104.01425
G0 F9000 X168.874 Y121.922
G1 F2100 X163.077 Y116.125 E104.0875
G0 F9000 X162.511 Y116.125
G1 F2100 X168.874 Y122.487 E104.1679
G0 F9000 X168.874 Y123.053
G1 F2100 X161.945 Y116.125 E104.25545
G0 F9000 X161.38 Y116.125
G1 F2100 X168.874 Y123.619 E104.35014
G0 F9000 X168.564 Y123.875
G1 F2100 X161.124 Y116.435 E104.44415
G0 F9000 X161.124 Y117
G1 F2100 X167.998 Y123.875 E104.53102
G0 F9000 X167.432 Y123.875
G1 F2100 X161.124 Y117.566 E104.61073
G0 F9000 X161.124 Y118.132
G1 F2100 X166.867 Y123.875 E104.6833
G0 F9000 X166.301 Y123.875
G1 F2100 X161.124 Y118.697 E104.74872
G0 F9000 X161.124 Y119.263
G1 F2100 X165.735 Y123.875 E104.807
G0 F9000 X165.17 Y123.875
G1 F2100 X161.124 Y119.829 E104.85812
G0 F9000 X161.124 Y120.394
G1 F2100 X164.604 Y123.875 E104.9021
G0 F9000 X164.038 Y123.875
G1 F2100 X161.124 Y120.96 E104.93893
G0 F9000 X161.124 Y121.526
G1 F2100 X163.473 Y123.875 E104.96861
G0 F9000 X162.907 Y123.875
G1 F2100 X161.124 Y122.091 E104.99115
G0 F9000 X161.124 Y122.657
G1 F2100 X162.341 Y123.875 E105.00653
G0 F9000 X161.776 Y123.875
G1 F2100 X161.124 Y123.223 E105.01477
G0 F9000 X161.124 Y123.788
G1 F2100 X161.21 Y123.875 E105.01586
M204 S1500
G0 F9000 X161.21 Y123.795
;MESH:NONMESH
G0 F600 X161.21 Y123.795 Z17.75
G0 F9000 X169.525 Y124.525
G0 X169.795 Y124.795
;TIME_ELAPSED:4422.757643;LAYER:65
G4 S30 P0 
;TYPE:WALL-OUTER
;MESH:10mm.stl
G1 F1380 X169.795 Y115.205 E105.10606
G1 X160.205 Y115.205 E105.19626
G1 X160.205 Y124.795 E105.28645
G1 X169.795 Y124.795 E105.37665
G0 F9000 X169.795 Y124.595
G0 X169.395 Y124.395
;TYPE:WALL-INNER
G1 F2700 X169.395 Y115.605 E105.45932
G1 X160.605 Y115.605 E105.54199
G1 X160.605 Y124.395 E105.62467
G1 X169.395 Y124.395 E105.70734
M204 S1000
G0 F9000 X169.075 Y124.075
;TYPE:SKIN
G1 F2100 X169.075 Y115.925 E105.78016
G1 X160.925 Y115.925 E105.85298
G1 X160.925 Y124.075 E105.9258
G1 X169.075 Y124.075 E105.99862
G0 F9000 X169.295 Y124.075
G0 X169.223 Y115.777
G0 X161.626 Y115.705
G0 F9000 X161.626 Y116.125
;TYPE:SKIN
G1 F2100 X161.124 Y116.627 E106.0053
G0 F9000 X161.124 Y117.193
G1 F2100 X162.191 Y116.125 E106.0195
G0 F9000 X162.757 Y116.125
G1 F2100 X161.124 Y117.758 E106.04122
G0 F9000 X161.124 Y118.324
G1 F2100 X163.323 Y116.125 E106.07047
G0 F9000 X163.888 Y116.125
G1 F2100 X161.124 Y118.89 E106.10724
G0 F9000 X161.124 Y119.455
G1 F2100 X164.454 Y116.125 E106.15153
G0 F9000 X165.02 Y116.125
G1 F2100 X161.124 Y120.021 E106.20335
G0 F9000 X161.124 Y120.587
G1 F2100 X165.586 Y116.125 E106.2627
G0 F9000 X166.151 Y116.125
G1 F2100 X161.124 Y121.152 E106.32956
G0 F9000 X161.124 Y121.718
G1 F2100 X166.717 Y116.125 E106.40396
G0 F9000 X167.283 Y116.125
G1 F2100 X161.124 Y122.284 E106.48588
G0 F9000 X161.124 Y122.849
G1 F2100 X167.848 Y116.125 E106.57531
G0 F9000 X168.414 Y116.125
G1 F2100 X161.124 Y123.415 E106.67228
G0 F9000 X161.23 Y123.875
G1 F2100 X168.874 Y116.231 E106.77395
G0 F9000 X168.874 Y116.797
G1 F2100 X161.795 Y123.875 E106.8681
G0 F9000 X162.361 Y123.875
G1 F2100 X168.874 Y117.362 E106.95473
G0 F9000 X168.874 Y117.928
G1 F2100 X162.927 Y123.875 E107.03384
G0 F9000 X163.492 Y123.875
G1 F2100 X168.874 Y118.494 E107.10542
G0 F9000 X168.874 Y119.059
G1 F2100 X164.058 Y123.875 E107.16947
G0 F9000 X164.624 Y123.875
G1 F2100 X168.874 Y119.625 E107.226
G0 F9000 X168.874 Y120.191
G1 F2100 X165.19 Y123.875 E107.275
G0 F9000 X165.755 Y123.875
G1 F2100 X168.874 Y120.756 E107.31649
G0 F9000 X168.874 Y121.322
G1 F2100 X166.321 Y123.875 E107.35045
G0 F9000 X166.887 Y123.875
G1 F2100 X168.874 Y121.888 E107.37688
G0 F9000 X168.874 Y122.453
G1 F2100 X167.452 Y123.875 E107.39579
G0 F9000 X168.018 Y123.875
G1 F2100 X168.874 Y123.019 E107.40718
G0 F9000 X168.874 Y123.585
G1 F2100 X168.584 Y123.875 E107.41103
;TIME_ELAPSED:4492.566095
M204 S3000

;End of Gcode

