;Generated with ArcOne Post-Processing Script
;top metadata start
;Git Commit Hash (Version): 263167bc2337e4e6d017b970e8e894d87c0bb50f
;START_OF_HEADER
;HEADER_VERSION:0.1
;FLAVOR:Griffin
;GENERATOR.NAME:Cura_SteamEngine
;GENERATOR.VERSION:5.3.1
;GENERATOR.BUILD_DATE:2023-04-19
;TARGET_MACHINE.NAME:Ultimaker S5
;EXTRUDER_TRAIN.0.INITIAL_TEMPERATURE:200
;EXTRUDER_TRAIN.0.MATERIAL.VOLUME_USED:3547
;EXTRUDER_TRAIN.0.MATERIAL.GUID:506c9f0d-e3aa-4bd4-b2d2-23e2425b1aa9
;EXTRUDER_TRAIN.0.NOZZLE.DIAMETER:0.4
;EXTRUDER_TRAIN.0.NOZZLE.NAME:AA 0.4
;BUILD_PLATE.INITIAL_TEMPERATURE:60
;BUILD_VOLUME.TEMPERATURE:28
;PRINT.TIME:1753
;PRINT.GROUPS:1
;PRINT.SIZE.MIN.X:148.277
;PRINT.SIZE.MIN.Y:103.277
;PRINT.SIZE.MIN.Z:0.2
;PRINT.SIZE.MAX.X:181.722
;PRINT.SIZE.MAX.Y:136.722
;PRINT.SIZE.MAX.Z:20
;SLICE_UUID:4268d424-cd8a-4b47-9ef5-c5bd85a62978
;END_OF_HEADER

;Arc One Settings
;weld_gap = 8
;sleep_time = 30
;rotate_amount = 6
;Generated with Cura_SteamEngine 5.3.1 + Arc One
;top metadata end
;startup script start

G92 E0
M109 S200
G280 S1
G0 Z20.001
G1 F2700 E-6.5
;LAYER_COUNT:133
;startup script end

;gcode movements start
M106 S255
M204 S1000
M205 X20 Y20
G1 F600 Z2.2
G0 F9000 X180.683 Y133.271 Z2.2
;TYPE:SKIRT
G1 F600 Z0.2
G1 F2700 E0
G1 F1035 X179.159 Y135.099 
G1 X177.745 Y135.962 
G1 X175.73 Y136.722 
G1 X154.17 Y136.722 
G1 X151.701 Y135.675 
G1 X149.882 Y134.153 
G1 X149.035 Y132.739 
G1 X148.277 Y130.74 
G1 X148.277 Y109.17 
G1 X149.324 Y106.701 
G1 X150.846 Y104.882 
G1 X152.26 Y104.035 
G1 X154.259 Y103.277 
G1 X175.829 Y103.277 
G1 X178.298 Y104.324 
G1 X180.117 Y105.846 
G1 X180.964 Y107.26 
G1 X181.722 Y109.259 
G1 X181.722 Y130.846 
G1 X180.683 Y133.271 
G0 F9000 X180.337 Y133.062
G1 F1035 X178.894 Y134.793 
G1 X177.57 Y135.601 
G1 X175.658 Y136.322 
G1 X154.251 Y136.322 
G1 X151.914 Y135.331 
G1 X150.19 Y133.889 
G1 X149.396 Y132.564 
G1 X148.677 Y130.667 
G1 X148.677 Y109.251 
G1 X149.668 Y106.914 
G1 X151.11 Y105.19 
G1 X152.435 Y104.396 
G1 X154.332 Y103.677 
G1 X175.748 Y103.677 
G1 X178.085 Y104.668 
G1 X179.809 Y106.11 
G1 X180.603 Y107.435 
G1 X181.322 Y109.332 
G1 X181.322 Y130.763 
G1 X180.337 Y133.062 
G0 F9000 X179.991 Y132.853
G1 F1035 X178.629 Y134.487 
G1 X177.395 Y135.24 
G1 X175.586 Y135.922 
G1 X154.332 Y135.922 
G1 X152.127 Y134.987 
G1 X150.498 Y133.625 
G1 X149.757 Y132.389 
G1 X149.077 Y130.594 
G1 X149.077 Y109.332 
G1 X150.012 Y107.127 
G1 X151.374 Y105.498 
G1 X152.61 Y104.757 
G1 X154.405 Y104.077 
G1 X175.667 Y104.077 
G1 X177.872 Y105.012 
G1 X179.501 Y106.374 
G1 X180.242 Y107.61 
G1 X180.922 Y109.405 
G1 X180.922 Y130.68 
G1 X179.991 Y132.853 
G0 F9000 X179.645 Y132.644
G1 F1035 X178.364 Y134.181 
G1 X177.22 Y134.879 
G1 X175.514 Y135.522 
G1 X154.413 Y135.522 
G1 X152.34 Y134.643 
G1 X150.806 Y133.361 
G1 X150.118 Y132.214 
G1 X149.477 Y130.521 
G1 X149.477 Y109.413 
G1 X150.356 Y107.34 
G1 X151.638 Y105.806 
G1 X152.785 Y105.118 
G1 X154.478 Y104.477 
G1 X175.586 Y104.477 
G1 X177.659 Y105.356 
G1 X179.193 Y106.638 
G1 X179.881 Y107.785 
G1 X180.522 Y109.478 
G1 X180.522 Y130.597 
G1 X179.645 Y132.644 
G0 F9000 X179.299 Y132.435
G1 F1035 X178.099 Y133.875 
G1 X177.045 Y134.518 
G1 X175.442 Y135.122 
G1 X154.494 Y135.122 
G1 X152.551 Y134.298 
G1 X151.115 Y133.098 
G1 X150.479 Y132.039 
G1 X149.877 Y130.448 
G1 X149.877 Y109.494 
G1 X150.701 Y107.551 
G1 X151.901 Y106.115 
G1 X152.96 Y105.479 
G1 X154.551 Y104.877 
G1 X175.505 Y104.877 
G1 X177.448 Y105.701 
G1 X178.884 Y106.901 
G1 X179.52 Y107.96 
G1 X180.122 Y109.551 
G1 X180.122 Y130.514 
G1 X179.299 Y132.435 
G0 F9000 X178.953 Y132.226
G1 F1035 X177.834 Y133.569 
G1 X176.87 Y134.157 
G1 X175.37 Y134.722 
G1 X154.575 Y134.722 
G1 X152.762 Y133.953 
G1 X151.424 Y132.835 
G1 X150.84 Y131.863 
G1 X150.277 Y130.375 
G1 X150.277 Y109.575 
G1 X151.046 Y107.762 
G1 X152.164 Y106.424 
G1 X153.136 Y105.84 
G1 X154.624 Y105.277 
G1 X175.424 Y105.277 
G1 X177.237 Y106.046 
G1 X178.575 Y107.164 
G1 X179.159 Y108.136 
G1 X179.722 Y109.624 
G1 X179.722 Y130.431 
G1 X178.953 Y132.226 
G0 F9000 X178.608 Y132.016
G1 F1035 X177.57 Y133.261 
G1 X176.691 Y133.797 
G1 X175.298 Y134.322 
G1 X154.656 Y134.322 
G1 X152.973 Y133.608 
G1 X151.733 Y132.572 
G1 X151.201 Y131.687 
G1 X150.677 Y130.302 
G1 X150.677 Y109.656 
G1 X151.391 Y107.973 
G1 X152.427 Y106.733 
G1 X153.312 Y106.201 
G1 X154.697 Y105.677 
G1 X175.343 Y105.677 
G1 X177.026 Y106.391 
G1 X178.266 Y107.427 
G1 X178.798 Y108.312 
G1 X179.322 Y109.697 
G1 X179.322 Y130.349 
G1 X178.608 Y132.016 
G0 F9000 X178.263 Y131.806
G1 F1035 X177.306 Y132.953 
G1 X176.512 Y133.437 
G1 X175.226 Y133.922 
G1 X154.737 Y133.922 
G1 X153.184 Y133.263 
G1 X152.042 Y132.309 
G1 X151.562 Y131.511 
G1 X151.077 Y130.229 
G1 X151.077 Y109.737 
G1 X151.736 Y108.184 
G1 X152.69 Y107.042 
G1 X153.488 Y106.562 
G1 X154.77 Y106.077 
G1 X175.262 Y106.077 
G1 X176.815 Y106.736 
G1 X177.957 Y107.69 
G1 X178.437 Y108.488 
G1 X178.922 Y109.77 
G1 X178.922 Y130.267 
G1 X178.263 Y131.806 
G0 F9000 X177.918 Y131.596
G1 F1035 X177.043 Y132.645 
G1 X176.333 Y133.077 
G1 X175.154 Y133.522 
G1 X154.818 Y133.522 
G1 X153.397 Y132.919 
G1 X152.35 Y132.044 
G1 X151.923 Y131.335 
G1 X151.477 Y130.156 
G1 X151.477 Y109.818 
G1 X152.08 Y108.397 
G1 X152.955 Y107.35 
G1 X153.664 Y106.923 
G1 X154.843 Y106.477 
G1 X175.181 Y106.477 
G1 X176.602 Y107.08 
G1 X177.649 Y107.955 
G1 X178.076 Y108.664 
G1 X178.522 Y109.843 
G1 X178.522 Y130.185 
G1 X177.918 Y131.596 
G0 F9000 X177.573 Y131.386
G1 F1035 X176.78 Y132.337 
G1 X176.154 Y132.717 
G1 X175.082 Y133.122 
G1 X154.899 Y133.122 
G1 X153.608 Y132.574 
G1 X152.66 Y131.782 
G1 X152.282 Y131.155 
G1 X151.877 Y130.084 
G1 X151.877 Y109.899 
G1 X152.425 Y108.608 
G1 X153.217 Y107.66 
G1 X153.844 Y107.282 
G1 X154.915 Y106.877 
G1 X175.1 Y106.877 
G1 X176.391 Y107.425 
G1 X177.339 Y108.217 
G1 X177.717 Y108.844 
G1 X178.122 Y109.915 
G1 X178.122 Y130.103 
G1 X177.573 Y131.386 
G0 F9000 X177.228 Y131.176
G1 F1035 X176.516 Y132.03 
G1 X175.978 Y132.356 
G1 X175.01 Y132.722 
G1 X154.98 Y132.722 
G1 X153.819 Y132.229 
G1 X152.968 Y131.518 
G1 X152.644 Y130.981 
G1 X152.277 Y130.011 
G1 X152.277 Y109.98 
G1 X152.77 Y108.819 
G1 X153.481 Y107.968 
G1 X154.018 Y107.644 
G1 X154.988 Y107.277 
G1 X175.019 Y107.277 
G1 X176.18 Y107.77 
G1 X177.031 Y108.481 
G1 X177.355 Y109.018 
G1 X177.722 Y109.988 
G1 X177.722 Y130.021 
G1 X177.228 Y131.176 
G0 F9000 X176.883 Y130.966
G1 F1035 X176.252 Y131.723 
G1 X175.837 Y131.982 
G1 X174.938 Y132.322 
G1 X155.061 Y132.322 
G1 X154.03 Y131.884 
G1 X153.277 Y131.255 
G1 X153.018 Y130.839 
G1 X152.677 Y129.938 
G1 X152.677 Y110.061 
G1 X153.115 Y109.03 
G1 X153.744 Y108.277 
G1 X154.16 Y108.018 
G1 X155.061 Y107.677 
G1 X174.938 Y107.677 
G1 X175.969 Y108.115 
G1 X176.722 Y108.744 
G1 X176.981 Y109.16 
G1 X177.322 Y110.061 
G1 X177.322 Y129.939 
G1 X176.883 Y130.966 
G0 F9000 X176.538 Y130.756
G1 F1035 X175.987 Y131.417 
G1 X175.695 Y131.608 
G1 X174.865 Y131.922 
G1 X155.142 Y131.922 
G1 X154.241 Y131.539 
G1 X153.582 Y130.989 
G1 X153.392 Y130.697 
G1 X153.077 Y129.865 
G1 X153.077 Y110.142 
G1 X153.46 Y109.241 
G1 X154.01 Y108.582 
G1 X154.302 Y108.392 
G1 X155.134 Y108.077 
G1 X174.857 Y108.077 
G1 X175.758 Y108.46 
G1 X176.417 Y109.01 
G1 X176.607 Y109.302 
G1 X176.922 Y110.134 
G1 X176.922 Y129.857 
G1 X176.538 Y130.756 
G0 F9000 X176.193 Y130.546
G1 F1035 X175.718 Y131.116 
G1 X175.553 Y131.234 
G1 X174.792 Y131.522 
G1 X155.224 Y131.522 
G1 X154.451 Y131.193 
G1 X153.884 Y130.721 
G1 X153.766 Y130.555 
G1 X153.477 Y129.792 
G1 X153.477 Y110.224 
G1 X153.806 Y109.451 
G1 X154.278 Y108.884 
G1 X154.444 Y108.766 
G1 X155.207 Y108.477 
G1 X174.775 Y108.477 
G1 X175.548 Y108.806 
G1 X176.115 Y109.278 
G1 X176.233 Y109.444 
G1 X176.522 Y110.207 
G1 X176.522 Y129.775 
G1 X176.193 Y130.546 
G0 F9000 X175.848 Y130.336
G1 F1035 X175.411 Y130.86 
G1 X174.719 Y131.122 
G1 X155.306 Y131.122 
G1 X154.663 Y130.848 
G1 X154.14 Y130.413 
G1 X153.877 Y129.719 
G1 X153.877 Y110.306 
G1 X154.151 Y109.663 
G1 X154.586 Y109.14 
G1 X155.28 Y108.877 
G1 X174.693 Y108.877 
G1 X175.336 Y109.151 
G1 X175.859 Y109.586 
G1 X176.122 Y110.28 
G1 X176.122 Y129.693 
G1 X175.848 Y130.336 
G0 F9000 X175.48 Y130.179
G1 F1035 X175.173 Y130.522 
G1 X174.646 Y130.722 
G1 X155.388 Y130.722 
G1 X154.82 Y130.48 
G1 X154.477 Y130.173 
G1 X154.277 Y129.646 
G1 X154.277 Y110.388 
G1 X154.519 Y109.82 
G1 X154.826 Y109.477 
G1 X155.353 Y109.277 
G1 X174.611 Y109.277 
G1 X175.179 Y109.519 
G1 X175.522 Y109.826 
G1 X175.722 Y110.353 
G1 X175.722 Y129.611 
G1 X175.48 Y130.179 
G0 F9000 X175.112 Y130.022
G1 F1035 X174.893 Y130.236 
G1 X174.646 Y130.322 
G1 X155.47 Y130.322 
G1 X154.977 Y130.112 
G1 X154.763 Y129.893 
G1 X154.677 Y129.646 
G1 X154.677 Y110.47 
G1 X154.887 Y109.977 
G1 X155.106 Y109.763 
G1 X155.353 Y109.677 
G1 X174.529 Y109.677 
G1 X175.022 Y109.887 
G1 X175.236 Y110.106 
G1 X175.322 Y110.353 
G1 X175.322 Y129.529 
G1 X175.112 Y130.022 
G0 F9000 X174.759 Y129.833
G1 F1035 X174.646 Y129.922 
G1 X155.47 Y129.922 
G1 X155.166 Y129.759 
G1 X155.077 Y129.646 
G1 X155.077 Y110.47 
G1 X155.24 Y110.166 
G1 X155.353 Y110.077 
G1 X174.529 Y110.077 
G1 X174.833 Y110.24 
G1 X174.922 Y110.353 
G1 X174.922 Y129.529 
G1 X174.759 Y129.833 
;MESH:20mm_cube_soft_edges.STL
G0 F9000 X174.522 Y129.522
;TYPE:WALL-OUTER
G1 F1035 X174.522 Y110.477 
G1 X155.477 Y110.477 
G1 X155.477 Y129.522 
G1 X174.522 Y129.522 
G0 F9000 X174.522 Y129.322
G0 X174.122 Y129.122
;TYPE:WALL-INNER
G1 F1035 X174.122 Y110.878 
G1 X155.878 Y110.878 
G1 X155.878 Y129.122 
G1 X174.122 Y129.122 
G0 F9000 X173.782 Y128.782
;TYPE:SKIN
G1 F1035 X173.782 Y111.218 
G1 X156.218 Y111.218 
G1 X156.218 Y128.782 
G1 X173.782 Y128.782 
G1 F2700 E18.76525
G0 F9000 X174.082 Y128.782
G0 X174.082 Y111.921
G0 X173.581 Y111.921
G1 F2700 E25.26525
G1 F1035 X173.077 Y111.418 
G0 F9000 X172.512 Y111.418
G1 F1035 X173.581 Y112.487 
G0 F9000 X173.581 Y113.052
G1 F1035 X171.946 Y111.418 
G0 F9000 X171.38 Y111.418
G1 F1035 X173.581 Y113.618 
G0 F9000 X173.581 Y114.184
G1 F1035 X170.815 Y111.418 
G0 F9000 X170.249 Y111.418
G1 F1035 X173.581 Y114.749 
G0 F9000 X173.581 Y115.315
G1 F1035 X169.683 Y111.418 
G0 F9000 X169.118 Y111.418
G1 F1035 X173.581 Y115.881 
G0 F9000 X173.581 Y116.447
G1 F1035 X168.552 Y111.418 
G0 F9000 X167.986 Y111.418
G1 F1035 X173.581 Y117.012 
G0 F9000 X173.581 Y117.578
G1 F1035 X167.42 Y111.418 
G0 F9000 X166.855 Y111.418
G1 F1035 X173.581 Y118.144 
G0 F9000 X173.581 Y118.709
G1 F1035 X166.289 Y111.418 
G0 F9000 X165.723 Y111.418
G1 F1035 X173.581 Y119.275 
G0 F9000 X173.581 Y119.841
G1 F1035 X165.158 Y111.418 
G0 F9000 X164.592 Y111.418
G1 F1035 X173.581 Y120.406 
G0 F9000 X173.581 Y120.972
G1 F1035 X164.026 Y111.418 
G0 F9000 X163.461 Y111.418
G1 F1035 X173.581 Y121.538 
G0 F9000 X173.581 Y122.103
G1 F1035 X162.895 Y111.418 
G0 F9000 X162.329 Y111.418
G1 F1035 X173.581 Y122.669 
G0 F9000 X173.581 Y123.235
G1 F1035 X161.764 Y111.418 
G0 F9000 X161.198 Y111.418
G1 F1035 X173.581 Y123.8 
G0 F9000 X173.581 Y124.366
G1 F1035 X160.632 Y111.418 
G0 F9000 X160.067 Y111.418
G1 F1035 X173.581 Y124.932 
G0 F9000 X173.581 Y125.498
G1 F1035 X159.501 Y111.418 
G0 F9000 X158.935 Y111.418
G1 F1035 X173.581 Y126.063 
G0 F9000 X173.581 Y126.629
G1 F1035 X158.369 Y111.418 
G0 F9000 X157.804 Y111.418
G1 F1035 X173.581 Y127.195 
G0 F9000 X173.581 Y127.76
G1 F1035 X157.238 Y111.418 
G0 F9000 X156.672 Y111.418
G1 F1035 X173.581 Y128.326 
G0 F9000 X173.27 Y128.581
G1 F1035 X156.416 Y111.727 
G0 F9000 X156.416 Y112.293
G1 F1035 X172.705 Y128.581 
G0 F9000 X172.139 Y128.581
G1 F1035 X156.416 Y112.859 
G0 F9000 X156.416 Y113.424
G1 F1035 X171.573 Y128.581 
G0 F9000 X171.008 Y128.581
G1 F1035 X156.416 Y113.99 
G0 F9000 X156.416 Y114.556
G1 F1035 X170.442 Y128.581 
G0 F9000 X169.876 Y128.581
G1 F1035 X156.416 Y115.121 
G0 F9000 X156.416 Y115.687
G1 F1035 X169.311 Y128.581 
G0 F9000 X168.745 Y128.581
G1 F1035 X156.416 Y116.253 
G0 F9000 X156.416 Y116.818
G1 F1035 X168.179 Y128.581 
G0 F9000 X167.614 Y128.581
G1 F1035 X156.416 Y117.384 
G0 F9000 X156.416 Y117.95
G1 F1035 X167.048 Y128.581 
G0 F9000 X166.482 Y128.581
G1 F1035 X156.416 Y118.516 
G0 F9000 X156.416 Y119.081
G1 F1035 X165.916 Y128.581 
G0 F9000 X165.351 Y128.581
G1 F1035 X156.416 Y119.647 
G0 F9000 X156.416 Y120.213
G1 F1035 X164.785 Y128.581 
G0 F9000 X164.219 Y128.581
G1 F1035 X156.416 Y120.778 
G0 F9000 X156.416 Y121.344
G1 F1035 X163.654 Y128.581 
G0 F9000 X163.088 Y128.581
G1 F1035 X156.416 Y121.91 
G0 F9000 X156.416 Y122.475
G1 F1035 X162.522 Y128.581 
G0 F9000 X161.957 Y128.581
G1 F1035 X156.416 Y123.041 
G0 F9000 X156.416 Y123.607
G1 F1035 X161.391 Y128.581 
G0 F9000 X160.825 Y128.581
G1 F1035 X156.416 Y124.172 
G0 F9000 X156.416 Y124.738
G1 F1035 X160.26 Y128.581 
G0 F9000 X159.694 Y128.581
G1 F1035 X156.416 Y125.304 
G0 F9000 X156.416 Y125.869
G1 F1035 X159.128 Y128.581 
G0 F9000 X158.563 Y128.581
G1 F1035 X156.416 Y126.435 
G0 F9000 X156.416 Y127.001
G1 F1035 X157.997 Y128.581 
G0 F9000 X157.431 Y128.581
G1 F1035 X156.416 Y127.567 
G0 F9000 X156.416 Y128.132
G1 F1035 X156.865 Y128.581 
M204 S1500
G1 F2700 E26.66108
;MESH:NONMESH
G0 F600 X156.865 Y128.581 Z0.35
G0 F9000 X156.865 Y129.082
G0 X174.252 Y129.252
G0 X174.551 Y129.749
;TIME_ELAPSED:166.852836
;LAYER:1
;TYPE:WALL-OUTER
;MESH:20mm_cube_soft_edges.STL
G1 F2700 E33.16108
G1 F1380 X174.671 Y129.68 
G1 X174.746 Y129.529 
G1 X174.749 Y110.448 
G1 X174.68 Y110.328 
G1 X174.529 Y110.254 
G1 X155.448 Y110.25 
G1 X155.328 Y110.319 
G1 X155.254 Y110.47 
G1 X155.25 Y129.551 
G1 X155.319 Y129.671 
G1 X155.47 Y129.746 
G1 X174.551 Y129.749 
G0 F9000 X174.671 Y129.68
G0 X174.698 Y129.625
G0 X174.346 Y129.349
;TYPE:WALL-INNER
G1 F2700 X174.348 Y110.654 
G1 X155.654 Y110.651 
G1 X155.65 Y129.346 
G1 X174.346 Y129.349 
M204 S1000
G0 F9000 X174.006 Y129.008
;TYPE:SKIN
G1 F2100 X174.007 Y110.994 
G1 X155.994 Y110.992 
G1 X155.991 Y129.006 
G1 X174.006 Y129.008 
G0 F9000 X173.268 Y128.807
G1 F2100 X173.805 Y128.27 
G0 F9000 X173.805 Y127.704
G1 F2100 X172.702 Y128.807 
G0 F9000 X172.136 Y128.807
G1 F2100 X173.805 Y127.139 
G0 F9000 X173.805 Y126.573
G1 F2100 X171.57 Y128.807 
G0 F9000 X171.005 Y128.807
G1 F2100 X173.805 Y126.007 
G0 F9000 X173.805 Y125.442
G1 F2100 X170.439 Y128.807 
G0 F9000 X169.873 Y128.807
G1 F2100 X173.805 Y124.876 
G0 F9000 X173.805 Y124.31
G1 F2100 X169.308 Y128.807 
G0 F9000 X168.742 Y128.807
G1 F2100 X173.805 Y123.745 
G0 F9000 X173.805 Y123.179
G1 F2100 X168.176 Y128.807 
G0 F9000 X167.611 Y128.807
G1 F2100 X173.805 Y122.613 
G0 F9000 X173.805 Y122.048
G1 F2100 X167.046 Y128.807 
G0 F9000 X166.48 Y128.807
G1 F2100 X173.805 Y121.482 
G0 F9000 X173.805 Y120.916
G1 F2100 X165.914 Y128.807 
G0 F9000 X165.349 Y128.807
G1 F2100 X173.805 Y120.35 
G0 F9000 X173.806 Y119.784
G1 F2100 X164.783 Y128.807 
G0 F9000 X164.217 Y128.807
G1 F2100 X173.806 Y119.218 
G0 F9000 X173.806 Y118.653
G1 F2100 X163.652 Y128.807 
G0 F9000 X163.086 Y128.807
G1 F2100 X173.806 Y118.087 
G0 F9000 X173.806 Y117.521
G1 F2100 X162.52 Y128.807 
G0 F9000 X161.955 Y128.806
G1 F2100 X173.806 Y116.956 
G0 F9000 X173.806 Y116.39
G1 F2100 X161.39 Y128.806 
G0 F9000 X160.824 Y128.806
G1 F2100 X173.806 Y115.824 
G0 F9000 X173.806 Y115.259
G1 F2100 X160.258 Y128.806 
G0 F9000 X159.692 Y128.806
G1 F2100 X173.806 Y114.693 
G0 F9000 X173.806 Y114.127
G1 F2100 X159.127 Y128.806 
G0 F9000 X158.561 Y128.806
G1 F2100 X173.806 Y113.562 
G0 F9000 X173.806 Y112.996
G1 F2100 X157.995 Y128.806 
G0 F9000 X157.43 Y128.806
G1 F2100 X173.806 Y112.43 
G0 F9000 X173.806 Y111.864
G1 F2100 X156.864 Y128.806 
G0 F9000 X156.298 Y128.806
G1 F2100 X173.806 Y111.299 
G0 F9000 X173.346 Y111.193
G1 F2100 X156.191 Y128.348 
G0 F9000 X156.191 Y127.782
G1 F2100 X172.78 Y111.193 
G0 F9000 X172.215 Y111.193
G1 F2100 X156.191 Y127.216 
G0 F9000 X156.191 Y126.651
G1 F2100 X171.649 Y111.193 
G0 F9000 X171.083 Y111.193
G1 F2100 X156.191 Y126.085 
G0 F9000 X156.191 Y125.519
G1 F2100 X170.518 Y111.193 
G0 F9000 X169.952 Y111.193
G1 F2100 X156.191 Y124.954 
G0 F9000 X156.192 Y124.387
