;Generated with ArcOne Post-Processing Script
;top metadata start
;Git Commit Hash (Version): 263167bc2337e4e6d017b970e8e894d87c0bb50f
;START_OF_HEADER
;HEADER_VERSION:0.1
;FLAVOR:Griffin
;GENERATOR.NAME:Cura_SteamEngine
;GENERATOR.VERSION:5.3.1
;GENERATOR.BUILD_DATE:2023-04-19
;TARGET_MACHINE.NAME:Ultimaker S5
;EXTRUDER_TRAIN.0.INITIAL_TEMPERATURE:200
;EXTRUDER_TRAIN.0.MATERIAL.VOLUME_USED:3547
;EXTRUDER_TRAIN.0.MATERIAL.GUID:506c9f0d-e3aa-4bd4-b2d2-23e2425b1aa9
;EXTRUDER_TRAIN.0.NOZZLE.DIAMETER:0.4
;EXTRUDER_TRAIN.0.NOZZLE.NAME:AA 0.4
;BUILD_PLATE.INITIAL_TEMPERATURE:60
;BUILD_VOLUME.TEMPERATURE:28
;PRINT.TIME:1753
;PRINT.GROUPS:1
;PRINT.SIZE.MIN.X:148.277
;PRINT.SIZE.MIN.Y:103.277
;PRINT.SIZE.MIN.Z:0.2
;PRINT.SIZE.MAX.X:181.722
;PRINT.SIZE.MAX.Y:136.722
;PRINT.SIZE.MAX.Z:20
;SLICE_UUID:4268d424-cd8a-4b47-9ef5-c5bd85a62978
;END_OF_HEADER
;Generated with Cura_SteamEngine 5.3.1
;top metadata end
;startup script start

G92 E0
M109 S200
G280 S1
G0 Z20.001
G1 F2700 E-6.5
;LAYER_COUNT:133
;startup script end

;gcode movements start
M106 S255
M204 S1000
M205 X20 Y20
G1 F600 Z2.2
G0 F9000 X180.683 Y133.271 Z2.2
;TYPE:SKIRT
G1 F600 Z0.2
G1 F2700 E0
G1 F1035 X179.159 Y135.099 E0.02985
G1 X177.745 Y135.962 E0.05062
G1 X175.73 Y136.722 E0.07763
G1 X154.17 Y136.722 E0.348
G1 X151.701 Y135.675 E0.38163
G1 X149.882 Y134.153 E0.41137
G1 X149.035 Y132.739 E0.43204
G1 X148.277 Y130.74 E0.45885
G1 X148.277 Y109.17 E0.72935
G1 X149.324 Y106.701 E0.76298
G1 X150.846 Y104.882 E0.79272
G1 X152.26 Y104.035 E0.81339
G1 X154.259 Y103.277 E0.8402
G1 X175.829 Y103.277 E1.1107
G1 X178.298 Y104.324 E1.14433
G1 X180.117 Y105.846 E1.17407
G1 X180.964 Y107.26 E1.19474
G1 X181.722 Y109.259 E1.22155
G1 X181.722 Y130.846 E1.49226
G1 X180.683 Y133.271 E1.52534
G0 F9000 X180.337 Y133.062
G1 F1035 X178.894 Y134.793 E1.5536
G1 X177.57 Y135.601 E1.57305
G1 X175.658 Y136.322 E1.59868
G1 X154.251 Y136.322 E1.86713
G1 X151.914 Y135.331 E1.89896
G1 X150.19 Y133.889 E1.92715
G1 X149.396 Y132.564 E1.94652
G1 X148.677 Y130.667 E1.97196
G1 X148.677 Y109.251 E2.24052
G1 X149.668 Y106.914 E2.27236
G1 X151.11 Y105.19 E2.30054
G1 X152.435 Y104.396 E2.31991
G1 X154.332 Y103.677 E2.34535
G1 X175.748 Y103.677 E2.61392
G1 X178.085 Y104.668 E2.64575
G1 X179.809 Y106.11 E2.67394
G1 X180.603 Y107.435 E2.69331
G1 X181.322 Y109.332 E2.71875
G1 X181.322 Y130.763 E2.9875
G1 X180.337 Y133.062 E3.01887
G0 F9000 X179.991 Y132.853
G1 F1035 X178.629 Y134.487 E3.04554
G1 X177.395 Y135.24 E3.06367
G1 X175.586 Y135.922 E3.08791
G1 X154.332 Y135.922 E3.35445
G1 X152.127 Y134.987 E3.38448
G1 X150.498 Y133.625 E3.41111
G1 X149.757 Y132.389 E3.42918
G1 X149.077 Y130.594 E3.45325
G1 X149.077 Y109.332 E3.71989
G1 X150.012 Y107.127 E3.74992
G1 X151.374 Y105.498 E3.77655
G1 X152.61 Y104.757 E3.79462
G1 X154.405 Y104.077 E3.81869
G1 X175.667 Y104.077 E4.08533
G1 X177.872 Y105.012 E4.11536
G1 X179.501 Y106.374 E4.14199
G1 X180.242 Y107.61 E4.16006
G1 X180.922 Y109.405 E4.18413
G1 X180.922 Y130.68 E4.45093
G1 X179.991 Y132.853 E4.48057
G0 F9000 X179.645 Y132.644
G1 F1035 X178.364 Y134.181 E4.50566
G1 X177.22 Y134.879 E4.52247
G1 X175.514 Y135.522 E4.54533
G1 X154.413 Y135.522 E4.80995
G1 X152.34 Y134.643 E4.83818
G1 X150.806 Y133.361 E4.86326
G1 X150.118 Y132.214 E4.88003
G1 X149.477 Y130.521 E4.90273
G1 X149.477 Y109.413 E5.16743
G1 X150.356 Y107.34 E5.19567
G1 X151.638 Y105.806 E5.22074
G1 X152.785 Y105.118 E5.23751
G1 X154.478 Y104.477 E5.26021
G1 X175.586 Y104.477 E5.52492
G1 X177.659 Y105.356 E5.55315
G1 X179.193 Y106.638 E5.57822
G1 X179.881 Y107.785 E5.595
G1 X180.522 Y109.478 E5.6177
G1 X180.522 Y130.597 E5.88254
G1 X179.645 Y132.644 E5.91046
G0 F9000 X179.299 Y132.435
G1 F1035 X178.099 Y133.875 E5.93397
G1 X177.045 Y134.518 E5.94945
G1 X175.442 Y135.122 E5.97094
G1 X154.494 Y135.122 E6.23363
G1 X152.551 Y134.298 E6.2601
G1 X151.115 Y133.098 E6.28357
G1 X150.479 Y132.039 E6.29906
G1 X149.877 Y130.448 E6.32039
G1 X149.877 Y109.494 E6.58316
G1 X150.701 Y107.551 E6.60963
G1 X151.901 Y106.115 E6.63309
G1 X152.96 Y105.479 E6.64859
G1 X154.551 Y104.877 E6.66992
G1 X175.505 Y104.877 E6.93269
G1 X177.448 Y105.701 E6.95915
G1 X178.884 Y106.901 E6.98262
G1 X179.52 Y107.96 E6.99811
G1 X180.122 Y109.551 E7.01945
G1 X180.122 Y130.514 E7.28233
G1 X179.299 Y132.435 E7.30854
G0 F9000 X178.953 Y132.226
G1 F1035 X177.834 Y133.569 E7.33046
G1 X176.87 Y134.157 E7.34462
G1 X175.37 Y134.722 E7.36472
G1 X154.575 Y134.722 E7.6255
G1 X152.762 Y133.953 E7.65019
G1 X151.424 Y132.835 E7.67206
G1 X150.84 Y131.863 E7.68628
G1 X150.277 Y130.375 E7.70623
G1 X150.277 Y109.575 E7.96707
G1 X151.046 Y107.762 E7.99177
G1 X152.164 Y106.424 E8.01363
G1 X153.136 Y105.84 E8.02785
G1 X154.624 Y105.277 E8.0478
G1 X175.424 Y105.277 E8.30864
G1 X177.237 Y106.046 E8.33334
G1 X178.575 Y107.164 E8.3552
G1 X179.159 Y108.136 E8.36943
G1 X179.722 Y109.624 E8.38938
G1 X179.722 Y130.431 E8.6503
G1 X178.953 Y132.226 E8.67479
G0 F9000 X178.608 Y132.016
G1 F1035 X177.57 Y133.261 E8.69512
G1 X176.691 Y133.797 E8.70803
G1 X175.298 Y134.322 E8.7267
G1 X154.656 Y134.322 E8.98556
G1 X152.973 Y133.608 E9.00848
G1 X151.733 Y132.572 E9.02875
G1 X151.201 Y131.687 E9.0417
G1 X150.677 Y130.302 E9.06027
G1 X150.677 Y109.656 E9.31917
G1 X151.391 Y107.973 E9.3421
G1 X152.427 Y106.733 E9.36236
G1 X153.312 Y106.201 E9.37531
G1 X154.697 Y105.677 E9.39388
G1 X175.343 Y105.677 E9.65279
G1 X177.026 Y106.391 E9.67572
G1 X178.266 Y107.427 E9.69598
G1 X178.798 Y108.312 E9.70893
G1 X179.322 Y109.697 E9.7275
G1 X179.322 Y130.349 E9.98648
G1 X178.608 Y132.016 E10.00922
G0 F9000 X178.263 Y131.806
G1 F1035 X177.306 Y132.953 E10.02796
G1 X176.512 Y133.437 E10.03962
G1 X175.226 Y133.922 E10.05685
G1 X154.737 Y133.922 E10.31379
G1 X153.184 Y133.263 E10.33495
G1 X152.042 Y132.309 E10.35361
G1 X151.562 Y131.511 E10.36529
G1 X151.077 Y130.229 E10.38248
G1 X151.077 Y109.737 E10.63945
G1 X151.736 Y108.184 E10.66061
G1 X152.69 Y107.042 E10.67927
G1 X153.488 Y106.562 E10.69095
G1 X154.77 Y106.077 E10.70814
G1 X175.262 Y106.077 E10.96512
G1 X176.815 Y106.736 E10.98627
G1 X177.957 Y107.69 E11.00493
G1 X178.437 Y108.488 E11.01661
G1 X178.922 Y109.77 E11.0338
G1 X178.922 Y130.267 E11.29084
G1 X178.263 Y131.806 E11.31183
G0 F9000 X177.918 Y131.596
G1 F1035 X177.043 Y132.645 E11.32896
G1 X176.333 Y133.077 E11.33939
G1 X175.154 Y133.522 E11.35519
G1 X154.818 Y133.522 E11.61021
G1 X153.397 Y132.919 E11.62957
G1 X152.35 Y132.044 E11.64668
G1 X151.923 Y131.335 E11.65706
G1 X151.477 Y130.156 E11.67287
G1 X151.477 Y109.818 E11.92791
G1 X152.08 Y108.397 E11.94727
G1 X152.955 Y107.35 E11.96438
G1 X153.664 Y106.923 E11.97476
G1 X154.843 Y106.477 E11.99057
G1 X175.181 Y106.477 E12.24561
G1 X176.602 Y107.08 E12.26497
G1 X177.649 Y107.955 E12.28208
G1 X178.076 Y108.664 E12.29246
G1 X178.522 Y109.843 E12.30827
G1 X178.522 Y130.185 E12.56337
G1 X177.918 Y131.596 E12.58261
G0 F9000 X177.573 Y131.386
G1 F1035 X176.78 Y132.337 E12.59814
G1 X176.154 Y132.717 E12.60732
G1 X175.082 Y133.122 E12.6217
G1 X154.899 Y133.122 E12.8748
G1 X153.608 Y132.574 E12.89239
G1 X152.66 Y131.782 E12.90788
G1 X152.282 Y131.155 E12.91706
G1 X151.877 Y130.084 E12.93142
G1 X151.877 Y109.899 E13.18454
G1 X152.425 Y108.608 E13.20213
G1 X153.217 Y107.66 E13.21762
G1 X153.844 Y107.282 E13.2268
G1 X154.915 Y106.877 E13.24116
G1 X175.1 Y106.877 E13.49429
G1 X176.391 Y107.425 E13.51188
G1 X177.339 Y108.217 E13.52737
G1 X177.717 Y108.844 E13.53655
G1 X178.122 Y109.915 E13.55091
G1 X178.122 Y130.103 E13.80407
G1 X177.573 Y131.386 E13.82158
G0 F9000 X177.228 Y131.176
G1 F1035 X176.516 Y132.03 E13.83552
G1 X175.978 Y132.356 E13.84341
G1 X175.01 Y132.722 E13.85638
G1 X154.98 Y132.722 E14.10757
G1 X153.819 Y132.229 E14.12339
G1 X152.968 Y131.518 E14.13729
G1 X152.644 Y130.981 E14.14516
G1 X152.277 Y130.011 E14.15816
G1 X152.277 Y109.98 E14.40936
G1 X152.77 Y108.819 E14.42518
G1 X153.481 Y107.968 E14.43908
G1 X154.018 Y107.644 E14.44695
G1 X154.988 Y107.277 E14.45995
G1 X175.019 Y107.277 E14.71115
G1 X176.18 Y107.77 E14.72697
G1 X177.031 Y108.481 E14.74087
G1 X177.355 Y109.018 E14.74874
G1 X177.722 Y109.988 E14.76174
G1 X177.722 Y130.021 E15.01297
G1 X177.228 Y131.176 E15.02872
G0 F9000 X176.883 Y130.966
G1 F1035 X176.252 Y131.723 E15.04108
G1 X175.837 Y131.982 E15.04721
G1 X174.938 Y132.322 E15.05927
G1 X155.061 Y132.322 E15.30853
G1 X154.03 Y131.884 E15.32258
G1 X153.277 Y131.255 E15.33488
G1 X153.018 Y130.839 E15.34103
G1 X152.677 Y129.938 E15.35311
G1 X152.677 Y110.061 E15.60237
G1 X153.115 Y109.03 E15.61642
G1 X153.744 Y108.277 E15.62872
G1 X154.16 Y108.018 E15.63487
G1 X155.061 Y107.677 E15.64695
G1 X174.938 Y107.677 E15.89622
G1 X175.969 Y108.115 E15.91026
G1 X176.722 Y108.744 E15.92257
G1 X176.981 Y109.16 E15.92871
G1 X177.322 Y110.061 E15.94079
G1 X177.322 Y129.939 E16.19007
G1 X176.883 Y130.966 E16.20408
G0 F9000 X176.538 Y130.756
G1 F1035 X175.987 Y131.417 E16.21487
G1 X175.695 Y131.608 E16.21924
G1 X174.865 Y131.922 E16.23037
G1 X155.142 Y131.922 E16.47771
G1 X154.241 Y131.539 E16.48998
G1 X153.582 Y130.989 E16.50075
G1 X153.392 Y130.697 E16.50512
G1 X153.077 Y129.865 E16.51627
G1 X153.077 Y110.142 E16.76361
G1 X153.46 Y109.241 E16.77588
G1 X154.01 Y108.582 E16.78665
G1 X154.302 Y108.392 E16.79102
G1 X155.134 Y108.077 E16.80217
G1 X174.857 Y108.077 E17.04951
G1 X175.758 Y108.46 E17.06178
G1 X176.417 Y109.01 E17.07255
G1 X176.607 Y109.302 E17.07692
G1 X176.922 Y110.134 E17.08807
G1 X176.922 Y129.857 E17.33541
G1 X176.538 Y130.756 E17.34767
G0 F9000 X176.193 Y130.546
G1 F1035 X175.718 Y131.116 E17.35697
G1 X175.553 Y131.234 E17.35952
G1 X174.792 Y131.522 E17.36972
G1 X155.224 Y131.522 E17.61511
G1 X154.451 Y131.193 E17.62564
G1 X153.884 Y130.721 E17.6349
G1 X153.766 Y130.555 E17.63745
G1 X153.477 Y129.792 E17.64768
G1 X153.477 Y110.224 E17.89307
G1 X153.806 Y109.451 E17.90361
G1 X154.278 Y108.884 E17.91286
G1 X154.444 Y108.766 E17.91541
G1 X155.207 Y108.477 E17.92564
G1 X174.775 Y108.477 E18.17103
G1 X175.548 Y108.806 E18.18157
G1 X176.115 Y109.278 E18.19082
G1 X176.233 Y109.444 E18.19337
G1 X176.522 Y110.207 E18.20361
G1 X176.522 Y129.775 E18.449
G1 X176.193 Y130.546 E18.45951
G0 F9000 X175.848 Y130.336
G1 F1035 X175.411 Y130.86 E18.46807
G1 X174.719 Y131.122 E18.47734
G1 X155.306 Y131.122 E18.72079
G1 X154.663 Y130.848 E18.72956
G1 X154.14 Y130.413 E18.73809
G1 X153.877 Y129.719 E18.74739
G1 X153.877 Y110.306 E18.99084
G1 X154.151 Y109.663 E18.9996
G1 X154.586 Y109.14 E19.00814
G1 X155.28 Y108.877 E19.01744
G1 X174.693 Y108.877 E19.26089
G1 X175.336 Y109.151 E19.26965
G1 X175.859 Y109.586 E19.27818
G1 X176.122 Y110.28 E19.28749
G1 X176.122 Y129.693 E19.53094
G1 X175.848 Y130.336 E19.5397
G0 F9000 X175.48 Y130.179
G1 F1035 X175.173 Y130.522 E19.54547
G1 X174.646 Y130.722 E19.55254
G1 X155.388 Y130.722 E19.79405
G1 X154.82 Y130.48 E19.80179
G1 X154.477 Y130.173 E19.80756
G1 X154.277 Y129.646 E19.81463
G1 X154.277 Y110.388 E20.05613
G1 X154.519 Y109.82 E20.06387
G1 X154.826 Y109.477 E20.06965
G1 X155.353 Y109.277 E20.07672
G1 X174.611 Y109.277 E20.31822
G1 X175.179 Y109.519 E20.32596
G1 X175.522 Y109.826 E20.33173
G1 X175.722 Y110.353 E20.3388
G1 X175.722 Y129.611 E20.5803
G1 X175.48 Y130.179 E20.58805
G0 F9000 X175.112 Y130.022
G1 F1035 X174.893 Y130.236 E20.59189
G1 X174.646 Y130.322 E20.59517
G1 X155.47 Y130.322 E20.83564
G1 X154.977 Y130.112 E20.84236
G1 X154.763 Y129.893 E20.8462
G1 X154.677 Y129.646 E20.84948
G1 X154.677 Y110.47 E21.08995
G1 X154.887 Y109.977 E21.09667
G1 X155.106 Y109.763 E21.10051
G1 X155.353 Y109.677 E21.10379
G1 X174.529 Y109.677 E21.34427
G1 X175.022 Y109.887 E21.35099
G1 X175.236 Y110.106 E21.35483
G1 X175.322 Y110.353 E21.35811
G1 X175.322 Y129.529 E21.59858
G1 X175.112 Y130.022 E21.6053
G0 F9000 X174.759 Y129.833
G1 F1035 X174.646 Y129.922 E21.60711
G1 X155.47 Y129.922 E21.84758
G1 X155.166 Y129.759 E21.85191
G1 X155.077 Y129.646 E21.85371
G1 X155.077 Y110.47 E22.09418
G1 X155.24 Y110.166 E22.09851
G1 X155.353 Y110.077 E22.10031
G1 X174.529 Y110.077 E22.34079
G1 X174.833 Y110.24 E22.34511
G1 X174.922 Y110.353 E22.34692
G1 X174.922 Y129.529 E22.58739
G1 X174.759 Y129.833 E22.59172
;MESH:20mm_cube_soft_edges.STL
G0 F9000 X174.522 Y129.522
;TYPE:WALL-OUTER
G1 F1035 X174.522 Y110.477 E22.85443
G1 X155.477 Y110.477 E23.11715
G1 X155.477 Y129.522 E23.37986
G1 X174.522 Y129.522 E23.64258
G0 F9000 X174.522 Y129.322
G0 X174.122 Y129.122
;TYPE:WALL-INNER
G1 F1035 X174.122 Y110.878 E23.85992
G1 X155.878 Y110.878 E24.07727
G1 X155.878 Y129.122 E24.29462
G1 X174.122 Y129.122 E24.51196
G0 F9000 X173.782 Y128.782
;TYPE:SKIN
G1 F1035 X173.782 Y111.218 E24.70029
G1 X156.218 Y111.218 E24.88861
G1 X156.218 Y128.782 E25.07693
G1 X173.782 Y128.782 E25.26525
G1 F2700 E18.76525
G0 F9000 X174.082 Y128.782
G0 X174.082 Y111.921
G0 X173.581 Y111.921
G1 F2700 E25.26525
G1 F1035 X173.077 Y111.418 E25.27288
G0 F9000 X172.512 Y111.418
G1 F1035 X173.581 Y112.487 E25.28909
G0 F9000 X173.581 Y113.052
G1 F1035 X171.946 Y111.418 E25.31388
G0 F9000 X171.38 Y111.418
G1 F1035 X173.581 Y113.618 E25.34725
G0 F9000 X173.581 Y114.184
G1 F1035 X170.815 Y111.418 E25.38919
G0 F9000 X170.249 Y111.418
G1 F1035 X173.581 Y114.749 E25.4397
G0 F9000 X173.581 Y115.315
G1 F1035 X169.683 Y111.418 E25.4988
G0 F9000 X169.118 Y111.418
G1 F1035 X173.581 Y115.881 E25.56647
G0 F9000 X173.581 Y116.447
G1 F1035 X168.552 Y111.418 E25.64273
G0 F9000 X167.986 Y111.418
G1 F1035 X173.581 Y117.012 E25.72756
G0 F9000 X173.581 Y117.578
G1 F1035 X167.42 Y111.418 E25.82097
G0 F9000 X166.855 Y111.418
G1 F1035 X173.581 Y118.144 E25.92296
G0 F9000 X173.581 Y118.709
G1 F1035 X166.289 Y111.418 E26.03352
G0 F9000 X165.723 Y111.418
G1 F1035 X173.581 Y119.275 E26.15267
G0 F9000 X173.581 Y119.841
G1 F1035 X165.158 Y111.418 E26.28039
G0 F9000 X164.592 Y111.418
G1 F1035 X173.581 Y120.406 E26.41668
G0 F9000 X173.581 Y120.972
G1 F1035 X164.026 Y111.418 E26.56156
G0 F9000 X163.461 Y111.418
G1 F1035 X173.581 Y121.538 E26.71501
G0 F9000 X173.581 Y122.103
G1 F1035 X162.895 Y111.418 E26.87704
G0 F9000 X162.329 Y111.418
G1 F1035 X173.581 Y122.669 E27.04765
G0 F9000 X173.581 Y123.235
G1 F1035 X161.764 Y111.418 E27.22683
G0 F9000 X161.198 Y111.418
G1 F1035 X173.581 Y123.8 E27.41459
G0 F9000 X173.581 Y124.366
G1 F1035 X160.632 Y111.418 E27.61093
G0 F9000 X160.067 Y111.418
G1 F1035 X173.581 Y124.932 E27.81585
G0 F9000 X173.581 Y125.498
G1 F1035 X159.501 Y111.418 E28.02935
G0 F9000 X158.935 Y111.418
G1 F1035 X173.581 Y126.063 E28.25142
G0 F9000 X173.581 Y126.629
G1 F1035 X158.369 Y111.418 E28.48207
G0 F9000 X157.804 Y111.418
G1 F1035 X173.581 Y127.195 E28.7213
G0 F9000 X173.581 Y127.76
G1 F1035 X157.238 Y111.418 E28.96911
G0 F9000 X156.672 Y111.418
G1 F1035 X173.581 Y128.326 E29.2255
G0 F9000 X173.27 Y128.581
G1 F1035 X156.416 Y111.727 E29.48106
G0 F9000 X156.416 Y112.293
G1 F1035 X172.705 Y128.581 E29.72804
G0 F9000 X172.139 Y128.581
G1 F1035 X156.416 Y112.859 E29.96645
G0 F9000 X156.416 Y113.424
G1 F1035 X171.573 Y128.581 E30.19628
G0 F9000 X171.008 Y128.581
G1 F1035 X156.416 Y113.99 E30.41753
G0 F9000 X156.416 Y114.556
G1 F1035 X170.442 Y128.581 E30.6302
G0 F9000 X169.876 Y128.581
G1 F1035 X156.416 Y115.121 E30.8343
G0 F9000 X156.416 Y115.687
G1 F1035 X169.311 Y128.581 E31.02982
G0 F9000 X168.745 Y128.581
G1 F1035 X156.416 Y116.253 E31.21676
G0 F9000 X156.416 Y116.818
G1 F1035 X168.179 Y128.581 E31.39513
G0 F9000 X167.614 Y128.581
G1 F1035 X156.416 Y117.384 E31.56492
G0 F9000 X156.416 Y117.95
G1 F1035 X167.048 Y128.581 E31.72612
G0 F9000 X166.482 Y128.581
G1 F1035 X156.416 Y118.516 E31.87875
G0 F9000 X156.416 Y119.081
G1 F1035 X165.916 Y128.581 E32.0228
G0 F9000 X165.351 Y128.581
G1 F1035 X156.416 Y119.647 E32.15828
G0 F9000 X156.416 Y120.213
G1 F1035 X164.785 Y128.581 E32.28517
G0 F9000 X164.219 Y128.581
G1 F1035 X156.416 Y120.778 E32.40349
G0 F9000 X156.416 Y121.344
G1 F1035 X163.654 Y128.581 E32.51323
G0 F9000 X163.088 Y128.581
G1 F1035 X156.416 Y121.91 E32.61439
G0 F9000 X156.416 Y122.475
G1 F1035 X162.522 Y128.581 E32.70698
G0 F9000 X161.957 Y128.581
G1 F1035 X156.416 Y123.041 E32.79099
G0 F9000 X156.416 Y123.607
G1 F1035 X161.391 Y128.581 E32.86642
